;FLAVOR:Marlin
;TIME:5408
;Filament used: 2.12791m
;Layer height: 0.2
;MINX:33.987
;MINY:33.207
;MINZ:0.2
;MAXX:198.09
;MAXY:187.126
;MAXZ:18.657
;Generated with Cura_SteamEngine 4.10.0
M140 S50
M105
M190 S50
M104 S200
M105
M109 S200
M82 ;absolute extrusion mode
M201 X500.00 Y500.00 Z100.00 E5000.00 ;Setup machine max acceleration
M203 X500.00 Y500.00 Z10.00 E50.00 ;Setup machine max feedrate
M204 P500.00 R1000.00 T500.00 ;Setup Print/Retract/Travel acceleration
M205 X8.00 Y8.00 Z0.40 E5.00 ;Setup Jerk
M220 S100 ;Reset Feedrate
M221 S100 ;Reset Flowrate

G28 ;Home

G92 E0 ;Reset Extruder
G1 Z2.0 F3000 ;Move Z Axis up
G1 X10.1 Y20 Z0.28 F5000.0 ;Move to start position
G1 X10.1 Y200.0 Z0.28 F1500.0 E15 ;Draw the first line
G1 X10.4 Y200.0 Z0.28 F5000.0 ;Move to side a little
G1 X10.4 Y20 Z0.28 F1500.0 E30 ;Draw the second line
G92 E0 ;Reset Extruder
G1 Z2.0 F3000 ;Move Z Axis up

G92 E0
G92 E0
G1 F3000 E-8
;LAYER_COUNT:68
;LAYER:0
M107
G0 F9000 X135.678 Y147.497 Z0.2
;TYPE:SKIRT
G1 F3000 E0
G1 F2400 X136.153 Y147.08 E0.02102
G1 X136.676 Y146.725 E0.04205
G1 X137.24 Y146.439 E0.06308
G1 X137.835 Y146.227 E0.08409
G1 X138.453 Y146.091 E0.10513
G1 X139.214 Y146.033 E0.13052
G1 X144.73 Y146.033 E0.31398
G1 X145.361 Y146.073 E0.33501
G1 X145.982 Y146.192 E0.35604
G1 X146.582 Y146.389 E0.37705
G1 X147.154 Y146.66 E0.3981
G1 X147.686 Y147 E0.4191
G1 X148.266 Y147.497 E0.4445
G1 X148.383 Y147.614 E0.45
G1 X148.8 Y148.089 E0.47103
G1 X149.155 Y148.612 E0.49205
G1 X149.441 Y149.176 E0.51308
G1 X149.653 Y149.771 E0.53409
G1 X149.789 Y150.389 E0.55514
G1 X149.847 Y151.15 E0.58052
G1 X149.847 Y156.086 E0.7447
G1 X152.636 Y163.034 E0.99371
G1 X152.655 Y163.096 E0.99587
G1 X153.82 Y166 E1.09994
G1 X154.018 Y166.6 E1.12095
G1 X154.139 Y167.22 E1.14196
G1 X154.18 Y167.851 E1.16299
G1 X154.141 Y168.482 E1.18402
G1 X154.097 Y168.711 E1.19178
G1 X154.097 Y170.715 E1.25843
G1 X154.065 Y171.216 E1.27513
G1 X154.097 Y171.632 E1.289
G1 X154.097 Y176.533 E1.45201
G1 X154.057 Y177.164 E1.47304
G1 X153.938 Y177.785 E1.49407
G1 X153.741 Y178.385 E1.51508
G1 X153.47 Y178.957 E1.53613
G1 X153.13 Y179.489 E1.55713
G1 X152.633 Y180.069 E1.58253
G1 X152.516 Y180.186 E1.58803
G1 X152.041 Y180.603 E1.60906
G1 X151.518 Y180.958 E1.63008
G1 X150.954 Y181.244 E1.65111
G1 X150.359 Y181.456 E1.67212
G1 X149.741 Y181.592 E1.69317
G1 X148.98 Y181.65 E1.71855
G1 X143.464 Y181.65 E1.90202
G1 X142.833 Y181.61 E1.92305
G1 X142.212 Y181.491 E1.94408
G1 X141.612 Y181.294 E1.96508
G1 X141.04 Y181.023 E1.98613
G1 X140.508 Y180.683 E2.00713
G1 X139.928 Y180.186 E2.03254
G1 X139.811 Y180.069 E2.03804
G1 X139.394 Y179.594 E2.05906
G1 X139.039 Y179.071 E2.08009
G1 X138.753 Y178.507 E2.10112
G1 X138.541 Y177.912 E2.12213
G1 X138.405 Y177.294 E2.14317
G1 X138.347 Y176.533 E2.16856
G1 X138.347 Y171.632 E2.33157
G1 X138.381 Y171.094 E2.3495
G1 X138.347 Y170.715 E2.36215
G1 X138.347 Y168.615 E2.432
G1 X137.022 Y165.306 E2.55055
G1 X136.872 Y164.903 E2.56485
G1 X134.463 Y158.903 E2.7799
G1 X134.222 Y158.125 E2.80699
G1 X134.216 Y158.098 E2.80791
G1 X134.118 Y157.473 E2.82895
G1 X134.097 Y157.013 E2.84426
G1 X134.097 Y151.15 E3.03927
G1 X134.137 Y150.519 E3.0603
G1 X134.256 Y149.898 E3.08133
G1 X134.453 Y149.298 E3.10233
G1 X134.724 Y148.726 E3.12338
G1 X135.064 Y148.194 E3.14438
G1 X135.561 Y147.614 E3.16979
G1 X135.678 Y147.497 E3.17529
G0 F9000 X135.961 Y147.78
G1 F2400 X136.417 Y147.381 E3.19544
G1 X136.922 Y147.045 E3.21562
G1 X137.466 Y146.778 E3.23577
G1 X138.041 Y146.585 E3.25595
G1 X138.636 Y146.469 E3.27611
G1 X139.214 Y146.433 E3.29537
G1 X144.73 Y146.433 E3.47883
G1 X145.335 Y146.473 E3.499
G1 X145.929 Y146.592 E3.51915
G1 X146.503 Y146.788 E3.53932
G1 X147.046 Y147.059 E3.55951
G1 X147.549 Y147.398 E3.57968
G1 X147.983 Y147.78 E3.59891
G1 X148.1 Y147.897 E3.60442
G1 X148.499 Y148.353 E3.62457
G1 X148.835 Y148.858 E3.64474
G1 X149.102 Y149.402 E3.6649
G1 X149.295 Y149.977 E3.68507
G1 X149.411 Y150.572 E3.70523
G1 X149.447 Y151.15 E3.7245
G1 X149.447 Y156.163 E3.89123
G1 X152.265 Y163.183 E4.14282
G1 X152.284 Y163.245 E4.14498
G1 X153.449 Y166.149 E4.24905
G1 X153.637 Y166.725 E4.2692
G1 X153.748 Y167.321 E4.28937
G1 X153.78 Y167.926 E4.30952
G1 X153.731 Y168.531 E4.32971
G1 X153.697 Y168.698 E4.33538
G1 X153.697 Y170.715 E4.40246
G1 X153.668 Y171.16 E4.41729
G1 X153.697 Y171.632 E4.43302
G1 X153.697 Y176.533 E4.59603
G1 X153.657 Y177.138 E4.6162
G1 X153.538 Y177.732 E4.63634
G1 X153.342 Y178.306 E4.65652
G1 X153.071 Y178.849 E4.6767
G1 X152.732 Y179.352 E4.69688
G1 X152.35 Y179.786 E4.71611
G1 X152.233 Y179.903 E4.72161
G1 X151.777 Y180.302 E4.74176
G1 X151.272 Y180.638 E4.76194
G1 X150.728 Y180.905 E4.78209
G1 X150.153 Y181.098 E4.80227
G1 X149.558 Y181.214 E4.82243
G1 X148.98 Y181.25 E4.84169
G1 X143.464 Y181.25 E5.02515
G1 X142.859 Y181.21 E5.04532
G1 X142.265 Y181.091 E5.06547
G1 X141.691 Y180.895 E5.08564
G1 X141.148 Y180.624 E5.10583
G1 X140.645 Y180.285 E5.126
G1 X140.211 Y179.903 E5.14523
G1 X140.094 Y179.786 E5.15074
G1 X139.695 Y179.33 E5.17089
G1 X139.359 Y178.825 E5.19106
G1 X139.092 Y178.281 E5.21122
G1 X138.899 Y177.706 E5.23139
G1 X138.783 Y177.111 E5.25155
G1 X138.747 Y176.533 E5.27081
G1 X138.747 Y171.632 E5.43382
G1 X138.776 Y171.196 E5.44836
G1 X138.747 Y170.715 E5.46438
G1 X138.747 Y168.534 E5.53692
G1 X138.441 Y167.775 E5.56414
G1 X137.394 Y165.157 E5.65792
G1 X137.247 Y164.763 E5.67191
G1 X134.834 Y158.754 E5.88728
G1 X134.613 Y158.038 E5.9122
G1 X134.607 Y158.011 E5.91312
G1 X134.514 Y157.412 E5.93329
G1 X134.497 Y157.013 E5.94657
G1 X134.497 Y151.15 E6.14157
G1 X134.537 Y150.545 E6.16174
G1 X134.656 Y149.951 E6.18189
G1 X134.852 Y149.377 E6.20206
G1 X135.123 Y148.834 E6.22225
G1 X135.462 Y148.331 E6.24242
G1 X135.844 Y147.897 E6.26165
G1 X135.961 Y147.78 E6.26715
G0 F9000 X136.244 Y148.063
G1 F2400 X136.681 Y147.683 E6.28642
G1 X137.166 Y147.366 E6.30569
G1 X137.69 Y147.119 E6.32495
G1 X138.243 Y146.947 E6.34422
G1 X138.815 Y146.852 E6.3635
G1 X139.214 Y146.833 E6.37679
G1 X144.73 Y146.833 E6.56025
G1 X145.308 Y146.873 E6.57952
G1 X145.875 Y146.992 E6.59879
G1 X146.42 Y147.188 E6.61805
G1 X146.933 Y147.457 E6.63732
G1 X147.404 Y147.794 E6.65658
G1 X147.7 Y148.063 E6.66989
G1 X147.817 Y148.18 E6.67539
G1 X148.197 Y148.617 E6.69465
G1 X148.514 Y149.102 E6.71392
G1 X148.761 Y149.626 E6.73319
G1 X148.933 Y150.179 E6.75245
G1 X149.028 Y150.751 E6.77174
G1 X149.047 Y151.15 E6.78502
G1 X149.047 Y156.239 E6.95428
G1 X149.187 Y156.593 E6.96694
G1 X151.893 Y163.332 E7.20848
G1 X151.909 Y163.385 E7.21032
G1 X153.078 Y166.298 E7.31472
G1 X153.256 Y166.849 E7.33398
G1 X153.357 Y167.419 E7.35323
G1 X153.378 Y167.998 E7.3725
G1 X153.319 Y168.575 E7.39179
G1 X153.297 Y168.676 E7.39523
G1 X153.297 Y170.715 E7.46305
G1 X153.266 Y171.161 E7.47792
G1 X153.278 Y171.233 E7.48034
G1 X153.297 Y171.632 E7.49363
G1 X153.297 Y176.533 E7.65664
G1 X153.257 Y177.111 E7.67591
G1 X153.138 Y177.678 E7.69518
G1 X152.942 Y178.223 E7.71444
G1 X152.673 Y178.736 E7.73371
G1 X152.336 Y179.207 E7.75297
G1 X152.067 Y179.503 E7.76627
G1 X151.95 Y179.62 E7.77178
G1 X151.513 Y180 E7.79104
G1 X151.028 Y180.317 E7.81031
G1 X150.504 Y180.564 E7.82958
G1 X149.951 Y180.736 E7.84884
G1 X149.379 Y180.831 E7.86812
G1 X148.98 Y180.85 E7.88141
G1 X143.464 Y180.85 E8.06487
G1 X142.886 Y180.81 E8.08414
G1 X142.319 Y180.691 E8.10341
G1 X141.774 Y180.495 E8.12268
G1 X141.261 Y180.226 E8.14194
G1 X140.79 Y179.889 E8.1612
G1 X140.494 Y179.62 E8.17451
G1 X140.377 Y179.503 E8.18001
G1 X139.997 Y179.066 E8.19927
G1 X139.68 Y178.581 E8.21854
G1 X139.433 Y178.057 E8.23781
G1 X139.261 Y177.504 E8.25707
G1 X139.166 Y176.932 E8.27636
G1 X139.147 Y176.533 E8.28964
G1 X139.147 Y171.632 E8.45265
G1 X139.184 Y171.1 E8.47039
G1 X139.147 Y170.715 E8.48325
G1 X139.147 Y168.458 E8.55832
G1 X138.812 Y167.627 E8.58812
G1 X137.765 Y165.009 E8.6819
G1 X137.622 Y164.624 E8.69556
G1 X135.205 Y158.605 E8.91129
G1 X135.003 Y157.951 E8.93406
G1 X134.997 Y157.924 E8.93498
G1 X134.911 Y157.351 E8.95425
G1 X134.897 Y157.013 E8.9655
G1 X134.897 Y151.15 E9.16051
G1 X134.937 Y150.572 E9.17978
G1 X135.056 Y150.005 E9.19905
G1 X135.252 Y149.46 E9.21831
G1 X135.521 Y148.947 E9.23757
G1 X135.858 Y148.476 E9.25684
G1 X136.127 Y148.18 E9.27014
G1 X136.244 Y148.063 E9.27564
G0 F9000 X136.527 Y148.346
G1 F2400 X136.944 Y147.986 E9.29397
G1 X137.408 Y147.689 E9.31229
G1 X137.911 Y147.463 E9.33063
G1 X138.441 Y147.312 E9.34896
G1 X139.214 Y147.233 E9.3748
G1 X144.73 Y147.233 E9.55827
G1 X145.28 Y147.273 E9.57661
G1 X145.818 Y147.392 E9.59493
G1 X146.333 Y147.588 E9.61326
G1 X146.814 Y147.856 E9.63158
G1 X147.417 Y148.346 E9.65742
G1 X147.534 Y148.463 E9.66292
G1 X147.894 Y148.88 E9.68124
G1 X148.191 Y149.344 E9.69957
G1 X148.417 Y149.847 E9.71791
G1 X148.568 Y150.377 E9.73624
G1 X148.647 Y151.15 E9.76208
G1 X148.647 Y156.315 E9.93387
G1 X148.807 Y156.721 E9.94839
G1 X151.522 Y163.481 E10.19068
G1 X151.538 Y163.534 E10.19252
G1 X152.707 Y166.447 E10.29692
G1 X152.874 Y166.971 E10.31521
G1 X152.964 Y167.515 E10.33355
G1 X152.975 Y168.066 E10.35188
G1 X152.897 Y168.561 E10.36855
G1 X152.897 Y170.715 E10.44019
G1 X152.858 Y171.251 E10.45806
G1 X152.897 Y171.632 E10.4708
G1 X152.897 Y176.533 E10.63381
G1 X152.857 Y177.083 E10.65215
G1 X152.738 Y177.621 E10.67048
G1 X152.542 Y178.136 E10.68881
G1 X152.274 Y178.617 E10.70712
G1 X151.784 Y179.22 E10.73296
G1 X151.667 Y179.337 E10.73847
G1 X151.25 Y179.697 E10.75679
G1 X150.786 Y179.994 E10.77511
G1 X150.283 Y180.22 E10.79345
G1 X149.753 Y180.371 E10.81178
G1 X148.98 Y180.45 E10.83763
G1 X143.464 Y180.45 E11.02109
G1 X142.914 Y180.41 E11.03943
G1 X142.376 Y180.291 E11.05776
G1 X141.861 Y180.095 E11.07608
G1 X141.38 Y179.827 E11.0944
G1 X140.777 Y179.337 E11.12024
G1 X140.66 Y179.22 E11.12574
G1 X140.3 Y178.803 E11.14407
G1 X140.003 Y178.339 E11.16239
G1 X139.777 Y177.836 E11.18073
G1 X139.626 Y177.306 E11.19906
G1 X139.547 Y176.533 E11.22491
G1 X139.547 Y171.632 E11.38791
G1 X139.579 Y171.193 E11.40255
G1 X139.574 Y171.168 E11.4034
G1 X139.547 Y170.715 E11.41849
G1 X139.547 Y168.381 E11.49612
G1 X138.137 Y164.86 E11.62227
G1 X137.985 Y164.452 E11.63675
G1 X135.577 Y158.456 E11.85166
G1 X135.393 Y157.864 E11.87228
G1 X135.387 Y157.837 E11.8732
G1 X135.307 Y157.292 E11.89152
G1 X135.297 Y157.013 E11.90081
G1 X135.297 Y151.15 E12.09581
G1 X135.337 Y150.6 E12.11416
G1 X135.456 Y150.062 E12.13248
G1 X135.652 Y149.547 E12.15081
G1 X135.92 Y149.066 E12.16912
G1 X136.41 Y148.463 E12.19497
G1 X136.527 Y148.346 E12.20047
G0 F9000 X136.81 Y148.629
G1 F2400 X137.206 Y148.29 E12.21781
G1 X137.648 Y148.015 E12.23512
G1 X138.128 Y147.811 E12.25247
G1 X138.633 Y147.683 E12.2698
G1 X139.214 Y147.633 E12.28919
G1 X144.73 Y147.633 E12.47265
G1 X145.25 Y147.673 E12.49
G1 X145.757 Y147.792 E12.50732
G1 X146.24 Y147.987 E12.52465
G1 X146.688 Y148.253 E12.54197
G1 X147.134 Y148.629 E12.56138
G1 X147.251 Y148.746 E12.56688
G1 X147.59 Y149.142 E12.58422
G1 X147.865 Y149.584 E12.60153
G1 X148.069 Y150.064 E12.61888
G1 X148.197 Y150.569 E12.63621
G1 X148.247 Y151.15 E12.6556
G1 X148.247 Y156.391 E12.82992
G1 X148.436 Y156.87 E12.84705
G1 X151.151 Y163.63 E13.08934
G1 X151.17 Y163.693 E13.09153
G1 X152.335 Y166.596 E13.19557
G1 X152.492 Y167.093 E13.2129
G1 X152.57 Y167.608 E13.23023
G1 X152.569 Y168.129 E13.24756
G1 X152.497 Y168.555 E13.26193
G1 X152.497 Y170.715 E13.33377
G1 X152.46 Y171.199 E13.34991
G1 X152.497 Y171.632 E13.36437
G1 X152.497 Y176.533 E13.52737
G1 X152.457 Y177.053 E13.54472
G1 X152.338 Y177.56 E13.56204
G1 X152.143 Y178.043 E13.57937
G1 X151.877 Y178.491 E13.5967
G1 X151.501 Y178.937 E13.6161
G1 X151.384 Y179.054 E13.6216
G1 X150.988 Y179.393 E13.63894
G1 X150.546 Y179.668 E13.65625
G1 X150.066 Y179.872 E13.6736
G1 X149.561 Y180 E13.69093
G1 X148.98 Y180.05 E13.71032
G1 X143.464 Y180.05 E13.89379
G1 X142.944 Y180.01 E13.91113
G1 X142.437 Y179.891 E13.92845
G1 X141.954 Y179.696 E13.94578
G1 X141.506 Y179.43 E13.96311
G1 X141.06 Y179.054 E13.98251
G1 X140.943 Y178.937 E13.98801
G1 X140.604 Y178.541 E14.00535
G1 X140.329 Y178.099 E14.02267
G1 X140.125 Y177.619 E14.04001
G1 X139.997 Y177.114 E14.05734
G1 X139.947 Y176.533 E14.07674
G1 X139.947 Y171.632 E14.23974
G1 X139.986 Y171.125 E14.25666
G1 X139.947 Y170.715 E14.27035
G1 X139.947 Y168.303 E14.35058
G1 X139.555 Y167.33 E14.38547
G1 X138.508 Y164.712 E14.47925
G1 X138.359 Y164.312 E14.49344
G1 X135.948 Y158.307 E14.70867
G1 X135.784 Y157.778 E14.72709
G1 X135.778 Y157.751 E14.72801
G1 X135.697 Y157.013 E14.7527
G1 X135.697 Y151.15 E14.94771
G1 X135.737 Y150.63 E14.96505
G1 X135.856 Y150.123 E14.98237
G1 X136.051 Y149.64 E14.9997
G1 X136.317 Y149.192 E15.01703
G1 X136.693 Y148.746 E15.03643
G1 X136.81 Y148.629 E15.04193
G0 F9000 X137.093 Y148.912
G1 F2400 X137.466 Y148.595 E15.05821
G1 X137.886 Y148.343 E15.07451
G1 X138.341 Y148.163 E15.09078
G1 X138.819 Y148.059 E15.10705
G1 X139.214 Y148.033 E15.12022
G1 X144.73 Y148.033 E15.30368
G1 X145.218 Y148.073 E15.31996
G1 X145.693 Y148.192 E15.33625
G1 X146.142 Y148.386 E15.35252
G1 X146.554 Y148.651 E15.36881
G1 X146.851 Y148.912 E15.38196
G1 X146.968 Y149.029 E15.38747
G1 X147.285 Y149.402 E15.40375
G1 X147.537 Y149.822 E15.42004
G1 X147.717 Y150.277 E15.43631
G1 X147.821 Y150.755 E15.45258
G1 X147.847 Y151.15 E15.46575
G1 X147.847 Y156.467 E15.64259
G1 X148.065 Y157.019 E15.66233
G1 X150.78 Y163.779 E15.90463
G1 X150.799 Y163.841 E15.90678
G1 X151.964 Y166.745 E16.01085
G1 X152.109 Y167.212 E16.02712
G1 X152.175 Y167.697 E16.0434
G1 X152.162 Y168.186 E16.05967
G1 X152.097 Y168.541 E16.07167
G1 X152.097 Y170.715 E16.14398
G1 X152.059 Y171.181 E16.15953
G1 X152.071 Y171.237 E16.16143
G1 X152.097 Y171.632 E16.1746
G1 X152.097 Y176.533 E16.33761
G1 X152.057 Y177.021 E16.35389
G1 X151.938 Y177.496 E16.37018
G1 X151.744 Y177.945 E16.38645
G1 X151.479 Y178.357 E16.40274
G1 X151.218 Y178.654 E16.41589
G1 X151.101 Y178.771 E16.4214
G1 X150.728 Y179.088 E16.43768
G1 X150.308 Y179.34 E16.45397
G1 X149.853 Y179.52 E16.47024
G1 X149.375 Y179.624 E16.48651
G1 X148.98 Y179.65 E16.49968
G1 X143.464 Y179.65 E16.68314
G1 X142.976 Y179.61 E16.69943
G1 X142.501 Y179.491 E16.71571
G1 X142.052 Y179.297 E16.73198
G1 X141.64 Y179.032 E16.74828
G1 X141.343 Y178.771 E16.76143
G1 X141.226 Y178.654 E16.76693
G1 X140.909 Y178.281 E16.78321
G1 X140.657 Y177.861 E16.7995
G1 X140.477 Y177.406 E16.81578
G1 X140.373 Y176.928 E16.83205
G1 X140.347 Y176.533 E16.84521
G1 X140.347 Y171.632 E17.00822
G1 X140.387 Y171.15 E17.02431
G1 X140.362 Y171.017 E17.02881
G1 X140.347 Y170.715 E17.03886
G1 X140.347 Y168.226 E17.12165
G1 X139.926 Y167.181 E17.15912
G1 X138.879 Y164.563 E17.2529
G1 X138.734 Y164.173 E17.26674
G1 X136.319 Y158.158 E17.48232
G1 X136.174 Y157.691 E17.49859
G1 X136.168 Y157.664 E17.49951
G1 X136.097 Y157.013 E17.52129
G1 X136.097 Y151.15 E17.71629
G1 X136.137 Y150.662 E17.73258
G1 X136.256 Y150.187 E17.74886
G1 X136.45 Y149.738 E17.76513
G1 X136.715 Y149.326 E17.78142
G1 X136.976 Y149.029 E17.79457
G1 X137.093 Y148.912 E17.80008
G0 F9000 X137.376 Y149.195
G1 F2400 X137.725 Y148.902 E17.81523
G1 X138.12 Y148.675 E17.83039
G1 X138.548 Y148.52 E17.84553
G1 X139.214 Y148.433 E17.86787
G1 X144.73 Y148.433 E18.05133
G1 X145.184 Y148.473 E18.06649
G1 X145.624 Y148.591 E18.08164
G1 X146.036 Y148.785 E18.09679
G1 X146.568 Y149.195 E18.11913
G1 X146.685 Y149.312 E18.12463
G1 X146.978 Y149.661 E18.13978
G1 X147.205 Y150.056 E18.15494
G1 X147.36 Y150.484 E18.17008
G1 X147.447 Y151.15 E18.19242
G1 X147.447 Y156.543 E18.37179
G1 X147.694 Y157.168 E18.39414
G1 X150.409 Y163.928 E18.63644
G1 X150.428 Y163.991 E18.63862
G1 X151.593 Y166.894 E18.74266
G1 X151.725 Y167.33 E18.75781
G1 X151.779 Y167.782 E18.77295
G1 X151.753 Y168.237 E18.78811
G1 X151.697 Y168.513 E18.79748
G1 X151.697 Y170.715 E18.87072
G1 X151.657 Y171.169 E18.88588
G1 X151.643 Y171.22 E18.88764
G1 X151.697 Y171.632 E18.90146
G1 X151.697 Y176.533 E19.06446
G1 X151.657 Y176.987 E19.07962
G1 X151.539 Y177.427 E19.09477
G1 X151.345 Y177.839 E19.10992
G1 X150.935 Y178.371 E19.13226
G1 X150.818 Y178.488 E19.13776
G1 X150.469 Y178.781 E19.15292
