;FLAVOR:Marlin
;TIME:2908
;Filament used: 1.74185m
;Layer height: 0.2
;MINX:32.217
;MINY:28.069
;MINZ:0.2
;MAXX:94.739
;MAXY:66.569
;MAXZ:21.6
;Generated with Cura_SteamEngine 4.10.0
M140 S50
M105
M190 S50
M104 S200
M105
M109 S200
M82 ;absolute extrusion mode
M201 X500.00 Y500.00 Z100.00 E5000.00 ;Setup machine max acceleration
M203 X500.00 Y500.00 Z10.00 E50.00 ;Setup machine max feedrate
M204 P500.00 R1000.00 T500.00 ;Setup Print/Retract/Travel acceleration
M205 X8.00 Y8.00 Z0.40 E5.00 ;Setup Jerk
M220 S100 ;Reset Feedrate
M221 S100 ;Reset Flowrate

G28 ;Home

G92 E0 ;Reset Extruder
G1 Z2.0 F3000 ;Move Z Axis up
G1 X10.1 Y20 Z0.28 F5000.0 ;Move to start position
G1 X10.1 Y200.0 Z0.28 F1500.0 E15 ;Draw the first line
G1 X10.4 Y200.0 Z0.28 F5000.0 ;Move to side a little
G1 X10.4 Y20 Z0.28 F1500.0 E30 ;Draw the second line
G92 E0 ;Reset Extruder
G1 Z2.0 F3000 ;Move Z Axis up

G92 E0
G92 E0
G1 F3000 E-8
;LAYER_COUNT:109
;LAYER:0
M107
G0 F9000 X34.783 Y32.027 Z0.2
;TYPE:SKIRT
G1 F3000 E0
G1 F2400 X35.415 Y31.333 E0.03122
G1 X36.103 Y30.696 E0.0624
G1 X36.843 Y30.12 E0.09359
G1 X37.629 Y29.608 E0.12479
G1 X38.456 Y29.166 E0.15598
G1 X39.318 Y28.796 E0.18718
G1 X40.208 Y28.5 E0.21838
G1 X41.12 Y28.282 E0.24957
G1 X42.047 Y28.141 E0.28075
G1 X42.918 Y28.082 E0.30979
G1 X43.239 Y28.073 E0.32047
G1 X43.547 Y28.069 E0.33071
G1 X76.91 Y28.069 E1.44037
G1 X77.769 Y28.08 E1.46894
G1 X78.706 Y28.133 E1.50016
G1 X79.634 Y28.266 E1.53134
G1 X80.548 Y28.478 E1.56255
G1 X81.44 Y28.766 E1.59372
G1 X82.305 Y29.13 E1.62494
G1 X83.361 Y29.7 E1.66485
G1 X85.753 Y31.127 E1.75749
G1 X88.002 Y32.382 E1.84315
G1 X88.961 Y32.901 E1.87942
G1 X89.766 Y33.382 E1.91061
G1 X90.527 Y33.93 E1.9418
G1 X91.239 Y34.54 E1.97298
G1 X91.896 Y35.209 E2.00417
G1 X92.494 Y35.932 E2.03538
G1 X93.028 Y36.703 E2.06657
G1 X93.494 Y37.516 E2.09774
G1 X93.89 Y38.367 E2.12896
G1 X94.211 Y39.248 E2.16014
G1 X94.457 Y40.153 E2.19133
G1 X94.624 Y41.076 E2.22253
G1 X94.723 Y42.273 E2.26248
G1 X94.732 Y42.6 E2.27336
G1 X94.736 Y42.897 E2.28324
G1 X94.736 Y44.762 E2.34527
G1 X94.72 Y45.921 E2.38382
G1 X94.739 Y48.464 E2.4684
G1 X94.73 Y48.723 E2.47702
G1 X94.736 Y49.633 E2.50729
G1 X94.736 Y51.526 E2.57025
G1 X94.726 Y52.221 E2.59337
G1 X94.672 Y53.158 E2.62459
G1 X94.539 Y54.086 E2.65577
G1 X94.328 Y55 E2.68697
G1 X94.039 Y55.892 E2.71815
G1 X93.675 Y56.757 E2.74937
G1 X93.239 Y57.587 E2.78055
G1 X92.734 Y58.377 E2.81174
G1 X92.164 Y59.121 E2.84291
G1 X91.532 Y59.814 E2.8741
G1 X90.843 Y60.451 E2.90531
G1 X90.103 Y61.027 E2.9365
G1 X89.112 Y61.655 E2.97552
G1 X88.734 Y61.866 E2.98992
G1 X86.893 Y62.862 E3.05954
G1 X84.717 Y64.121 E3.14316
G1 X84.187 Y64.446 E3.16384
G1 X83.25 Y65.005 E3.20012
G1 X82.425 Y65.45 E3.2313
G1 X81.564 Y65.824 E3.26252
G1 X80.676 Y66.123 E3.29369
G1 X79.991 Y66.298 E3.3172
G1 X79.068 Y66.462 E3.34838
G1 X77.916 Y66.556 E3.38683
G1 X77.598 Y66.565 E3.39741
G1 X77.287 Y66.569 E3.40775
G1 X43.782 Y66.568 E4.52213
G1 X43.084 Y66.559 E4.54535
G1 X42.148 Y66.507 E4.57653
G1 X41.219 Y66.375 E4.60774
G1 X40.305 Y66.165 E4.63893
G1 X39.412 Y65.878 E4.67013
G1 X38.547 Y65.515 E4.70133
G1 X37.716 Y65.081 E4.73251
G1 X36.925 Y64.577 E4.76371
G1 X36.18 Y64.007 E4.7949
G1 X35.486 Y63.376 E4.8261
G1 X34.849 Y62.689 E4.85726
G1 X34.272 Y61.949 E4.88847
G1 X33.76 Y61.163 E4.91967
G1 X33.317 Y60.336 E4.95088
G1 X32.946 Y59.475 E4.98206
G1 X32.65 Y58.585 E5.01325
G1 X32.431 Y57.673 E5.04445
G1 X32.29 Y56.746 E5.07564
G1 X32.23 Y55.857 E5.10527
G1 X32.221 Y55.524 E5.11635
G1 X32.217 Y55.227 E5.12623
G1 X32.218 Y39.594 E5.64619
G1 X32.227 Y38.929 E5.66831
G1 X32.28 Y37.993 E5.69949
G1 X32.412 Y37.064 E5.7307
G1 X32.623 Y36.15 E5.7619
G1 X32.911 Y35.258 E5.79307
G1 X33.274 Y34.393 E5.82427
G1 X33.709 Y33.562 E5.85547
G1 X34.213 Y32.772 E5.88664
G1 X34.783 Y32.027 E5.91784
G0 F9000 X35.178 Y32.18
G1 F2400 X35.806 Y31.508 E5.94843
G1 X36.491 Y30.892 E5.97907
G1 X37.227 Y30.339 E6.00969
G1 X38.008 Y29.851 E6.04032
G1 X38.828 Y29.433 E6.07093
G1 X39.682 Y29.088 E6.10157
G1 X40.562 Y28.818 E6.13218
G1 X41.462 Y28.626 E6.16279
G1 X42.376 Y28.512 E6.19342
G1 X42.929 Y28.482 E6.21184
G1 X43.25 Y28.473 E6.22252
G1 X43.547 Y28.469 E6.2324
G1 X76.91 Y28.469 E7.34206
G1 X77.764 Y28.48 E7.37047
G1 X78.683 Y28.533 E7.40108
G1 X79.594 Y28.666 E7.43171
G1 X80.49 Y28.877 E7.46232
G1 X81.364 Y29.165 E7.49293
G1 X82.211 Y29.528 E7.52358
G1 X83.152 Y30.041 E7.55923
G1 X83.289 Y30.125 E7.56457
G1 X85.533 Y31.462 E7.65145
G1 X87.857 Y32.759 E7.73997
G1 X88.77 Y33.253 E7.7745
G1 X89.56 Y33.725 E7.8051
G1 X90.306 Y34.265 E7.83573
G1 X91.003 Y34.867 E7.86637
G1 X91.644 Y35.528 E7.89699
G1 X92.226 Y36.241 E7.9276
G1 X92.743 Y37.002 E7.9582
G1 X93.193 Y37.806 E7.98885
G1 X93.571 Y38.645 E8.01945
G1 X93.875 Y39.514 E8.05007
G1 X94.103 Y40.406 E8.0807
G1 X94.252 Y41.315 E8.11133
G1 X94.323 Y42.284 E8.14365
G1 X94.332 Y42.611 E8.15453
G1 X94.336 Y42.897 E8.16404
G1 X94.336 Y44.757 E8.22591
G1 X94.32 Y45.921 E8.26462
G1 X94.339 Y48.467 E8.34931
G1 X94.33 Y48.722 E8.35779
G1 X94.336 Y49.633 E8.38809
G1 X94.336 Y51.521 E8.45089
G1 X94.326 Y52.216 E8.47401
G1 X94.273 Y53.135 E8.50462
G1 X94.14 Y54.046 E8.53525
G1 X93.929 Y54.942 E8.56586
G1 X93.64 Y55.816 E8.59648
G1 X93.277 Y56.662 E8.6271
G1 X92.842 Y57.473 E8.65771
G1 X92.338 Y58.244 E8.68834
G1 X91.77 Y58.968 E8.71895
G1 X91.14 Y59.64 E8.74959
G1 X90.455 Y60.254 E8.78018
G1 X89.718 Y60.807 E8.81083
G1 X88.916 Y61.306 E8.84225
G1 X88.543 Y61.514 E8.85645
G1 X86.708 Y62.507 E8.92585
G1 X84.501 Y63.783 E9.01064
G1 X83.982 Y64.102 E9.0309
G1 X83.045 Y64.661 E9.06719
G1 X82.234 Y65.098 E9.09783
G1 X81.389 Y65.463 E9.12844
G1 X80.515 Y65.753 E9.15907
G1 X79.904 Y65.908 E9.18004
G1 X78.998 Y66.068 E9.21064
G1 X77.905 Y66.156 E9.24711
G1 X77.587 Y66.165 E9.25769
G1 X77.287 Y66.169 E9.26767
G1 X43.787 Y66.168 E10.38188
G1 X43.089 Y66.159 E10.4051
G1 X42.17 Y66.107 E10.43571
G1 X41.259 Y65.976 E10.46633
G1 X40.363 Y65.766 E10.49693
G1 X39.488 Y65.479 E10.52756
G1 X38.641 Y65.117 E10.5582
G1 X37.829 Y64.683 E10.58882
G1 X37.058 Y64.181 E10.61942
G1 X36.333 Y63.613 E10.65005
G1 X35.66 Y62.984 E10.68069
G1 X35.045 Y62.3 E10.71129
G1 X34.491 Y61.565 E10.7419
G1 X34.003 Y60.784 E10.77253
G1 X33.584 Y59.964 E10.80316
G1 X33.238 Y59.111 E10.83377
G1 X32.968 Y58.231 E10.86439
G1 X32.775 Y57.33 E10.89504
G1 X32.661 Y56.417 E10.92564
G1 X32.63 Y55.846 E10.94466
G1 X32.621 Y55.513 E10.95574
G1 X32.617 Y55.227 E10.96525
G1 X32.618 Y39.6 E11.48501
G1 X32.627 Y38.935 E11.50713
G1 X32.679 Y38.015 E11.53777
G1 X32.811 Y37.104 E11.56839
G1 X33.022 Y36.208 E11.59901
G1 X33.309 Y35.333 E11.62964
G1 X33.672 Y34.487 E11.66025
G1 X34.106 Y33.675 E11.69088
G1 X34.609 Y32.904 E11.7215
G1 X35.178 Y32.18 E11.75212
G0 F9000 X35.572 Y32.336
G1 F2400 X36.198 Y31.686 E11.78214
G1 X36.879 Y31.093 E11.81217
G1 X37.611 Y30.563 E11.84223
G1 X38.386 Y30.1 E11.87226
G1 X39.199 Y29.707 E11.90229
G1 X40.044 Y29.387 E11.93234
G1 X40.913 Y29.144 E11.96235
G1 X41.801 Y28.978 E11.9924
G1 X42.94 Y28.882 E12.03042
G1 X43.261 Y28.873 E12.0411
G1 X43.547 Y28.869 E12.05061
G1 X76.91 Y28.869 E13.16027
G1 X77.758 Y28.88 E13.18848
G1 X78.66 Y28.933 E13.21853
G1 X79.553 Y29.065 E13.24855
G1 X80.431 Y29.276 E13.27859
G1 X81.287 Y29.564 E13.30863
G1 X82.114 Y29.926 E13.33865
G1 X82.943 Y30.382 E13.37012
G1 X83.116 Y30.488 E13.37687
G1 X85.312 Y31.797 E13.4619
G1 X87.62 Y33.085 E13.54981
G1 X88.58 Y33.604 E13.58611
G1 X89.354 Y34.069 E13.61614
G1 X90.085 Y34.6 E13.64619
G1 X90.765 Y35.194 E13.67622
G1 X91.391 Y35.845 E13.70626
G1 X91.956 Y36.549 E13.73628
G1 X92.457 Y37.301 E13.76634
G1 X92.889 Y38.094 E13.79637
G1 X93.25 Y38.922 E13.82641
G1 X93.536 Y39.778 E13.85643
G1 X93.745 Y40.657 E13.88648
G1 X93.875 Y41.551 E13.91653
G1 X93.923 Y42.295 E13.94133
G1 X93.932 Y42.622 E13.95221
G1 X93.936 Y42.897 E13.96135
G1 X93.936 Y44.751 E14.02302
G1 X93.92 Y45.921 E14.06194
G1 X93.939 Y48.47 E14.14672
G1 X93.93 Y48.721 E14.15507
G1 X93.936 Y49.633 E14.18541
G1 X93.936 Y51.515 E14.248
G1 X93.926 Y52.21 E14.27112
G1 X93.873 Y53.111 E14.30114
G1 X93.74 Y54.005 E14.3312
G1 X93.53 Y54.883 E14.36123
G1 X93.242 Y55.739 E14.39127
G1 X92.879 Y56.566 E14.42131
G1 X92.445 Y57.358 E14.45134
G1 X91.943 Y58.108 E14.48136
G1 X91.376 Y58.811 E14.5114
G1 X90.749 Y59.461 E14.54144
G1 X90.067 Y60.053 E14.57148
G1 X89.335 Y60.583 E14.60153
G1 X88.72 Y60.957 E14.62547
G1 X88.353 Y61.162 E14.63946
G1 X86.497 Y62.166 E14.70964
G1 X84.313 Y63.429 E14.79355
G1 X83.777 Y63.759 E14.81449
G1 X82.84 Y64.318 E14.85078
G1 X82.045 Y64.746 E14.88081
G1 X81.215 Y65.101 E14.91083
G1 X80.356 Y65.382 E14.94089
G1 X79.818 Y65.517 E14.95934
G1 X78.928 Y65.674 E14.9894
G1 X77.894 Y65.756 E15.0239
G1 X77.576 Y65.765 E15.03448
G1 X77.287 Y65.769 E15.04409
G1 X43.792 Y65.768 E16.15814
G1 X43.094 Y65.759 E16.18136
G1 X42.193 Y65.708 E16.21137
G1 X41.299 Y65.576 E16.24143
G1 X40.421 Y65.367 E16.27145
G1 X39.564 Y65.08 E16.30151
G1 X38.737 Y64.719 E16.33152
G1 X37.944 Y64.286 E16.36157
G1 X37.193 Y63.785 E16.3916
G1 X36.489 Y63.219 E16.42164
G1 X35.838 Y62.593 E16.45168
G1 X35.245 Y61.912 E16.48172
G1 X34.715 Y61.181 E16.51175
G1 X34.251 Y60.406 E16.54179
G1 X33.857 Y59.593 E16.57184
G1 X33.537 Y58.749 E16.60186
G1 X33.293 Y57.879 E16.63191
G1 X33.127 Y56.991 E16.66196
G1 X33.03 Y55.836 E16.70051
G1 X33.021 Y55.503 E16.71159
G1 X33.017 Y55.227 E16.72077
G1 X33.018 Y39.605 E17.24036
G1 X33.027 Y38.94 E17.26248
G1 X33.079 Y38.038 E17.29253
G1 X33.211 Y37.145 E17.32255
G1 X33.421 Y36.267 E17.35258
G1 X33.708 Y35.41 E17.38264
G1 X34.07 Y34.583 E17.41267
G1 X34.503 Y33.791 E17.44269
G1 X35.005 Y33.04 E17.47273
G1 X35.572 Y32.336 E17.5028
G1 F3000 E9.5028
G0 F9000 X77.774 Y38.408
G0 X83.893 Y41.908
G0 X84.397 Y42.412
G0 X84.398 Y45.476
G0 X83.945 Y45.929
G0 X79.417 Y47.119
G1 F3000 E17.5028
G1 F2400 X81.379 Y47.119 E17.56805
G1 X81.379 Y47.519 E17.58136
G1 X79.417 Y47.519 E17.64661
G1 X79.417 Y47.119 E17.65992
G0 F9000 X79.017 Y46.719
G1 F2400 X81.779 Y46.719 E17.75178
G1 X81.779 Y47.919 E17.7917
G1 X79.017 Y47.919 E17.88356
G1 X79.017 Y46.719 E17.92347
G0 F9000 X78.617 Y46.319
G1 F2400 X82.179 Y46.319 E18.04194
G1 X82.179 Y48.319 E18.10847
G1 X78.617 Y48.319 E18.22694
G1 X78.617 Y46.319 E18.29346
G1 F3000 E10.29346
;MESH:Base_final.stl
G0 F9000 X77.197 Y46.319
G0 X77.064 Y50.088
G0 X82.954 Y50.101
G0 X82.955 Y51.287
G0 X77.017 Y51.469
;TYPE:WALL-INNER
G1 F3000 E18.29346
G1 F2400 X77.017 Y54.969 E18.40987
G1 X43.817 Y54.969 E19.5141
G1 X43.817 Y39.669 E20.02299
G1 X77.017 Y39.669 E21.12722
G1 X77.017 Y43.169 E21.24363
G1 X83.136 Y43.169 E21.44715
G1 X83.137 Y44.52 E21.49209
G1 X83.137 Y44.719 E21.4987
G1 X82.938 Y44.719 E21.50299
G1 X77.017 Y44.719 E21.69992
G1 X77.017 Y49.919 E21.87287
G1 X83.136 Y49.919 E22.07639
G1 X83.137 Y51.27 E22.12133
G1 X83.137 Y51.469 E22.12794
G1 X82.938 Y51.469 E22.13223
G1 X77.017 Y51.469 E22.32916
G0 F9000 X77.417 Y51.869
;TYPE:WALL-OUTER
G1 F2400 X77.417 Y55.369 E22.44557
G1 X43.417 Y55.369 E23.57641
G1 X43.417 Y39.269 E24.1119
G1 X77.417 Y39.269 E25.24275
G1 X77.417 Y42.769 E25.35916
G1 X83.536 Y42.769 E25.56268
G1 X83.537 Y45.119 E25.64084
G1 X77.417 Y45.119 E25.84439
G1 X77.417 Y49.519 E25.99073
G1 X83.536 Y49.519 E26.19425
G1 X83.537 Y51.869 E26.27241
G1 X77.417 Y51.869 E26.47597
G0 F9000 X77.117 Y51.869
G0 X76.877 Y51.329
G0 X76.627 Y51.079
;TYPE:SKIN
G1 F2400 X76.627 Y54.579 E26.59238
G1 X44.207 Y54.579 E27.67067
G1 X44.207 Y40.059 E28.15361
G1 X76.627 Y40.059 E29.2319
G1 X76.627 Y43.559 E29.34831
G1 X82.746 Y43.559 E29.55183
G1 X82.747 Y44.329 E29.57744
G1 X76.627 Y44.329 E29.78099
G1 X76.627 Y50.309 E29.97989
G1 X82.746 Y50.309 E30.18341
G1 X82.747 Y51.079 E30.20902
G1 X76.627 Y51.079 E30.41257
G0 F9000 X76.877 Y51.329
G0 X82.955 Y51.287
G0 X82.954 Y50.101
G0 X77.189 Y49.747
G0 X77.189 Y44.891
G0 X82.955 Y44.537
G0 X83.027 Y44.119
G0 X82.586 Y44.119
G1 F2400 X82.185 Y43.718 E30.43143
G0 F9000 X82.069 Y44.168
G1 F2400 X81.619 Y43.718 E30.4526
G0 F9000 X81.503 Y44.168
G1 F2400 X81.054 Y43.718 E30.47374
G0 F9000 X80.938 Y44.168
G1 F2400 X80.488 Y43.718 E30.49491
G0 F9000 X80.372 Y44.168
G1 F2400 X79.922 Y43.718 E30.51607
G0 F9000 X79.806 Y44.168
G1 F2400 X79.357 Y43.718 E30.53722
G0 F9000 X79.241 Y44.168
G1 F2400 X78.791 Y43.718 E30.55838
G0 F9000 X78.675 Y44.168
G1 F2400 X78.225 Y43.718 E30.57955
G0 F9000 X78.109 Y44.168
G1 F2400 X77.66 Y43.718 E30.60069
G0 F9000 X77.544 Y44.168
G1 F2400 X77.094 Y43.718 E30.62186
G0 F9000 X76.978 Y44.168
G1 F2400 X76.528 Y43.718 E30.64303
G0 F9000 X76.466 Y43.656
G1 F2400 X73.028 Y40.218 E30.80474
G0 F9000 X73.594 Y40.218
G1 F2400 X76.466 Y43.091 E30.93985
G0 F9000 X76.466 Y42.525
G1 F2400 X74.159 Y40.218 E31.04837
G0 F9000 X74.725 Y40.218
G1 F2400 X76.466 Y41.959 E31.13026
G0 F9000 X76.466 Y41.394
G1 F2400 X75.291 Y40.218 E31.18555
G0 F9000 X75.857 Y40.218
G1 F2400 X76.466 Y40.828 E31.21422
G0 F9000 X76.907 Y40.828
G0 X76.886 Y43.338
G0 X82.954 Y43.351
G0 X82.955 Y44.537
G0 X76.877 Y44.579
G0 X76.466 Y44.222
G1 F2400 X72.462 Y40.218 E31.40256
G0 F9000 X71.897 Y40.218
G1 F2400 X76.466 Y44.788 E31.61749
G0 F9000 X76.466 Y45.353
G1 F2400 X71.331 Y40.218 E31.85903
G0 F9000 X70.765 Y40.218
G1 F2400 X76.466 Y45.919 E32.12718
G0 F9000 X76.466 Y46.485
G1 F2400 X70.2 Y40.218 E32.42194
G0 F9000 X69.634 Y40.218
G1 F2400 X76.466 Y47.05 E32.7433
G0 F9000 X76.466 Y47.616
G1 F2400 X69.068 Y40.218 E33.09128
G0 F9000 X68.503 Y40.218
G1 F2400 X76.466 Y48.182 E33.46586
G0 F9000 X76.466 Y48.747
G1 F2400 X67.937 Y40.218 E33.86703
G0 F9000 X67.371 Y40.218
G1 F2400 X76.466 Y49.313 E34.29483
G0 F9000 X76.466 Y49.879
G1 F2400 X66.806 Y40.218 E34.74923
G0 F9000 X66.24 Y40.218
G1 F2400 X76.466 Y50.444 E35.23023
G0 F9000 X76.49 Y50.469
G1 F2400 X76.94 Y50.918 E35.25138
G0 F9000 X77.056 Y50.469
G1 F2400 X77.505 Y50.918 E35.2725
G0 F9000 X77.621 Y50.469
G1 F2400 X78.071 Y50.918 E35.29364
G0 F9000 X78.187 Y50.469
G1 F2400 X78.637 Y50.918 E35.31478
G0 F9000 X78.753 Y50.469
G1 F2400 X79.203 Y50.918 E35.33593
G0 F9000 X79.318 Y50.469
G1 F2400 X79.768 Y50.918 E35.35707
G0 F9000 X79.884 Y50.469
G1 F2400 X80.334 Y50.918 E35.37821
G0 F9000 X80.45 Y50.469
G1 F2400 X80.9 Y50.918 E35.39936
G0 F9000 X81.016 Y50.469
G1 F2400 X81.465 Y50.918 E35.42047
G0 F9000 X81.581 Y50.469
G1 F2400 X82.031 Y50.918 E35.44162
G0 F9000 X82.147 Y50.469
G1 F2400 X82.585 Y50.907 E35.46222
G0 F9000 X83.027 Y50.907
G0 X82.955 Y51.287
G0 X76.877 Y51.329
G0 X76.466 Y51.01
G1 F2400 X65.674 Y40.218 E35.96984
G0 F9000 X65.108 Y40.218
G1 F2400 X76.466 Y51.576 E36.50409
G0 F9000 X76.466 Y52.142
G1 F2400 X64.543 Y40.218 E37.06493
G0 F9000 X63.977 Y40.218
G1 F2400 X76.466 Y52.707 E37.65238
G0 F9000 X76.466 Y53.273
G1 F2400 X63.411 Y40.218 E38.26644
G0 F9000 X62.846 Y40.218
G1 F2400 X76.466 Y53.839 E38.90711
G0 F9000 X76.466 Y54.404
G1 F2400 X62.28 Y40.218 E39.57438
G0 F9000 X61.714 Y40.218
G1 F2400 X75.914 Y54.418 E40.2423
G0 F9000 X75.348 Y54.418
G1 F2400 X61.149 Y40.218 E40.9102
G0 F9000 X60.583 Y40.218
G1 F2400 X74.782 Y54.418 E41.5781
G0 F9000 X74.217 Y54.418
G1 F2400 X60.017 Y40.218 E42.24603
G0 F9000 X59.452 Y40.218
G1 F2400 X73.651 Y54.418 E42.91393
G0 F9000 X73.085 Y54.418
G1 F2400 X58.886 Y40.218 E43.58183
G0 F9000 X58.32 Y40.218
G1 F2400 X72.52 Y54.418 E44.24975
G0 F9000 X71.954 Y54.418
G1 F2400 X57.755 Y40.218 E44.91766
G0 F9000 X57.189 Y40.218
G1 F2400 X71.388 Y54.418 E45.58556
G0 F9000 X70.823 Y54.418
G1 F2400 X56.623 Y40.218 E46.25348
G0 F9000 X56.058 Y40.218
G1 F2400 X70.257 Y54.418 E46.92138
G0 F9000 X69.691 Y54.418
G1 F2400 X55.492 Y40.218 E47.58928
G0 F9000 X54.926 Y40.218
G1 F2400 X69.126 Y54.418 E48.25721
G0 F9000 X68.56 Y54.418
G1 F2400 X54.36 Y40.218 E48.92513
G0 F9000 X53.795 Y40.218
G1 F2400 X67.994 Y54.418 E49.59303
G0 F9000 X67.428 Y54.418
G1 F2400 X53.229 Y40.218 E50.26093
G0 F9000 X52.663 Y40.218
G1 F2400 X66.863 Y54.418 E50.92886
G0 F9000 X66.297 Y54.418
G1 F2400 X52.098 Y40.218 E51.59676
G0 F9000 X51.532 Y40.218
G1 F2400 X65.731 Y54.418 E52.26466
G0 F9000 X65.166 Y54.418
G1 F2400 X50.966 Y40.218 E52.93258
G0 F9000 X50.401 Y40.218
G1 F2400 X64.6 Y54.418 E53.60049
G0 F9000 X64.034 Y54.418
