;FLAVOR:Marlin
;TIME:7328
;Filament used: 3.1779m
;Layer height: 0.16
;MINX:72
;MINY:90.75
;MINZ:0.2
;MAXX:144.12
;MAXY:129.252
;MAXZ:27.2
;Generated with Cura_SteamEngine 4.10.0
M140 S50
M105
M190 S50
M104 S200
M105
M109 S200
M82 ;absolute extrusion mode
M201 X500.00 Y500.00 Z100.00 E5000.00 ;Setup machine max acceleration
M203 X500.00 Y500.00 Z10.00 E50.00 ;Setup machine max feedrate
M204 P500.00 R1000.00 T500.00 ;Setup Print/Retract/Travel acceleration
M205 X8.00 Y8.00 Z0.40 E5.00 ;Setup Jerk
M220 S100 ;Reset Feedrate
M221 S100 ;Reset Flowrate

G28 ;Home

G92 E0 ;Reset Extruder
G1 Z2.0 F3000 ;Move Z Axis up
G1 X10.1 Y20 Z0.28 F5000.0 ;Move to start position
G1 X10.1 Y200.0 Z0.28 F1500.0 E15 ;Draw the first line
G1 X10.4 Y200.0 Z0.28 F5000.0 ;Move to side a little
G1 X10.4 Y20 Z0.28 F1500.0 E30 ;Draw the second line
G92 E0 ;Reset Extruder
G1 Z2.0 F3000 ;Move Z Axis up

G92 E0
G92 E0
G1 F2700 E-5
;LAYER_COUNT:195
;LAYER:0
M107
G0 F6000 X76.035 Y95.794 Z0.2
;TYPE:SKIRT
G1 F2700 E0
G1 F1200 X76.777 Y95.22 E0.0312
G1 X77.566 Y94.713 E0.06239
G1 X78.394 Y94.274 E0.09357
G1 X79.258 Y93.907 E0.12479
G1 X80.149 Y93.615 E0.15597
G1 X81.062 Y93.401 E0.18716
G1 X81.99 Y93.264 E0.21836
G1 X82.751 Y93.212 E0.24373
G1 X83.143 Y93.202 E0.25677
G1 X83.9 Y93.193 E0.28195
G1 X84.067 Y93.182 E0.28752
G1 X85.679 Y93.159 E0.34114
G1 X88.967 Y93.007 E0.45062
G1 X89.378 Y92.981 E0.46431
G1 X89.661 Y92.966 E0.47374
G1 X90.136 Y92.952 E0.48955
G1 X90.657 Y92.948 E0.50688
G1 X98.614 Y92.944 E0.77153
G1 X101.216 Y92.906 E0.85808
G1 X103.746 Y92.797 E0.9423
G1 X106.223 Y92.621 E1.0249
G1 X108.749 Y92.368 E1.10933
G1 X111.249 Y92.048 E1.19316
G1 X113.763 Y91.653 E1.2778
G1 X116.231 Y91.192 E1.36131
G1 X116.963 Y91.039 E1.38618
G1 X117.358 Y90.963 E1.39956
G1 X118.285 Y90.825 E1.43073
G1 X119.253 Y90.767 E1.46299
G1 X120.336 Y90.75 E1.49901
G1 X132.571 Y90.751 E1.90595
G1 X133.269 Y90.761 E1.92917
G1 X134.205 Y90.815 E1.96035
G1 X135.133 Y90.947 E1.99153
G1 X136.047 Y91.159 E2.02273
G1 X136.939 Y91.448 E2.05392
G1 X137.804 Y91.811 E2.08512
G1 X138.634 Y92.247 E2.1163
G1 X139.425 Y92.752 E2.14752
G1 X140.169 Y93.323 E2.17871
G1 X140.862 Y93.955 E2.2099
G1 X141.499 Y94.643 E2.24109
G1 X142.074 Y95.384 E2.27228
G1 X142.585 Y96.17 E2.30347
G1 X143.027 Y96.998 E2.33468
G1 X143.396 Y97.86 E2.36587
G1 X143.691 Y98.75 E2.39706
G1 X143.909 Y99.662 E2.42824
G1 X144.049 Y100.59 E2.45946
G1 X144.107 Y101.451 E2.48816
G1 X144.116 Y101.771 E2.49881
G1 X144.12 Y102.08 E2.50909
G1 X144.119 Y103.669 E2.56194
G1 X144.11 Y104.357 E2.58482
G1 X144.102 Y104.668 E2.59517
G1 X144.036 Y106.243 E2.6476
G1 X144.018 Y106.575 E2.65866
G1 X143.955 Y109.049 E2.74097
G1 X143.963 Y111.566 E2.82469
G1 X144.1 Y115.239 E2.94694
G1 X144.115 Y115.724 E2.96307
G1 X144.12 Y116.064 E2.97438
G1 X144.119 Y117.665 E3.02763
G1 X144.109 Y118.392 E3.05182
G1 X144.056 Y119.329 E3.08303
G1 X143.924 Y120.257 E3.11421
G1 X143.713 Y121.171 E3.14541
G1 X143.424 Y122.063 E3.17659
G1 X143.061 Y122.928 E3.20779
G1 X142.626 Y123.759 E3.23899
G1 X142.121 Y124.549 E3.27018
G1 X141.551 Y125.294 E3.30137
G1 X140.92 Y125.988 E3.33257
G1 X140.231 Y126.625 E3.36378
G1 X139.491 Y127.201 E3.39497
G1 X138.705 Y127.712 E3.42615
G1 X137.878 Y128.154 E3.45734
G1 X137.016 Y128.524 E3.48854
G1 X136.126 Y128.819 E3.51973
G1 X135.214 Y129.038 E3.55092
G1 X134.287 Y129.178 E3.5821
G1 X133.419 Y129.237 E3.61104
G1 X133.099 Y129.246 E3.62169
G1 X132.801 Y129.25 E3.6316
G1 X130.845 Y129.252 E3.69666
G1 X129.662 Y129.25 E3.736
G1 X120.169 Y129.25 E4.05174
G1 X119.313 Y129.239 E4.08021
G1 X118.376 Y129.185 E4.11143
G1 X117.471 Y129.057 E4.14183
G1 X117.005 Y128.969 E4.1576
G1 X114.937 Y128.555 E4.22775
G1 X112.468 Y128.132 E4.31107
G1 X109.973 Y127.777 E4.39489
G1 X107.468 Y127.492 E4.47874
G1 X104.926 Y127.277 E4.56359
G1 X102.503 Y127.139 E4.64431
G1 X98.571 Y127.056 E4.77512
G1 X90.642 Y127.052 E5.03884
G1 X89.973 Y127.043 E5.06109
G1 X89.598 Y127.032 E5.07357
G1 X87.013 Y126.886 E5.15968
G1 X84.466 Y126.813 E5.24443
G1 X82.972 Y126.793 E5.29413
G1 X82.036 Y126.74 E5.32531
G1 X81.107 Y126.608 E5.35652
G1 X80.193 Y126.397 E5.38772
G1 X79.301 Y126.109 E5.41889
G1 X78.436 Y125.746 E5.45009
G1 X77.605 Y125.311 E5.48129
G1 X76.815 Y124.806 E5.51247
G1 X76.07 Y124.236 E5.54367
G1 X75.344 Y123.572 E5.5764
G1 X75.232 Y123.46 E5.58167
G1 X74.598 Y122.769 E5.61286
G1 X74.024 Y122.027 E5.64406
G1 X73.517 Y121.238 E5.67525
G1 X73.078 Y120.41 E5.70642
G1 X72.711 Y119.546 E5.73764
G1 X72.419 Y118.655 E5.76883
G1 X72.205 Y117.742 E5.80002
G1 X72.068 Y116.814 E5.83122
G1 X72.016 Y116.053 E5.85659
G1 X72.006 Y115.656 E5.8698
G1 X72 Y115.082 E5.88889
G1 X72.001 Y112.486 E5.97523
G1 X72.014 Y111.565 E6.00587
G1 X72.018 Y109.123 E6.08709
G1 X72 Y107.505 E6.14091
G1 X72.001 Y104.839 E6.22958
G1 X72.011 Y104.157 E6.25227
G1 X72.065 Y103.22 E6.28348
G1 X72.198 Y102.292 E6.31466
G1 X72.41 Y101.378 E6.34587
G1 X72.699 Y100.486 E6.37706
G1 X73.063 Y99.622 E6.40824
G1 X73.499 Y98.792 E6.43942
G1 X74.004 Y98.001 E6.47063
G1 X74.575 Y97.257 E6.50183
G1 X75.232 Y96.54 E6.53417
G1 X75.344 Y96.428 E6.53944
G1 X76.035 Y95.794 E6.57063
G0 F6000 X76.305 Y96.089
G1 F1200 X77.035 Y95.528 E6.60125
G1 X77.811 Y95.032 E6.63189
G1 X78.627 Y94.606 E6.6625
G1 X79.477 Y94.252 E6.69313
G1 X80.355 Y93.974 E6.72376
G1 X81.253 Y93.772 E6.75437
G1 X82.166 Y93.649 E6.78501
G1 X82.764 Y93.612 E6.80494
G1 X83.148 Y93.602 E6.81772
G1 X83.856 Y93.594 E6.84127
G1 X84.073 Y93.582 E6.84849
G1 X85.672 Y93.559 E6.90168
G1 X89.011 Y93.405 E7.01286
G1 X89.404 Y93.38 E7.02595
G1 X89.833 Y93.36 E7.04024
G1 X90.14 Y93.352 E7.05045
G1 X90.657 Y93.348 E7.06765
G1 X98.619 Y93.344 E7.33247
G1 X101.239 Y93.306 E7.41962
G1 X103.758 Y93.197 E7.50348
G1 X106.256 Y93.019 E7.58677
G1 X108.803 Y92.765 E7.67191
G1 X111.326 Y92.441 E7.75651
G1 X113.793 Y92.054 E7.83957
G1 X116.3 Y91.586 E7.92439
G1 X117.038 Y91.432 E7.94946
G1 X117.433 Y91.356 E7.96284
G1 X118.344 Y91.221 E7.99347
G1 X119.259 Y91.166 E8.02396
G1 X120.159 Y91.151 E8.0539
G1 X132.413 Y91.15 E8.46147
G1 X133.263 Y91.161 E8.48974
G1 X134.182 Y91.214 E8.52036
G1 X135.093 Y91.347 E8.55098
G1 X135.989 Y91.558 E8.5816
G1 X136.863 Y91.846 E8.6122
G1 X137.71 Y92.209 E8.64285
G1 X138.521 Y92.644 E8.67346
G1 X139.291 Y93.148 E8.70407
G1 X140.015 Y93.717 E8.7347
G1 X140.687 Y94.347 E8.76534
G1 X141.302 Y95.032 E8.79595
G1 X141.855 Y95.768 E8.82657
G1 X142.342 Y96.549 E8.85719
G1 X142.759 Y97.37 E8.88781
G1 X143.104 Y98.224 E8.91845
G1 X143.373 Y99.104 E8.94905
G1 X143.565 Y100.005 E8.97969
G1 X143.678 Y100.918 E9.01029
G1 X143.707 Y101.462 E9.02841
G1 X143.716 Y101.782 E9.03906
G1 X143.72 Y102.08 E9.04897
G1 X143.719 Y103.664 E9.10165
G1 X143.71 Y104.352 E9.12454
G1 X143.702 Y104.652 E9.13452
G1 X143.636 Y106.222 E9.18679
G1 X143.621 Y106.508 E9.19631
G1 X143.556 Y109.075 E9.28172
G1 X143.563 Y111.553 E9.36414
G1 X143.7 Y115.251 E9.48722
G1 X143.715 Y115.736 E9.50336
G1 X143.72 Y116.064 E9.51427
G1 X143.719 Y117.66 E9.56735
G1 X143.709 Y118.387 E9.59153
G1 X143.656 Y119.306 E9.62215
G1 X143.524 Y120.217 E9.65277
G1 X143.313 Y121.113 E9.68338
G1 X143.026 Y121.988 E9.71401
G1 X142.663 Y122.834 E9.74463
G1 X142.229 Y123.646 E9.77525
G1 X141.725 Y124.417 E9.80589
G1 X141.157 Y125.141 E9.83649
G1 X140.528 Y125.813 E9.86711
G1 X139.843 Y126.428 E9.89773
G1 X139.107 Y126.981 E9.92835
G1 X138.326 Y127.469 E9.95898
G1 X137.506 Y127.887 E9.98959
G1 X136.652 Y128.232 E10.02022
G1 X135.772 Y128.501 E10.05083
G1 X134.871 Y128.694 E10.08148
G1 X133.958 Y128.807 E10.11207
G1 X133.408 Y128.837 E10.13039
G1 X133.088 Y128.846 E10.14104
G1 X132.801 Y128.85 E10.15059
G1 X130.846 Y128.852 E10.21561
G1 X129.663 Y128.85 E10.25496
G1 X120.169 Y128.85 E10.57073
G1 X119.318 Y128.839 E10.59904
G1 X118.399 Y128.786 E10.62965
G1 X117.544 Y128.663 E10.65838
G1 X117.084 Y128.577 E10.67395
G1 X115.018 Y128.163 E10.74403
G1 X112.52 Y127.735 E10.82833
G1 X110.003 Y127.377 E10.91288
G1 X107.511 Y127.094 E10.9963
G1 X104.984 Y126.88 E11.08065
G1 X102.505 Y126.739 E11.16324
G1 X98.579 Y126.656 E11.29384
G1 X90.647 Y126.652 E11.55766
G1 X89.978 Y126.643 E11.57992
G1 X89.617 Y126.632 E11.59193
G1 X89.351 Y126.619 E11.60079
G1 X87.047 Y126.488 E11.67754
G1 X84.417 Y126.413 E11.76505
G1 X82.978 Y126.393 E11.81292
G1 X82.059 Y126.341 E11.84353
G1 X81.147 Y126.208 E11.87419
G1 X80.251 Y125.998 E11.90479
G1 X79.377 Y125.71 E11.9354
G1 X78.53 Y125.348 E11.96604
G1 X77.719 Y124.913 E11.99665
G1 X76.948 Y124.41 E12.02727
G1 X76.223 Y123.842 E12.0579
G1 X75.627 Y123.289 E12.08494
G1 X75.515 Y123.177 E12.09021
G1 X74.893 Y122.499 E12.12081
G1 X74.332 Y121.769 E12.15143
G1 X73.836 Y120.993 E12.18206
G1 X73.41 Y120.177 E12.21268
G1 X73.056 Y119.327 E12.2433
G1 X72.778 Y118.449 E12.27394
G1 X72.576 Y117.551 E12.30455
G1 X72.453 Y116.638 E12.33519
G1 X72.416 Y116.04 E12.35512
G1 X72.406 Y115.651 E12.36806
G1 X72.4 Y115.082 E12.38699
G1 X72.401 Y112.492 E12.47313
G1 X72.414 Y111.571 E12.50377
G1 X72.418 Y109.123 E12.58519
G1 X72.4 Y107.505 E12.63901
G1 X72.401 Y104.845 E12.72748
G1 X72.411 Y104.163 E12.75016
G1 X72.465 Y103.243 E12.78082
G1 X72.598 Y102.333 E12.8114
G1 X72.809 Y101.436 E12.84205
G1 X73.098 Y100.562 E12.87267
G1 X73.461 Y99.716 E12.90329
G1 X73.896 Y98.905 E12.9339
G1 X74.4 Y98.135 E12.96451
G1 X74.969 Y97.411 E12.99513
G1 X75.515 Y96.823 E13.02182
G1 X75.627 Y96.711 E13.02709
G1 X76.305 Y96.089 E13.05769
G0 F6000 X76.576 Y96.384
G1 F1200 X77.293 Y95.835 E13.08773
G1 X78.057 Y95.353 E13.11777
G1 X78.86 Y94.939 E13.14782
G1 X79.696 Y94.599 E13.17784
G1 X80.559 Y94.333 E13.20787
G1 X81.442 Y94.145 E13.2379
G1 X82.778 Y94.012 E13.28256
G1 X83.152 Y94.002 E13.295
G1 X83.756 Y93.995 E13.31509
G1 X84.079 Y93.982 E13.32584
G1 X85.696 Y93.959 E13.37963
G1 X88.999 Y93.807 E13.4896
G1 X89.429 Y93.779 E13.50394
G1 X89.848 Y93.76 E13.51789
G1 X90.143 Y93.752 E13.5277
G1 X90.657 Y93.748 E13.5448
G1 X98.625 Y93.744 E13.80981
G1 X101.226 Y93.706 E13.89633
G1 X103.803 Y93.595 E13.98212
G1 X106.287 Y93.418 E14.06495
G1 X108.861 Y93.161 E14.15099
G1 X111.367 Y92.84 E14.23502
G1 X113.856 Y92.448 E14.31882
G1 X116.377 Y91.978 E14.40412
G1 X116.937 Y91.86 E14.42315
G1 X117.509 Y91.749 E14.44253
G1 X118.402 Y91.618 E14.47255
G1 X119.266 Y91.566 E14.50134
G1 X120.166 Y91.551 E14.53128
G1 X132.413 Y91.55 E14.93862
G1 X133.257 Y91.561 E14.96669
G1 X134.159 Y91.614 E14.99674
G1 X135.052 Y91.746 E15.02677
G1 X135.93 Y91.957 E15.0568
G1 X136.786 Y92.245 E15.08684
G1 X137.613 Y92.607 E15.11686
G1 X138.405 Y93.042 E15.14692
G1 X139.156 Y93.544 E15.17696
G1 X139.859 Y94.111 E15.207
G1 X140.509 Y94.738 E15.23704
G1 X141.101 Y95.42 E15.26708
G1 X141.631 Y96.151 E15.29711
G1 X142.093 Y96.927 E15.32715
G1 X142.486 Y97.74 E15.35718
G1 X142.804 Y98.585 E15.38721
G1 X143.047 Y99.455 E15.41725
G1 X143.212 Y100.343 E15.44729
G1 X143.307 Y101.473 E15.48501
G1 X143.316 Y101.793 E15.49566
G1 X143.32 Y102.08 E15.50521
G1 X143.319 Y103.658 E15.55769
G1 X143.31 Y104.346 E15.58057
G1 X143.302 Y104.635 E15.59019
G1 X143.237 Y106.2 E15.64229
G1 X143.221 Y106.511 E15.65264
G1 X143.155 Y109.067 E15.73769
G1 X143.163 Y111.568 E15.82087
G1 X143.3 Y115.264 E15.94388
G1 X143.315 Y115.749 E15.96002
G1 X143.32 Y116.064 E15.9705
G1 X143.319 Y117.654 E16.02338
G1 X143.309 Y118.381 E16.04757
G1 X143.257 Y119.283 E16.07762
G1 X143.125 Y120.176 E16.10764
G1 X142.914 Y121.055 E16.13771
G1 X142.627 Y121.911 E16.16774
G1 X142.265 Y122.738 E16.19776
G1 X141.831 Y123.53 E16.2278
G1 X141.329 Y124.281 E16.25784
G1 X140.763 Y124.984 E16.28786
G1 X140.136 Y125.635 E16.31792
G1 X139.455 Y126.227 E16.34794
G1 X138.724 Y126.757 E16.37797
G1 X137.948 Y127.22 E16.40802
G1 X137.135 Y127.613 E16.43806
G1 X136.29 Y127.933 E16.46811
G1 X135.421 Y128.176 E16.49812
G1 X134.533 Y128.341 E16.52816
G1 X133.397 Y128.437 E16.56608
G1 X133.077 Y128.446 E16.57673
G1 X132.801 Y128.45 E16.58591
G1 X130.847 Y128.452 E16.6509
G1 X129.664 Y128.45 E16.69025
G1 X120.169 Y128.45 E17.00605
G1 X119.324 Y128.439 E17.03416
G1 X118.423 Y128.386 E17.06418
G1 X117.616 Y128.27 E17.09129
G1 X117.162 Y128.185 E17.10666
G1 X115.086 Y127.769 E17.17708
G1 X112.573 Y127.339 E17.26187
G1 X110.073 Y126.983 E17.34586
G1 X107.553 Y126.697 E17.43022
G1 X105.005 Y126.481 E17.51527
G1 X102.508 Y126.339 E17.59845
G1 X98.588 Y126.256 E17.72886
G1 X90.653 Y126.252 E17.99278
G1 X89.984 Y126.243 E18.01503
G1 X89.636 Y126.232 E18.02661
G1 X89.374 Y126.22 E18.03534
G1 X87.047 Y126.088 E18.11286
G1 X84.433 Y126.013 E18.19984
G1 X82.983 Y125.993 E18.24807
G1 X82.082 Y125.941 E18.27809
G1 X81.188 Y125.809 E18.30814
G1 X80.31 Y125.599 E18.33817
G1 X79.454 Y125.311 E18.36821
G1 X78.626 Y124.95 E18.39825
G1 X77.834 Y124.516 E18.42829
G1 X77.083 Y124.014 E18.45833
G1 X76.38 Y123.448 E18.48835
G1 X75.91 Y123.006 E18.50981
G1 X75.798 Y122.894 E18.51508
G1 X75.188 Y122.228 E18.54512
G1 X74.639 Y121.511 E18.57515
G1 X74.157 Y120.747 E18.6052
G1 X73.743 Y119.944 E18.63525
G1 X73.403 Y119.108 E18.66526
G1 X73.137 Y118.245 E18.6953
G1 X72.949 Y117.362 E18.72533
G1 X72.816 Y116.026 E18.76998
G1 X72.806 Y115.647 E18.78259
G1 X72.8 Y115.082 E18.80138
G1 X72.801 Y112.498 E18.88733
G1 X72.814 Y111.578 E18.91793
G1 X72.818 Y109.107 E19.00012
G1 X72.8 Y107.505 E19.0534
G1 X72.801 Y104.85 E19.14171
G1 X72.811 Y104.168 E19.16439
G1 X72.864 Y103.267 E19.19441
G1 X72.997 Y102.374 E19.22444
G1 X73.208 Y101.496 E19.25448
G1 X73.496 Y100.64 E19.28451
G1 X73.859 Y99.813 E19.31455
G1 X74.293 Y99.021 E19.34459
G1 X74.796 Y98.271 E19.37463
G1 X75.363 Y97.568 E19.40467
G1 X75.798 Y97.106 E19.42577
G1 X75.91 Y96.994 E19.43104
G1 X76.576 Y96.384 E19.46108
G0 F6000 X88.054 Y107.996
G1 F1200 X89.839 Y107.996 E19.52045
G1 X90.389 Y107.956 E19.53879
G1 X90.927 Y107.837 E19.55712
G1 X91.162 Y107.748 E19.56547
G1 X98.86 Y107.744 E19.82151
G1 X116.815 Y107.746 E20.4187
G1 X117.364 Y107.706 E20.437
G1 X117.902 Y107.587 E20.45533
G1 X118.261 Y107.451 E20.4681
G1 X118.734 Y107.451 E20.48383
G1 X119.284 Y107.411 E20.50217
G1 X119.822 Y107.292 E20.5205
G1 X120.337 Y107.096 E20.53883
G1 X120.818 Y106.828 E20.55714
G1 X121.14 Y106.592 E20.57042
G1 X121.2 Y106.543 E20.573
G1 X121.2 Y113.489 E20.80402
G1 X121.061 Y113.378 E20.80994
G1 X120.607 Y113.067 E20.82824
G1 X120.112 Y112.824 E20.84658
G1 X119.587 Y112.656 E20.86491
G1 X119.044 Y112.565 E20.88323
G1 X118.692 Y112.549 E20.89495
G1 X118.213 Y112.549 E20.91088
G1 X117.854 Y112.413 E20.92365
G1 X117.316 Y112.294 E20.94197
G1 X116.767 Y112.254 E20.96028
G1 X98.83 Y112.256 E21.55687
G1 X91.214 Y112.253 E21.81018
G1 X91.171 Y112.234 E21.81174
G1 X90.641 Y112.083 E21.83007
G1 X89.868 Y112.004 E21.85591
G1 X88.066 Y112.004 E21.91585
G1 X88.292 Y111.502 E21.93416
G1 X88.443 Y110.972 E21.95249
G1 X88.522 Y110.199 E21.97833
G1 X88.522 Y109.801 E21.99157
G1 X88.482 Y109.251 E22.00991
G1 X88.363 Y108.713 E22.02824
G1 X88.167 Y108.198 E22.04657
G1 X88.054 Y107.996 E22.05426
G0 F6000 X87.768 Y108.291
G1 F1200 X87.502 Y107.843 E22.07159
G1 X87.294 Y107.596 E22.08233
G1 X89.839 Y107.596 E22.16698
G1 X90.359 Y107.556 E22.18433
G1 X90.866 Y107.437 E22.20165
G1 X91.088 Y107.348 E22.2096
G1 X98.86 Y107.344 E22.4681
G1 X116.815 Y107.346 E23.06529
G1 X117.334 Y107.306 E23.0826
G1 X117.842 Y107.187 E23.09995
G1 X118.179 Y107.051 E23.11204
G1 X118.734 Y107.051 E23.1305
G1 X119.254 Y107.011 E23.14785
G1 X119.761 Y106.892 E23.16517
G1 X120.244 Y106.697 E23.18249
G1 X120.887 Y106.282 E23.20795
G1 X121.195 Y106.03 E23.22118
G1 X121.572 Y105.67 E23.23852
G1 X121.6 Y105.634 E23.24004
G1 X121.6 Y114.411 E23.53196
G1 X121.123 Y113.939 E23.55428
G1 X120.812 Y113.691 E23.56751
G1 X120.381 Y113.398 E23.58484
G1 X119.91 Y113.175 E23.60218
G1 X119.41 Y113.026 E23.61953
G1 X118.692 Y112.949 E23.64355
G1 X118.148 Y112.949 E23.66164
G1 X117.685 Y112.78 E23.67803
G1 X117.174 Y112.678 E23.69536
G1 X116.767 Y112.654 E23.70893
G1 X98.83 Y112.656 E24.30551
G1 X91.122 Y112.653 E24.56188
G1 X90.954 Y112.582 E24.56795
G1 X90.449 Y112.454 E24.58527
G1 X89.868 Y112.404 E24.60467
G1 X87.296 Y112.404 E24.69022
G1 X87.465 Y112.207 E24.69885
G1 X87.74 Y111.765 E24.71616
G1 X87.944 Y111.285 E24.73351
