;FLAVOR:Marlin
;TIME:1575
;Filament used: 0.363041m
;Layer height: 0.16
;MINX:45.331
;MINY:29.543
;MINZ:0.2
;MAXX:86.548
;MAXY:55.143
;MAXZ:13.64
;Generated with Cura_SteamEngine 4.10.0
M140 S50
M105
M190 S50
M104 S200
M105
M109 S200
M82 ;absolute extrusion mode
M201 X500.00 Y500.00 Z100.00 E5000.00 ;Setup machine max acceleration
M203 X500.00 Y500.00 Z10.00 E50.00 ;Setup machine max feedrate
M204 P500.00 R1000.00 T500.00 ;Setup Print/Retract/Travel acceleration
M205 X8.00 Y8.00 Z0.40 E5.00 ;Setup Jerk
M220 S100 ;Reset Feedrate
M221 S100 ;Reset Flowrate

G28 ;Home

G92 E0 ;Reset Extruder
G1 Z2.0 F3000 ;Move Z Axis up
G1 X10.1 Y20 Z0.28 F5000.0 ;Move to start position
G1 X10.1 Y200.0 Z0.28 F1500.0 E15 ;Draw the first line
G1 X10.4 Y200.0 Z0.28 F5000.0 ;Move to side a little
G1 X10.4 Y20 Z0.28 F1500.0 E30 ;Draw the second line
G92 E0 ;Reset Extruder
G1 Z2.0 F3000 ;Move Z Axis up

G92 E0
G92 E0
G1 F2700 E-5
;LAYER_COUNT:114
;LAYER:0
M107
G0 F6000 X47.211 Y36.632 Z0.2
;TYPE:SKIRT
G1 F2700 E0
G1 F1200 X47.616 Y36.195 E0.01982
G1 X47.733 Y36.078 E0.02532
G1 X48.319 Y35.548 E0.0516
G1 X48.955 Y35.081 E0.07784
G1 X49.635 Y34.68 E0.1041
G1 X50.353 Y34.35 E0.13038
G1 X51.1 Y34.095 E0.15664
G1 X51.869 Y33.916 E0.1829
G1 X52.653 Y33.816 E0.20918
G1 X53.248 Y33.793 E0.22899
G1 X58.283 Y33.793 E0.39645
G1 X59.072 Y33.833 E0.42273
G1 X59.852 Y33.952 E0.44897
G1 X60.617 Y34.15 E0.47525
G1 X61.357 Y34.424 E0.5015
G1 X62.066 Y34.772 E0.52777
G1 X62.737 Y35.19 E0.55406
G1 X63.365 Y35.677 E0.58049
G1 X63.372 Y35.651 E0.58139
G1 X63.662 Y34.916 E0.60767
G1 X64.024 Y34.214 E0.63394
G1 X64.455 Y33.553 E0.66019
G1 X64.951 Y32.938 E0.68646
G1 X65.507 Y32.377 E0.71273
G1 X66.116 Y31.875 E0.73898
G1 X66.773 Y31.437 E0.76525
G1 X67.471 Y31.068 E0.79151
G1 X67.867 Y30.896 E0.80587
G1 X69.826 Y30.112 E0.87605
G1 X70.573 Y29.856 E0.90231
G1 X71.065 Y29.732 E0.91919
G1 X71.843 Y29.599 E0.94544
G1 X72.773 Y29.543 E0.97643
G1 X78.631 Y29.543 E1.17127
G1 X79.42 Y29.583 E1.19754
G1 X80.2 Y29.702 E1.22378
G1 X80.965 Y29.9 E1.25007
G1 X81.705 Y30.174 E1.27631
G1 X82.414 Y30.522 E1.30258
G1 X83.085 Y30.94 E1.32887
G1 X83.709 Y31.423 E1.35512
G1 X84.146 Y31.828 E1.37494
G1 X84.263 Y31.945 E1.38044
G1 X84.793 Y32.531 E1.40672
G1 X85.26 Y33.167 E1.43296
G1 X85.661 Y33.847 E1.45922
G1 X85.991 Y34.565 E1.4855
G1 X86.246 Y35.312 E1.51176
G1 X86.425 Y36.081 E1.53802
G1 X86.525 Y36.865 E1.5643
G1 X86.548 Y37.46 E1.58411
G1 X86.548 Y42.976 E1.76757
G1 X86.508 Y43.765 E1.79385
G1 X86.389 Y44.545 E1.82009
G1 X86.191 Y45.31 E1.84637
G1 X85.917 Y46.05 E1.87262
G1 X85.569 Y46.759 E1.89889
G1 X85.151 Y47.43 E1.92518
G1 X84.668 Y48.054 E1.95143
G1 X84.263 Y48.491 E1.97124
G1 X84.146 Y48.608 E1.97675
G1 X83.56 Y49.138 E2.00303
G1 X82.924 Y49.605 E2.02927
G1 X82.244 Y50.006 E2.05553
G1 X81.526 Y50.336 E2.08181
G1 X80.779 Y50.591 E2.10806
G1 X80.01 Y50.77 E2.13432
G1 X79.226 Y50.87 E2.16061
G1 X78.631 Y50.893 E2.18041
G1 X74.251 Y50.893 E2.32609
G1 X73.813 Y51.068 E2.34178
G1 X73.066 Y51.323 E2.36803
G1 X72.297 Y51.502 E2.39429
G1 X71.514 Y51.602 E2.42055
G1 X70.724 Y51.623 E2.44683
G1 X69.937 Y51.563 E2.47309
G1 X69.16 Y51.424 E2.49934
G1 X68.4 Y51.207 E2.52563
G1 X67.667 Y50.915 E2.55187
G1 X66.966 Y50.55 E2.57816
G1 X66.307 Y50.116 E2.6044
G1 X65.792 Y49.697 E2.62648
G1 X65.569 Y50.3 E2.64787
G1 X65.221 Y51.009 E2.67413
G1 X64.803 Y51.68 E2.70043
G1 X64.32 Y52.304 E2.72667
G1 X63.915 Y52.741 E2.74649
G1 X63.798 Y52.858 E2.75199
G1 X63.212 Y53.388 E2.77827
G1 X62.576 Y53.855 E2.80452
G1 X61.896 Y54.256 E2.83077
G1 X61.178 Y54.586 E2.85706
G1 X60.431 Y54.841 E2.88331
G1 X59.662 Y55.02 E2.90957
G1 X58.878 Y55.12 E2.93586
G1 X58.283 Y55.143 E2.95566
G1 X53.248 Y55.143 E3.12313
G1 X52.459 Y55.103 E3.1494
G1 X51.679 Y54.984 E3.17565
G1 X50.914 Y54.786 E3.20193
G1 X50.174 Y54.512 E3.22817
G1 X49.465 Y54.164 E3.25444
G1 X48.794 Y53.746 E3.28074
G1 X48.17 Y53.263 E3.30698
G1 X47.733 Y52.858 E3.3268
G1 X47.616 Y52.741 E3.3323
G1 X47.086 Y52.155 E3.35858
G1 X46.619 Y51.519 E3.38482
G1 X46.218 Y50.839 E3.41108
G1 X45.888 Y50.121 E3.43736
G1 X45.633 Y49.374 E3.46362
G1 X45.454 Y48.605 E3.48988
G1 X45.354 Y47.821 E3.51616
G1 X45.331 Y47.226 E3.53597
G1 X45.331 Y41.71 E3.71943
G1 X45.371 Y40.921 E3.74571
G1 X45.49 Y40.141 E3.77195
G1 X45.688 Y39.376 E3.79823
G1 X45.962 Y38.636 E3.82448
G1 X46.31 Y37.927 E3.85075
G1 X46.728 Y37.256 E3.87704
G1 X47.211 Y36.632 E3.90329
G0 F6000 X47.606 Y36.787
G1 F1200 X47.898 Y36.477 E3.91745
G1 X48.015 Y36.36 E3.92295
G1 X48.587 Y35.846 E3.94853
G1 X49.209 Y35.393 E3.97413
G1 X49.874 Y35.007 E3.9997
G1 X50.576 Y34.692 E4.02529
G1 X51.307 Y34.452 E4.05088
G1 X52.058 Y34.289 E4.07644
G1 X52.823 Y34.205 E4.10204
G1 X53.248 Y34.193 E4.11618
G1 X58.283 Y34.193 E4.28364
G1 X59.051 Y34.233 E4.30922
G1 X59.811 Y34.352 E4.33481
G1 X60.554 Y34.55 E4.36038
G1 X61.273 Y34.824 E4.38597
G1 X61.959 Y35.171 E4.41154
G1 X62.606 Y35.587 E4.43713
G1 X63.206 Y36.068 E4.4627
G1 X63.516 Y36.36 E4.47687
G1 X63.572 Y36.416 E4.4795
G1 X63.586 Y36.344 E4.48194
G1 X63.811 Y35.608 E4.50754
G1 X64.111 Y34.9 E4.53311
G1 X64.483 Y34.227 E4.55869
G1 X64.923 Y33.596 E4.58428
G1 X65.426 Y33.014 E4.60986
G1 X65.987 Y32.488 E4.63544
G1 X66.599 Y32.022 E4.66102
G1 X67.256 Y31.623 E4.68659
G1 X68.015 Y31.268 E4.71446
G1 X69.974 Y30.484 E4.78464
G1 X70.702 Y30.235 E4.81023
G1 X71.152 Y30.123 E4.82565
G1 X71.91 Y29.993 E4.85123
G1 X72.773 Y29.943 E4.87998
G1 X78.631 Y29.943 E5.07482
G1 X79.399 Y29.983 E5.1004
G1 X80.159 Y30.102 E5.12599
G1 X80.902 Y30.3 E5.15156
G1 X81.621 Y30.574 E5.17715
G1 X82.307 Y30.921 E5.20272
G1 X82.954 Y31.337 E5.22831
G1 X83.554 Y31.818 E5.25388
G1 X83.864 Y32.11 E5.26805
G1 X83.981 Y32.227 E5.27355
G1 X84.495 Y32.799 E5.29913
G1 X84.948 Y33.421 E5.32472
G1 X85.334 Y34.086 E5.3503
G1 X85.649 Y34.788 E5.37589
G1 X85.889 Y35.519 E5.40148
G1 X86.052 Y36.27 E5.42704
G1 X86.136 Y37.035 E5.45263
G1 X86.148 Y37.46 E5.46677
G1 X86.148 Y42.976 E5.65024
G1 X86.108 Y43.744 E5.67582
G1 X85.989 Y44.504 E5.7014
G1 X85.791 Y45.247 E5.72698
G1 X85.517 Y45.966 E5.75257
G1 X85.17 Y46.652 E5.77814
G1 X84.754 Y47.299 E5.80372
G1 X84.273 Y47.899 E5.8293
G1 X83.981 Y48.209 E5.84346
G1 X83.864 Y48.326 E5.84897
G1 X83.292 Y48.84 E5.87454
G1 X82.67 Y49.293 E5.90014
G1 X82.005 Y49.679 E5.92571
G1 X81.303 Y49.994 E5.9513
G1 X80.572 Y50.234 E5.97689
G1 X79.821 Y50.397 E6.00245
G1 X79.056 Y50.481 E6.02805
G1 X78.631 Y50.493 E6.04219
G1 X74.173 Y50.493 E6.19046
G1 X73.665 Y50.696 E6.20866
G1 X72.937 Y50.944 E6.23424
G1 X72.187 Y51.115 E6.25982
G1 X71.423 Y51.208 E6.28542
G1 X70.654 Y51.22 E6.311
G1 X69.888 Y51.153 E6.33658
G1 X69.133 Y51.007 E6.36215
G1 X68.397 Y50.782 E6.38775
G1 X67.689 Y50.483 E6.41331
G1 X67.015 Y50.112 E6.4389
G1 X66.384 Y49.673 E6.46447
G1 X65.801 Y49.171 E6.49006
G1 X65.59 Y48.946 E6.50032
G1 X65.443 Y49.497 E6.51928
G1 X65.169 Y50.216 E6.54488
G1 X64.822 Y50.902 E6.57045
G1 X64.406 Y51.549 E6.59603
G1 X63.925 Y52.149 E6.62161
G1 X63.633 Y52.459 E6.63577
G1 X63.516 Y52.576 E6.64127
G1 X62.944 Y53.09 E6.66685
G1 X62.322 Y53.543 E6.69244
G1 X61.657 Y53.929 E6.71802
G1 X60.955 Y54.244 E6.74361
G1 X60.224 Y54.484 E6.7692
G1 X59.473 Y54.647 E6.79476
G1 X58.708 Y54.731 E6.82036
G1 X58.283 Y54.743 E6.8345
G1 X53.248 Y54.743 E7.00196
G1 X52.48 Y54.703 E7.02754
G1 X51.72 Y54.584 E7.05313
G1 X50.977 Y54.386 E7.0787
G1 X50.258 Y54.112 E7.10429
G1 X49.572 Y53.765 E7.12986
G1 X48.925 Y53.349 E7.15545
G1 X48.325 Y52.868 E7.18102
G1 X48.015 Y52.576 E7.19519
G1 X47.898 Y52.459 E7.20069
G1 X47.384 Y51.887 E7.22627
G1 X46.931 Y51.265 E7.25186
G1 X46.545 Y50.6 E7.27743
G1 X46.23 Y49.898 E7.30303
G1 X45.99 Y49.167 E7.32862
G1 X45.827 Y48.416 E7.35418
G1 X45.743 Y47.651 E7.37977
G1 X45.731 Y47.226 E7.39391
G1 X45.731 Y41.71 E7.57738
G1 X45.771 Y40.942 E7.60296
G1 X45.89 Y40.182 E7.62854
G1 X46.088 Y39.439 E7.65412
G1 X46.362 Y38.72 E7.67971
G1 X46.709 Y38.034 E7.70528
G1 X47.125 Y37.387 E7.73086
G1 X47.606 Y36.787 E7.75644
G0 F6000 X47.523 Y37.521
G1 F1200 X48.181 Y36.76 E7.7899
G1 X48.298 Y36.643 E7.7954
G1 X48.855 Y36.143 E7.8203
G1 X49.461 Y35.706 E7.84515
G1 X50.111 Y35.335 E7.87004
G1 X50.797 Y35.036 E7.89493
G1 X51.511 Y34.812 E7.91982
G1 X52.244 Y34.665 E7.94468
G1 X53.248 Y34.593 E7.97816
G1 X58.283 Y34.593 E8.14563
G1 X59.03 Y34.633 E8.17051
G1 X59.768 Y34.752 E8.19537
G1 X60.49 Y34.95 E8.22027
G1 X61.186 Y35.223 E8.24514
G1 X61.849 Y35.57 E8.27003
G1 X62.472 Y35.985 E8.29492
G1 X63.233 Y36.643 E8.32838
G1 X63.35 Y36.76 E8.33389
G1 X63.826 Y37.29 E8.35758
G1 X63.856 Y37.013 E8.36685
G1 X64.016 Y36.282 E8.39174
G1 X64.252 Y35.572 E8.41662
G1 X64.563 Y34.892 E8.44149
G1 X64.945 Y34.249 E8.46637
G1 X65.393 Y33.65 E8.49125
G1 X65.903 Y33.102 E8.51614
G1 X66.468 Y32.612 E8.54102
G1 X67.082 Y32.185 E8.56589
G1 X67.738 Y31.826 E8.59077
G1 X68.164 Y31.639 E8.60624
G1 X70.123 Y30.855 E8.67642
G1 X71.191 Y30.524 E8.71361
G1 X71.24 Y30.513 E8.71528
G1 X71.977 Y30.388 E8.74014
G1 X72.773 Y30.343 E8.76666
G1 X78.631 Y30.343 E8.9615
G1 X79.378 Y30.383 E8.98638
G1 X80.116 Y30.502 E9.01124
G1 X80.838 Y30.7 E9.03614
G1 X81.534 Y30.973 E9.06101
G1 X82.197 Y31.32 E9.0859
G1 X82.82 Y31.735 E9.1108
G1 X83.581 Y32.393 E9.14426
G1 X83.698 Y32.51 E9.14976
G1 X84.198 Y33.067 E9.17465
G1 X84.635 Y33.673 E9.1995
G1 X85.006 Y34.323 E9.2244
G1 X85.305 Y35.009 E9.24929
G1 X85.529 Y35.723 E9.27417
G1 X85.676 Y36.456 E9.29904
G1 X85.748 Y37.46 E9.33252
G1 X85.748 Y42.976 E9.51598
G1 X85.708 Y43.723 E9.54086
G1 X85.589 Y44.461 E9.56573
G1 X85.391 Y45.183 E9.59063
G1 X85.118 Y45.879 E9.61549
G1 X84.771 Y46.542 E9.64038
G1 X84.356 Y47.165 E9.66528
G1 X83.698 Y47.926 E9.69874
G1 X83.581 Y48.043 E9.70424
G1 X83.024 Y48.543 E9.72914
G1 X82.418 Y48.98 E9.75399
G1 X81.768 Y49.351 E9.77888
G1 X81.082 Y49.65 E9.80377
G1 X80.368 Y49.874 E9.82866
G1 X79.635 Y50.021 E9.85352
G1 X78.631 Y50.093 E9.887
G1 X74.097 Y50.093 E10.0378
G1 X73.517 Y50.325 E10.05858
G1 X72.808 Y50.565 E10.08348
G1 X72.078 Y50.728 E10.10835
G1 X71.335 Y50.813 E10.13323
G1 X70.587 Y50.817 E10.15811
G1 X69.842 Y50.742 E10.18301
G1 X69.11 Y50.588 E10.20789
G1 X68.399 Y50.356 E10.23277
G1 X67.717 Y50.05 E10.25763
G1 X67.07 Y49.673 E10.28253
G1 X66.468 Y49.229 E10.30741
G1 X65.917 Y48.723 E10.33229
G1 X65.423 Y48.162 E10.35716
G1 X65.347 Y48.054 E10.36155
G1 X65.241 Y48.711 E10.38368
G1 X65.043 Y49.433 E10.40858
G1 X64.77 Y50.129 E10.43345
G1 X64.423 Y50.792 E10.45834
G1 X64.008 Y51.415 E10.48324
G1 X63.35 Y52.176 E10.5167
G1 X63.233 Y52.293 E10.5222
G1 X62.676 Y52.793 E10.5471
G1 X62.07 Y53.23 E10.57195
G1 X61.42 Y53.601 E10.59684
G1 X60.734 Y53.9 E10.62173
G1 X60.02 Y54.124 E10.64662
G1 X59.287 Y54.271 E10.67148
G1 X58.283 Y54.343 E10.70496
G1 X53.248 Y54.343 E10.87243
G1 X52.501 Y54.303 E10.89731
G1 X51.763 Y54.184 E10.92217
G1 X51.041 Y53.986 E10.94707
G1 X50.345 Y53.713 E10.97194
G1 X49.682 Y53.366 E10.99683
G1 X49.059 Y52.951 E11.02172
G1 X48.298 Y52.293 E11.05518
G1 X48.181 Y52.176 E11.06069
G1 X47.681 Y51.619 E11.08558
G1 X47.244 Y51.013 E11.11043
G1 X46.873 Y50.363 E11.13532
G1 X46.574 Y49.677 E11.16021
G1 X46.35 Y48.963 E11.1851
G1 X46.203 Y48.23 E11.20997
G1 X46.131 Y47.226 E11.24345
G1 X46.131 Y41.71 E11.42691
G1 X46.171 Y40.963 E11.45179
G1 X46.29 Y40.225 E11.47665
G1 X46.488 Y39.503 E11.50155
G1 X46.761 Y38.807 E11.52642
G1 X47.108 Y38.144 E11.55131
G1 X47.523 Y37.521 E11.57621
G0 F6000 X47.92 Y37.66
G1 F1200 X48.464 Y37.043 E11.60357
G1 X48.581 Y36.926 E11.60907
G1 X49.122 Y36.442 E11.63321
G1 X49.713 Y36.019 E11.65739
G1 X50.347 Y35.665 E11.68154
G1 X51.016 Y35.382 E11.7057
G1 X51.712 Y35.174 E11.72986
G1 X52.427 Y35.044 E11.75403
G1 X53.248 Y34.993 E11.78139
G1 X58.283 Y34.993 E11.94885
G1 X59.008 Y35.033 E11.973
G1 X59.725 Y35.152 E11.99718
G1 X60.424 Y35.35 E12.02134
G1 X61.097 Y35.623 E12.0455
G1 X61.736 Y35.968 E12.06965
G1 X62.333 Y36.382 E12.09381
G1 X62.95 Y36.926 E12.12117
G1 X63.067 Y37.043 E12.12667
G1 X63.551 Y37.584 E12.15082
G1 X63.974 Y38.175 E12.17499
G1 X64.185 Y38.553 E12.18939
G1 X64.169 Y38.378 E12.19523
G1 X64.183 Y37.652 E12.21939
G1 X64.276 Y36.932 E12.24353
G1 X64.448 Y36.226 E12.2677
G1 X64.696 Y35.544 E12.29184
G1 X65.018 Y34.892 E12.31602
G1 X65.41 Y34.281 E12.34017
G1 X65.866 Y33.715 E12.36434
G1 X66.382 Y33.204 E12.3885
G1 X66.95 Y32.752 E12.41264
G1 X67.565 Y32.365 E12.43681
G1 X68.313 Y32.01 E12.46435
G1 X70.272 Y31.226 E12.53453
G1 X71.278 Y30.914 E12.56956
G1 X71.327 Y30.903 E12.57123
G1 X72.044 Y30.783 E12.59541
G1 X72.773 Y30.743 E12.61969
G1 X78.631 Y30.743 E12.81453
G1 X79.356 Y30.783 E12.83868
G1 X80.073 Y30.902 E12.86285
G1 X80.772 Y31.1 E12.88702
G1 X81.445 Y31.373 E12.91117
G1 X82.084 Y31.718 E12.93532
G1 X82.681 Y32.132 E12.95949
G1 X83.298 Y32.676 E12.98685
G1 X83.415 Y32.793 E12.99235
G1 X83.899 Y33.334 E13.01649
G1 X84.322 Y33.925 E13.04067
G1 X84.676 Y34.559 E13.06482
G1 X84.959 Y35.228 E13.08898
G1 X85.167 Y35.924 E13.11314
G1 X85.297 Y36.639 E13.13731
G1 X85.348 Y37.46 E13.16467
G1 X85.348 Y42.976 E13.34813
G1 X85.308 Y43.701 E13.37228
G1 X85.189 Y44.418 E13.39646
G1 X84.991 Y45.117 E13.42062
G1 X84.718 Y45.79 E13.44478
G1 X84.373 Y46.429 E13.46893
G1 X83.959 Y47.026 E13.49309
G1 X83.415 Y47.643 E13.52045
G1 X83.298 Y47.76 E13.52595
G1 X82.757 Y48.244 E13.5501
G1 X82.166 Y48.667 E13.57427
G1 X81.532 Y49.021 E13.59842
G1 X80.863 Y49.304 E13.62258
G1 X80.167 Y49.512 E13.64674
G1 X79.452 Y49.642 E13.67091
G1 X78.631 Y49.693 E13.69827
G1 X74.018 Y49.693 E13.8517
G1 X73.368 Y49.953 E13.87499
G1 X72.68 Y50.186 E13.89915
G1 X71.97 Y50.341 E13.92332
G1 X71.248 Y50.417 E13.94746
G1 X70.521 Y50.413 E13.97164
G1 X69.8 Y50.33 E13.99578
G1 X69.092 Y50.167 E14.01995
G1 X68.406 Y49.928 E14.04411
G1 X67.751 Y49.615 E14.06825
G1 X67.133 Y49.232 E14.09244
G1 X66.562 Y48.784 E14.11657
G1 X66.044 Y48.275 E14.14073
G1 X65.584 Y47.712 E14.16491
G1 X65.189 Y47.103 E14.18905
G1 X65 Y46.725 E14.20311
G1 X65 Y47.226 E14.21977
G1 X64.96 Y47.951 E14.24392
G1 X64.841 Y48.668 E14.2681
G1 X64.643 Y49.367 E14.29226
G1 X64.37 Y50.04 E14.31642
G1 X64.025 Y50.679 E14.34057
G1 X63.611 Y51.276 E14.36473
G1 X63.067 Y51.893 E14.39209
G1 X62.95 Y52.01 E14.39759
G1 X62.409 Y52.494 E14.42174
G1 X61.818 Y52.917 E14.44591
G1 X61.184 Y53.271 E14.47006
G1 X60.515 Y53.554 E14.49422
G1 X59.819 Y53.762 E14.51838
G1 X59.104 Y53.892 E14.54255
G1 X58.283 Y53.943 E14.56991
G1 X53.248 Y53.943 E14.73738
G1 X52.523 Y53.903 E14.76153
G1 X51.806 Y53.784 E14.7857
G1 X51.107 Y53.586 E14.80987
G1 X50.434 Y53.313 E14.83402
G1 X49.795 Y52.968 E14.85817
G1 X49.198 Y52.554 E14.88234
G1 X48.581 Y52.01 E14.9097
G1 X48.464 Y51.893 E14.9152
G1 X47.98 Y51.352 E14.93934
G1 X47.557 Y50.761 E14.96352
G1 X47.203 Y50.127 E14.98767
G1 X46.92 Y49.458 E15.01183
G1 X46.712 Y48.762 E15.03599
G1 X46.582 Y48.047 E15.06016
G1 X46.531 Y47.226 E15.08752
G1 X46.531 Y41.71 E15.27098
G1 X46.571 Y40.985 E15.29513
G1 X46.69 Y40.268 E15.31931
G1 X46.888 Y39.569 E15.34347
G1 X47.161 Y38.896 E15.36762
G1 X47.506 Y38.257 E15.39178
G1 X47.92 Y37.66 E15.41594
G0 F6000 X48.316 Y37.804
G1 F1200 X48.747 Y37.326 E15.43735
G1 X48.864 Y37.209 E15.44285
G1 X49.389 Y36.74 E15.46627
G1 X49.964 Y36.334 E15.48968
G1 X50.582 Y35.996 E15.51311
G1 X51.233 Y35.729 E15.53651
G1 X51.911 Y35.539 E15.55993
G1 X52.606 Y35.426 E15.58335
G1 X53.248 Y35.393 E15.60473
G1 X58.283 Y35.393 E15.77219
G1 X58.986 Y35.433 E15.79561
G1 X59.68 Y35.552 E15.81903
G1 X60.355 Y35.75 E15.84243
G1 X61.004 Y36.022 E15.86583
G1 X61.618 Y36.367 E15.88926
G1 X62.189 Y36.778 E15.91266
G1 X62.667 Y37.209 E15.93406
G1 X62.784 Y37.326 E15.93957
G1 X63.253 Y37.851 E15.96298
G1 X63.659 Y38.426 E15.98639
G1 X63.997 Y39.044 E16.00982
G1 X64.264 Y39.695 E16.03322
G1 X64.454 Y40.373 E16.05664
G1 X64.567 Y41.068 E16.08006
G1 X64.6 Y41.71 E16.10144
G1 X64.6 Y47.226 E16.28491
G1 X64.56 Y47.929 E16.30833
G1 X64.441 Y48.623 E16.33175
G1 X64.243 Y49.298 E16.35514
G1 X63.971 Y49.947 E16.37855
G1 X63.626 Y50.561 E16.40197
G1 X63.215 Y51.132 E16.42537
G1 X62.784 Y51.61 E16.44678
G1 X62.667 Y51.727 E16.45228
G1 X62.142 Y52.196 E16.4757
G1 X61.567 Y52.602 E16.49911
G1 X60.949 Y52.94 E16.52254
G1 X60.298 Y53.207 E16.54594
