;FLAVOR:Marlin
;TIME:4316
;Filament used: 1.61801m
;Layer height: 0.16
;MINX:79.75
;MINY:88.635
;MINZ:0.2
;MAXX:140.25
;MAXY:131.364
;MAXZ:16.96
;Generated with Cura_SteamEngine 4.10.0
M140 S50
M105
M190 S50
M104 S200
M105
M109 S200
M82 ;absolute extrusion mode
M201 X500.00 Y500.00 Z100.00 E5000.00 ;Setup machine max acceleration
M203 X500.00 Y500.00 Z10.00 E50.00 ;Setup machine max feedrate
M204 P500.00 R1000.00 T500.00 ;Setup Print/Retract/Travel acceleration
M205 X8.00 Y8.00 Z0.40 E5.00 ;Setup Jerk
M220 S100 ;Reset Feedrate
M221 S100 ;Reset Flowrate

G28 ;Home

G92 E0 ;Reset Extruder
G1 Z2.0 F3000 ;Move Z Axis up
G1 X10.1 Y20 Z0.28 F5000.0 ;Move to start position
G1 X10.1 Y200.0 Z0.28 F1500.0 E15 ;Draw the first line
G1 X10.4 Y200.0 Z0.28 F5000.0 ;Move to side a little
G1 X10.4 Y20 Z0.28 F1500.0 E30 ;Draw the second line
G92 E0 ;Reset Extruder
G1 Z2.0 F3000 ;Move Z Axis up

G92 E0
G92 E0
G1 F2700 E-5
;LAYER_COUNT:125
;LAYER:0
M107
G0 F6000 X84.156 Y95.797 Z0.2
;TYPE:SKIRT
G1 F2700 E0
G1 F1200 X84.94 Y95.193 E0.03292
G1 X85.716 Y94.61 E0.0652
G1 X87.67 Y93.056 E0.14824
G1 X89.741 Y91.31 E0.23833
G1 X90.484 Y90.737 E0.26954
G1 X91.272 Y90.229 E0.30072
G1 X92.101 Y89.79 E0.33192
G1 X93.327 Y89.293 E0.37592
G1 X93.562 Y89.214 E0.38417
G1 X94.463 Y88.954 E0.41536
G1 X95.383 Y88.771 E0.44656
G1 X96.315 Y88.667 E0.47775
G1 X96.935 Y88.642 E0.49839
G1 X97.479 Y88.636 E0.51648
G1 X100.545 Y88.635 E0.61846
G1 X101.376 Y88.646 E0.6461
G1 X102.593 Y88.732 E0.68668
G1 X103.94 Y88.904 E0.73184
G1 X104.195 Y88.94 E0.74041
G1 X106.68 Y89.221 E0.82359
G1 X109.159 Y89.432 E0.90634
G1 X111.656 Y89.573 E0.98952
G1 X115.589 Y89.656 E1.12036
G1 X120.479 Y89.657 E1.283
G1 X121.183 Y89.667 E1.30642
G1 X122.12 Y89.72 E1.33763
G1 X123.048 Y89.853 E1.36881
G1 X123.962 Y90.065 E1.40002
G1 X124.854 Y90.353 E1.4312
G1 X125.701 Y90.708 E1.46174
G1 X126.747 Y91.199 E1.50018
G1 X127.247 Y91.442 E1.51867
G1 X129.567 Y92.489 E1.60332
G1 X131.913 Y93.471 E1.68791
G1 X131.943 Y93.481 E1.68896
G1 X133.229 Y93.998 E1.73506
G1 X134.084 Y94.384 E1.76626
G1 X134.902 Y94.842 E1.79744
G1 X135.678 Y95.369 E1.82864
G1 X136.407 Y95.959 E1.85984
G1 X136.938 Y96.46 E1.88412
G1 X137.052 Y96.575 E1.8895
G1 X137.683 Y97.268 E1.92068
G1 X138.253 Y98.013 E1.95188
G1 X138.758 Y98.804 E1.98309
G1 X139.193 Y99.635 E2.01429
G1 X139.556 Y100.5 E2.04549
G1 X139.843 Y101.392 E2.07665
G1 X140.054 Y102.306 E2.10785
G1 X140.186 Y103.235 E2.13906
G1 X140.234 Y103.948 E2.16283
G1 X140.244 Y104.324 E2.17534
G1 X140.25 Y104.851 E2.19287
G1 X140.249 Y106.529 E2.24868
G1 X140.223 Y108.349 E2.30922
G1 X140.215 Y108.658 E2.3195
G1 X140.21 Y111.19 E2.40371
G1 X140.237 Y112.275 E2.43981
G1 X140.25 Y113.483 E2.47999
G1 X140.249 Y115.137 E2.53501
G1 X140.239 Y115.839 E2.55836
G1 X140.186 Y116.775 E2.58954
G1 X140.053 Y117.703 E2.62072
G1 X139.841 Y118.617 E2.65192
G1 X139.553 Y119.51 E2.68313
G1 X139.189 Y120.374 E2.71432
G1 X138.753 Y121.205 E2.74553
G1 X138.248 Y121.995 E2.77671
G1 X137.678 Y122.739 E2.80789
G1 X136.823 Y123.651 E2.84947
G1 X136.699 Y123.769 E2.85516
G1 X135.993 Y124.386 E2.88634
G1 X135.236 Y124.94 E2.91754
G1 X134.435 Y125.428 E2.94874
G1 X133.596 Y125.846 E2.97992
G1 X133.161 Y126.029 E2.99561
G1 X132.703 Y126.21 E3.01199
G1 X130.252 Y127.216 E3.10011
G1 X127.951 Y128.237 E3.18384
G1 X126.066 Y129.139 E3.25334
G1 X125.606 Y129.35 E3.27018
G1 X124.736 Y129.701 E3.30138
G1 X123.84 Y129.977 E3.33256
G1 X122.923 Y130.176 E3.36377
G1 X121.993 Y130.295 E3.39496
G1 X121.428 Y130.329 E3.41378
G1 X121.042 Y130.339 E3.42662
G1 X120.497 Y130.345 E3.44475
G1 X115.483 Y130.345 E3.61152
G1 X112.875 Y130.382 E3.69827
G1 X110.354 Y130.489 E3.78219
G1 X107.859 Y130.666 E3.86539
G1 X105.359 Y130.914 E3.94894
G1 X102.703 Y131.256 E4.03801
G1 X102.439 Y131.286 E4.04685
G1 X101.556 Y131.35 E4.0763
G1 X101.311 Y131.358 E4.08445
G1 X100.956 Y131.364 E4.09626
G1 X97.509 Y131.364 E4.21091
G1 X96.708 Y131.353 E4.23755
G1 X95.772 Y131.299 E4.26873
G1 X94.844 Y131.165 E4.29992
G1 X93.93 Y130.953 E4.33112
G1 X93.038 Y130.663 E4.36232
G1 X91.95 Y130.19 E4.40178
G1 X91.129 Y129.735 E4.433
G1 X90.351 Y129.212 E4.46418
G1 X89.83 Y128.804 E4.48619
G1 X89.435 Y128.473 E4.50333
G1 X87.923 Y127.177 E4.56956
G1 X85.94 Y125.574 E4.65437
G1 X84.637 Y124.58 E4.70888
G1 X84.086 Y124.148 E4.73217
G1 X83.095 Y123.269 E4.77623
G1 X82.982 Y123.156 E4.78154
G1 X82.348 Y122.465 E4.81273
G1 X81.774 Y121.723 E4.84394
G1 X81.267 Y120.934 E4.87513
G1 X80.828 Y120.106 E4.9063
G1 X80.461 Y119.242 E4.93752
G1 X80.169 Y118.351 E4.96871
G1 X79.955 Y117.438 E4.9999
G1 X79.818 Y116.51 E5.0311
G1 X79.766 Y115.749 E5.05647
G1 X79.756 Y115.359 E5.06944
G1 X79.75 Y114.804 E5.0879
G1 X79.751 Y112.689 E5.15825
G1 X79.768 Y111.5 E5.1978
G1 X79.768 Y108.887 E5.28471
G1 X79.751 Y107.44 E5.33284
G1 X79.75 Y105.324 E5.40322
G1 X79.761 Y104.465 E5.43179
G1 X79.814 Y103.529 E5.46297
G1 X79.947 Y102.601 E5.49415
G1 X80.159 Y101.687 E5.52536
G1 X80.447 Y100.794 E5.55657
G1 X80.811 Y99.93 E5.58775
G1 X81.247 Y99.099 E5.61896
G1 X81.752 Y98.309 E5.65015
G1 X82.322 Y97.565 E5.68132
G1 X83.045 Y96.781 E5.71679
G1 X83.169 Y96.659 E5.72258
G1 X84.156 Y95.797 E5.76616
G0 F6000 X84.401 Y96.114
G1 F1200 X85.18 Y95.512 E5.79891
G1 X85.982 Y94.91 E5.83226
G1 X87.931 Y93.359 E5.9151
G1 X89.999 Y91.616 E6.00506
G1 X90.728 Y91.054 E6.03567
G1 X91.503 Y90.557 E6.0663
G1 X92.318 Y90.129 E6.09691
G1 X93.454 Y89.673 E6.13763
G1 X93.689 Y89.594 E6.14587
G1 X94.574 Y89.338 E6.17652
G1 X95.477 Y89.161 E6.20712
G1 X96.393 Y89.062 E6.23776
G1 X96.94 Y89.042 E6.25597
G1 X97.48 Y89.036 E6.27393
G1 X100.546 Y89.035 E6.37591
G1 X101.37 Y89.046 E6.40332
G1 X102.542 Y89.129 E6.44239
G1 X103.883 Y89.3 E6.48736
G1 X104.126 Y89.335 E6.49552
G1 X106.634 Y89.618 E6.57947
G1 X109.173 Y89.835 E6.66422
G1 X111.626 Y89.973 E6.74594
G1 X115.581 Y90.056 E6.87751
G1 X120.474 Y90.057 E7.04025
G1 X121.178 Y90.067 E7.06367
G1 X122.097 Y90.12 E7.09429
G1 X123.008 Y90.253 E7.12491
G1 X123.904 Y90.464 E7.15553
G1 X124.778 Y90.752 E7.18613
G1 X125.531 Y91.071 E7.21333
G1 X126.705 Y91.622 E7.25647
G1 X127.129 Y91.828 E7.27215
G1 X129.396 Y92.852 E7.35488
G1 X131.758 Y93.84 E7.44004
G1 X131.794 Y93.852 E7.4413
G1 X133.08 Y94.369 E7.4874
G1 X133.918 Y94.749 E7.518
G1 X134.721 Y95.201 E7.54865
G1 X135.481 Y95.72 E7.57926
G1 X136.193 Y96.304 E7.60989
G1 X136.654 Y96.741 E7.63102
G1 X136.768 Y96.856 E7.6364
G1 X137.387 Y97.538 E7.66704
G1 X137.945 Y98.27 E7.69765
G1 X138.437 Y99.049 E7.72829
G1 X138.859 Y99.866 E7.75888
G1 X139.21 Y100.718 E7.78953
G1 X139.484 Y101.597 E7.82015
G1 X139.682 Y102.496 E7.85077
G1 X139.801 Y103.409 E7.88139
G1 X139.834 Y103.961 E7.89978
G1 X139.844 Y104.329 E7.91203
G1 X139.85 Y104.851 E7.92939
G1 X139.849 Y106.523 E7.985
G1 X139.823 Y108.343 E8.04554
G1 X139.815 Y108.647 E8.05566
G1 X139.81 Y111.199 E8.14054
G1 X139.837 Y112.285 E8.17667
G1 X139.85 Y113.483 E8.21651
G1 X139.849 Y115.131 E8.27133
G1 X139.839 Y115.833 E8.29468
G1 X139.786 Y116.752 E8.3253
G1 X139.653 Y117.663 E8.35592
G1 X139.442 Y118.559 E8.38653
G1 X139.154 Y119.434 E8.41717
G1 X138.791 Y120.28 E8.44779
G1 X138.356 Y121.091 E8.4784
G1 X137.852 Y121.862 E8.50904
G1 X137.284 Y122.586 E8.53964
G1 X136.547 Y123.361 E8.57521
G1 X136.423 Y123.479 E8.58091
G1 X135.729 Y124.084 E8.61153
G1 X134.986 Y124.627 E8.64214
G1 X134.198 Y125.103 E8.67276
G1 X133.014 Y125.657 E8.71623
G1 X132.552 Y125.84 E8.73276
G1 X130.087 Y126.852 E8.82139
G1 X127.781 Y127.875 E8.9053
G1 X125.893 Y128.778 E8.9749
G1 X125.703 Y128.867 E8.98188
G1 X125.441 Y128.986 E8.99145
G1 X124.587 Y129.33 E9.02207
G1 X123.706 Y129.599 E9.05271
G1 X122.805 Y129.79 E9.08335
G1 X121.892 Y129.902 E9.11394
G1 X121.415 Y129.929 E9.12983
G1 X121.038 Y129.939 E9.14237
G1 X120.497 Y129.945 E9.16037
G1 X115.477 Y129.945 E9.32733
G1 X112.852 Y129.982 E9.41465
G1 X110.344 Y130.089 E9.49814
G1 X107.824 Y130.267 E9.58217
G1 X105.334 Y130.514 E9.66539
G1 X102.819 Y130.839 E9.74974
G1 X102.394 Y130.888 E9.76397
G1 X101.543 Y130.95 E9.79234
G1 X101.298 Y130.958 E9.8005
G1 X100.956 Y130.964 E9.81187
G1 X97.51 Y130.964 E9.92649
G1 X96.714 Y130.953 E9.95297
G1 X95.795 Y130.899 E9.98359
G1 X94.884 Y130.765 E10.01421
G1 X93.989 Y130.553 E10.0448
G1 X93.114 Y130.264 E10.07545
G1 X92.129 Y129.832 E10.11123
G1 X91.324 Y129.385 E10.14185
G1 X90.561 Y128.87 E10.17247
G1 X90.086 Y128.497 E10.19256
G1 X89.695 Y128.17 E10.20951
G1 X88.168 Y126.861 E10.2764
G1 X86.188 Y125.26 E10.36109
G1 X84.884 Y124.265 E10.41565
G1 X84.333 Y123.833 E10.43894
G1 X83.378 Y122.986 E10.48139
G1 X83.265 Y122.873 E10.48671
G1 X82.643 Y122.195 E10.51731
G1 X82.082 Y121.465 E10.54793
G1 X81.586 Y120.689 E10.57856
G1 X81.16 Y119.873 E10.60918
G1 X80.806 Y119.023 E10.6398
G1 X80.528 Y118.145 E10.67044
G1 X80.326 Y117.247 E10.70105
G1 X80.203 Y116.334 E10.73169
G1 X80.166 Y115.736 E10.75162
G1 X80.156 Y115.354 E10.76433
G1 X80.15 Y114.804 E10.78262
G1 X80.151 Y112.694 E10.8528
G1 X80.168 Y111.505 E10.89235
G1 X80.168 Y108.925 E10.97816
G1 X80.15 Y107.321 E11.03152
G1 X80.151 Y105.173 E11.10296
G1 X80.161 Y104.471 E11.12631
G1 X80.214 Y103.552 E11.15693
G1 X80.347 Y102.641 E11.18755
G1 X80.558 Y101.745 E11.21816
G1 X80.846 Y100.87 E11.2488
G1 X81.209 Y100.024 E11.27942
G1 X81.644 Y99.213 E11.31003
G1 X82.148 Y98.442 E11.34067
G1 X82.716 Y97.718 E11.37127
G1 X83.326 Y97.066 E11.40097
G1 X83.45 Y96.944 E11.40676
G1 X84.401 Y96.114 E11.44874
G0 F6000 X84.645 Y96.43
G1 F1200 X85.421 Y95.832 E11.48132
G1 X86.209 Y95.241 E11.51408
G1 X88.193 Y93.662 E11.59842
G1 X90.257 Y91.922 E11.68821
G1 X90.973 Y91.371 E11.71826
G1 X91.734 Y90.885 E11.74829
G1 X92.536 Y90.469 E11.77834
G1 X93.582 Y90.052 E11.81579
G1 X93.817 Y89.973 E11.82404
G1 X94.685 Y89.723 E11.85408
G1 X95.571 Y89.551 E11.8841
G1 X96.47 Y89.459 E11.91416
G1 X96.944 Y89.442 E11.92993
G1 X97.48 Y89.436 E11.94776
G1 X100.546 Y89.435 E12.04974
G1 X101.364 Y89.446 E12.07695
G1 X102.492 Y89.526 E12.11456
G1 X103.827 Y89.696 E12.15932
G1 X104.096 Y89.734 E12.16835
G1 X106.592 Y90.017 E12.2519
G1 X109.118 Y90.232 E12.33622
G1 X111.623 Y90.373 E12.41967
G1 X115.572 Y90.456 E12.55104
G1 X120.468 Y90.457 E12.71389
G1 X121.172 Y90.467 E12.7373
G1 X122.073 Y90.52 E12.76732
G1 X122.967 Y90.652 E12.79738
G1 X123.845 Y90.863 E12.82741
G1 X124.701 Y91.151 E12.85745
G1 X125.361 Y91.433 E12.88132
G1 X126.53 Y91.982 E12.92428
G1 X126.926 Y92.174 E12.93892
G1 X129.256 Y93.227 E13.02396
G1 X131.608 Y94.211 E13.10876
G1 X131.645 Y94.223 E13.11005
G1 X132.931 Y94.74 E13.15615
G1 X133.753 Y95.114 E13.18619
G1 X134.539 Y95.559 E13.21623
G1 X135.282 Y96.071 E13.24624
G1 X135.978 Y96.648 E13.27631
G1 X136.37 Y97.023 E13.29435
G1 X136.484 Y97.138 E13.29974
G1 X137.091 Y97.807 E13.32978
G1 X137.636 Y98.527 E13.35982
G1 X138.115 Y99.292 E13.38984
G1 X138.525 Y100.097 E13.41988
G1 X138.862 Y100.935 E13.44993
G1 X139.124 Y101.799 E13.47996
G1 X139.308 Y102.683 E13.50999
G1 X139.434 Y103.975 E13.55316
G1 X139.444 Y104.334 E13.56511
G1 X139.45 Y104.851 E13.5823
G1 X139.449 Y106.518 E13.63775
G1 X139.42 Y108.49 E13.70335
G1 X139.415 Y108.67 E13.70933
G1 X139.41 Y111.209 E13.79378
G1 X139.439 Y112.437 E13.83464
G1 X139.45 Y113.483 E13.86943
G1 X139.449 Y115.125 E13.92404
G1 X139.439 Y115.827 E13.94739
G1 X139.386 Y116.729 E13.97745
G1 X139.254 Y117.622 E14.00747
G1 X139.043 Y118.5 E14.0375
G1 X138.755 Y119.356 E14.06754
G1 X138.393 Y120.184 E14.0976
G1 X137.959 Y120.976 E14.12764
G1 X137.456 Y121.726 E14.15767
G1 X136.89 Y122.429 E14.18769
G1 X136.272 Y123.071 E14.21733
G1 X136.148 Y123.189 E14.22302
G1 X135.466 Y123.782 E14.25308
G1 X134.735 Y124.312 E14.28311
G1 X133.96 Y124.776 E14.31316
G1 X132.866 Y125.285 E14.35329
G1 X132.426 Y125.459 E14.36903
G1 X129.921 Y126.487 E14.45909
G1 X127.612 Y127.512 E14.54311
G1 X125.537 Y128.503 E14.61959
G1 X125.275 Y128.622 E14.62916
G1 X124.437 Y128.959 E14.6592
G1 X123.573 Y129.22 E14.68922
G1 X122.688 Y129.404 E14.71929
G1 X121.401 Y129.529 E14.76229
G1 X121.033 Y129.539 E14.77454
G1 X120.497 Y129.545 E14.79237
G1 X115.471 Y129.545 E14.95953
G1 X112.865 Y129.582 E15.04622
G1 X110.3 Y129.691 E15.13161
G1 X107.793 Y129.869 E15.2152
G1 X105.276 Y130.118 E15.29932
G1 X102.613 Y130.461 E15.38863
G1 X102.349 Y130.491 E15.39746
G1 X101.53 Y130.551 E15.42478
G1 X101.285 Y130.559 E15.43293
G1 X100.955 Y130.564 E15.44391
G1 X97.511 Y130.564 E15.55846
G1 X96.72 Y130.553 E15.58477
G1 X95.819 Y130.499 E15.61479
G1 X94.926 Y130.366 E15.64482
G1 X94.048 Y130.154 E15.67486
G1 X93.192 Y129.866 E15.7049
G1 X92.307 Y129.474 E15.73709
G1 X91.518 Y129.035 E15.76712
G1 X90.771 Y128.528 E15.79715
G1 X90.342 Y128.189 E15.81534
G1 X89.956 Y127.866 E15.83208
G1 X88.435 Y126.562 E15.89871
G1 X86.437 Y124.947 E15.98416
G1 X85.131 Y123.95 E16.03881
G1 X84.58 Y123.518 E16.0621
G1 X83.661 Y122.703 E16.10295
G1 X83.548 Y122.59 E16.10826
G1 X82.938 Y121.924 E16.1383
G1 X82.389 Y121.207 E16.16834
G1 X81.907 Y120.443 E16.19838
G1 X81.493 Y119.64 E16.22843
G1 X81.153 Y118.804 E16.25845
G1 X80.887 Y117.941 E16.28849
G1 X80.699 Y117.058 E16.31851
G1 X80.566 Y115.722 E16.36317
G1 X80.556 Y115.35 E16.37554
G1 X80.55 Y114.804 E16.39371
G1 X80.551 Y112.7 E16.46369
G1 X80.568 Y111.511 E16.50324
G1 X80.568 Y108.913 E16.58965
G1 X80.55 Y107.321 E16.6426
G1 X80.551 Y105.179 E16.71384
G1 X80.561 Y104.477 E16.73719
G1 X80.614 Y103.575 E16.76725
G1 X80.746 Y102.682 E16.79727
G1 X80.957 Y101.804 E16.8273
G1 X81.245 Y100.948 E16.85734
G1 X81.607 Y100.12 E16.8874
G1 X82.041 Y99.328 E16.91744
G1 X82.544 Y98.578 E16.94747
G1 X83.11 Y97.875 E16.97749
G1 X83.606 Y97.351 E17.00149
G1 X83.73 Y97.229 E17.00727
G1 X84.645 Y96.43 E17.04768
G1 F2700 E12.04768
G0 F6000 X96.003 Y108.3
G0 X96.152 Y108.3
G1 F2700 E17.04768
G1 F1200 X96.468 Y108.3 E17.05819
G1 X96.562 Y108.317 E17.06136
G1 X97.335 Y108.396 E17.08721
G1 X103.65 Y108.396 E17.29725
G1 X103.65 Y111.604 E17.40394
G1 X97.336 Y111.604 E17.61395
G1 X96.786 Y111.644 E17.63229
G1 X96.512 Y111.705 E17.64163
G1 X96.468 Y111.7 E17.6431
G1 X96.149 Y111.7 E17.65371
G1 X96.238 Y111.502 E17.66093
G1 X96.389 Y110.972 E17.67926
G1 X96.468 Y110.199 E17.7051
G1 X96.468 Y109.801 E17.71834
G1 X96.428 Y109.251 E17.73668
G1 X96.309 Y108.713 E17.75501
G1 X96.152 Y108.3 E17.7697
G0 F6000 X95.714 Y108.291
G1 F1200 X95.482 Y107.9 E17.78483
G1 X96.468 Y107.9 E17.81762
G1 X96.754 Y107.946 E17.82726
G1 X97.335 Y107.996 E17.84665
G1 X104.05 Y107.996 E18.06999
G1 X104.05 Y112.004 E18.2033
G1 X97.336 Y112.004 E18.42661
G1 X96.816 Y112.044 E18.44395
G1 X96.548 Y112.107 E18.45311
G1 X96.468 Y112.1 E18.45578
G1 X95.478 Y112.1 E18.48871
G1 X95.686 Y111.765 E18.50182
G1 X95.89 Y111.285 E18.51917
G1 X96.018 Y110.78 E18.5365
G1 X96.068 Y110.199 E18.55589
G1 X96.068 Y109.801 E18.56913
G1 X96.028 Y109.281 E18.58648
G1 X95.909 Y108.774 E18.6038
G1 X95.714 Y108.291 E18.62112
G0 F6000 X95.509 Y108.838
G1 F1200 X95.315 Y108.389 E18.63739
G1 X95.05 Y107.977 E18.65368
G1 X94.789 Y107.68 E18.66684
G1 X94.609 Y107.5 E18.6753
G1 X96.468 Y107.5 E18.73713
G1 X96.577 Y107.491 E18.74077
G1 X96.94 Y107.57 E18.75313
G1 X97.335 Y107.596 E18.76629
G1 X104.456 Y107.596 E19.00314
G1 X104.45 Y107.684 E19.00607
G1 X104.45 Y112.316 E19.16013
G1 X104.457 Y112.404 E19.16307
G1 X97.336 Y112.404 E19.39991
G1 X96.848 Y112.444 E19.4162
G1 X96.592 Y112.508 E19.42498
G1 X96.468 Y112.5 E19.42911
G1 X94.609 Y112.5 E19.49094
G1 X94.789 Y112.32 E19.49941
G1 X95.106 Y111.947 E19.51569
G1 X95.358 Y111.527 E19.53198
G1 X95.538 Y111.072 E19.54825
G1 X95.642 Y110.594 E19.56452
G1 X95.668 Y110.199 E19.57769
G1 X95.668 Y109.801 E19.59093
G1 X95.628 Y109.313 E19.60721
G1 X95.509 Y108.838 E19.6235
G0 F6000 X95.11 Y108.907
G1 F1200 X94.916 Y108.495 E19.63865
G1 X94.506 Y107.963 E19.66098
G1 X93.643 Y107.1 E19.70158
G1 X96.468 Y107.1 E19.79554
G1 X96.669 Y107.109 E19.80223
G1 X97.335 Y107.196 E19.82457
G1 X104.913 Y107.196 E20.07661
G1 X104.85 Y107.684 E20.09298
G1 X104.85 Y112.316 E20.24704
G1 X104.89 Y112.77 E20.2622
G1 X104.899 Y112.804 E20.26337
G1 X97.336 Y112.804 E20.51492
G1 X96.882 Y112.844 E20.53007
G1 X96.606 Y112.918 E20.53958
G1 X96.468 Y112.9 E20.54421
G1 X93.643 Y112.9 E20.63817
