;FLAVOR:Marlin
;TIME:341
;Filament used: 0.205865m
;Layer height: 0.16
;MINX:85.769
;MINY:91.331
;MINZ:0.2
;MAXX:134.225
;MAXY:128.674
;MAXZ:3.8
;Generated with Cura_SteamEngine 4.10.0
M140 S50
M105
M190 S50
M104 S200
M105
M109 S200
M82 ;absolute extrusion mode
M201 X500.00 Y500.00 Z100.00 E5000.00 ;Setup machine max acceleration
M203 X500.00 Y500.00 Z10.00 E50.00 ;Setup machine max feedrate
M204 P500.00 R1000.00 T500.00 ;Setup Print/Retract/Travel acceleration
M205 X8.00 Y8.00 Z0.40 E5.00 ;Setup Jerk
M220 S100 ;Reset Feedrate
M221 S100 ;Reset Flowrate

G28 ;Home

G92 E0 ;Reset Extruder
G1 Z2.0 F3000 ;Move Z Axis up
G1 X10.1 Y20 Z0.28 F5000.0 ;Move to start position
G1 X10.1 Y200.0 Z0.28 F1500.0 E15 ;Draw the first line
G1 X10.4 Y200.0 Z0.28 F5000.0 ;Move to side a little
G1 X10.4 Y20 Z0.28 F1500.0 E30 ;Draw the second line
G92 E0 ;Reset Extruder
G1 Z2.0 F3000 ;Move Z Axis up

G92 E0
G92 E0
G1 F2700 E-5
;LAYER_COUNT:21
;LAYER:0
M107
G0 F6000 X90.51 Y104.195 Z0.2
;TYPE:SKIRT
G1 F2700 E0
G1 F1200 X91.29 Y103.558 E0.03349
G1 X91.57 Y103.35 E0.0451
G1 X92.5 Y102.73 E0.08227
G1 X92.688 Y102.618 E0.08955
G1 X93.154 Y102.355 E0.10735
G1 X93.233 Y102.313 E0.11032
G1 X93.656 Y102.1 E0.12608
G1 X94.527 Y101.684 E0.15818
G1 X113.673 Y92.926 E0.85844
G1 X113.852 Y92.846 E0.86496
G1 X114.781 Y92.441 E0.89867
G1 X116.053 Y91.977 E0.9437
G1 X116.502 Y91.844 E0.95928
G1 X117.412 Y91.616 E0.99048
G1 X117.876 Y91.531 E1.00617
G1 X118.149 Y91.487 E1.01537
G1 X118.813 Y91.401 E1.03763
G1 X118.944 Y91.388 E1.04201
G1 X119.671 Y91.34 E1.06625
G1 X119.947 Y91.331 E1.07543
G1 X121.302 Y91.37 E1.12052
G1 X121.599 Y91.397 E1.13044
G1 X122.34 Y91.49 E1.15527
G1 X122.709 Y91.549 E1.1677
G1 X124.016 Y91.841 E1.21225
G1 X124.207 Y91.896 E1.21886
G1 X124.891 Y92.117 E1.24277
G1 X125.102 Y92.193 E1.25022
G1 X125.828 Y92.484 E1.27624
G1 X126.038 Y92.577 E1.28388
G1 X126.902 Y93.006 E1.31596
G1 X127.036 Y93.08 E1.32105
G1 X127.922 Y93.625 E1.35565
G1 X128.332 Y93.905 E1.37216
G1 X129.43 Y94.762 E1.41849
G1 X129.608 Y94.92 E1.42641
G1 X130.325 Y95.617 E1.45966
G1 X130.556 Y95.863 E1.47089
G1 X131.302 Y96.747 E1.50936
G1 X131.509 Y97.02 E1.52076
G1 X132.232 Y98.101 E1.56401
G1 X132.354 Y98.309 E1.57203
G1 X132.715 Y98.976 E1.59726
G1 X132.806 Y99.159 E1.60405
G1 X133.104 Y99.809 E1.62784
G1 X133.225 Y100.098 E1.63826
G1 X133.55 Y100.978 E1.66946
G1 X133.686 Y101.437 E1.68538
G1 X133.754 Y101.685 E1.69393
G1 X133.893 Y102.246 E1.71316
G1 X133.938 Y102.452 E1.72017
G1 X134.078 Y103.231 E1.7465
G1 X134.11 Y103.453 E1.75396
G1 X134.211 Y104.514 E1.7894
G1 X134.222 Y104.752 E1.79733
G1 X134.225 Y105.71 E1.82919
G1 X134.21 Y106.076 E1.84137
G1 X134.063 Y107.47 E1.888
G1 X134.004 Y107.817 E1.8997
G1 X133.799 Y108.769 E1.93209
G1 X133.727 Y109.043 E1.94152
G1 X133.347 Y110.216 E1.98253
G1 X133.282 Y110.384 E1.98852
G1 X133.055 Y110.928 E2.00812
G1 X132.907 Y111.257 E2.02012
G1 X132.486 Y112.095 E2.05131
G1 X132.24 Y112.515 E2.0675
G1 X132.065 Y112.799 E2.0786
G1 X131.476 Y113.66 E2.11329
G1 X131.343 Y113.836 E2.12063
G1 X130.694 Y114.617 E2.15441
G1 X130.507 Y114.822 E2.16363
G1 X129.519 Y115.778 E2.20936
G1 X129.206 Y116.045 E2.22304
G1 X128.607 Y116.521 E2.24849
G1 X128.419 Y116.66 E2.25627
G1 X127.272 Y117.402 E2.3017
G1 X126.952 Y117.582 E2.31392
G1 X126.268 Y117.936 E2.33953
G1 X126.116 Y118.008 E2.34513
G1 X125.254 Y118.372 E2.37625
G1 X124.196 Y118.766 E2.4138
G1 X122.789 Y119.264 E2.46344
G1 X120.312 Y120.182 E2.5513
G1 X118.019 Y121.105 E2.63351
G1 X115.698 Y122.117 E2.71773
G1 X113.405 Y123.195 E2.802
G1 X111.179 Y124.319 E2.88494
G1 X108.942 Y125.529 E2.96953
G1 X106.998 Y126.648 E3.04414
G1 X106.82 Y126.754 E3.05103
G1 X106.145 Y127.124 E3.07663
G1 X105.996 Y127.199 E3.08218
G1 X105.391 Y127.481 E3.10438
G1 X105.1 Y127.606 E3.11491
G1 X104.196 Y127.948 E3.14706
G1 X104.044 Y127.998 E3.15238
G1 X102.985 Y128.289 E3.18891
G1 X102.592 Y128.376 E3.2023
G1 X101.687 Y128.537 E3.23287
G1 X101.428 Y128.572 E3.24156
G1 X100.197 Y128.668 E3.28263
G1 X99.924 Y128.674 E3.29171
G1 X98.554 Y128.619 E3.33731
G1 X98.069 Y128.569 E3.35353
G1 X96.734 Y128.348 E3.39854
G1 X96.499 Y128.294 E3.40656
G1 X95.759 Y128.096 E3.43204
G1 X95.69 Y128.075 E3.43444
G1 X95.01 Y127.844 E3.45832
G1 X94.737 Y127.741 E3.46803
G1 X94.06 Y127.459 E3.49242
G1 X93.79 Y127.336 E3.50229
G1 X92.573 Y126.687 E3.54816
G1 X92.27 Y126.5 E3.56
G1 X91.469 Y125.955 E3.59223
G1 X91.276 Y125.811 E3.60024
G1 X90.41 Y125.094 E3.63763
G1 X90.175 Y124.878 E3.64825
G1 X89.634 Y124.344 E3.67353
G1 X89.58 Y124.287 E3.67614
G1 X89.15 Y123.806 E3.6976
G1 X88.953 Y123.572 E3.70777
G1 X88.293 Y122.705 E3.74401
G1 X88.132 Y122.47 E3.75349
G1 X87.584 Y121.581 E3.78822
G1 X87.419 Y121.283 E3.79955
G1 X86.842 Y120.072 E3.84417
G1 X86.731 Y119.797 E3.85403
G1 X86.454 Y119.032 E3.88109
G1 X86.273 Y118.41 E3.90264
G1 X86.178 Y118.044 E3.91522
G1 X86.014 Y117.312 E3.94017
G1 X85.989 Y117.179 E3.94467
G1 X85.88 Y116.474 E3.96839
G1 X85.854 Y116.26 E3.97556
G1 X85.79 Y115.517 E4.00037
G1 X85.785 Y115.423 E4.0035
G1 X85.769 Y114.777 E4.02499
G1 X85.771 Y114.424 E4.03673
G1 X85.865 Y113.054 E4.08241
G1 X85.909 Y112.719 E4.09364
G1 X86.091 Y111.704 E4.12794
G1 X86.151 Y111.441 E4.13691
G1 X86.449 Y110.381 E4.17354
G1 X86.561 Y110.048 E4.18522
G1 X87.013 Y108.915 E4.22579
G1 X87.12 Y108.685 E4.23423
G1 X87.553 Y107.851 E4.26548
G1 X87.697 Y107.6 E4.27511
G1 X88.025 Y107.064 E4.29601
G1 X88.427 Y106.484 E4.31948
G1 X88.594 Y106.259 E4.3288
G1 X89.1 Y105.627 E4.35573
G1 X89.283 Y105.415 E4.36504
G1 X89.926 Y104.732 E4.39624
G1 X90.27 Y104.41 E4.41191
G1 X90.51 Y104.195 E4.42263
G0 F6000 X90.777 Y104.493
G1 F1200 X91.529 Y103.879 E4.45492
G1 X91.809 Y103.671 E4.46652
G1 X92.705 Y103.074 E4.50233
G1 X92.893 Y102.962 E4.50961
G1 X93.342 Y102.709 E4.52675
G1 X93.421 Y102.667 E4.52973
G1 X93.829 Y102.461 E4.54493
G1 X94.859 Y101.97 E4.58288
G1 X113.839 Y93.289 E5.27705
G1 X114.941 Y92.807 E5.31706
G1 X116.166 Y92.361 E5.36042
G1 X116.615 Y92.228 E5.376
G1 X117.939 Y91.926 E5.42116
G1 X118.212 Y91.882 E5.43036
G1 X118.852 Y91.799 E5.45182
G1 X118.983 Y91.786 E5.4562
G1 X119.685 Y91.74 E5.4796
G1 X119.961 Y91.731 E5.48879
G1 X121.266 Y91.769 E5.53221
G1 X121.563 Y91.796 E5.54213
G1 X122.277 Y91.885 E5.56606
G1 X122.646 Y91.944 E5.57849
G1 X123.905 Y92.225 E5.62139
G1 X124.096 Y92.28 E5.628
G1 X124.755 Y92.493 E5.65104
G1 X124.966 Y92.569 E5.6585
G1 X125.666 Y92.85 E5.68359
G1 X125.876 Y92.943 E5.69123
G1 X126.708 Y93.356 E5.72212
G1 X126.842 Y93.43 E5.72721
G1 X127.696 Y93.956 E5.76057
G1 X128.106 Y94.236 E5.77708
G1 X129.165 Y95.062 E5.82175
G1 X129.343 Y95.22 E5.82967
G1 X130.033 Y95.891 E5.86168
G1 X130.264 Y96.137 E5.87291
G1 X130.983 Y96.989 E5.90999
G1 X131.19 Y97.262 E5.92138
G1 X131.887 Y98.303 E5.96305
G1 X132.009 Y98.511 E5.97107
G1 X132.357 Y99.154 E5.99539
G1 X132.448 Y99.337 E6.00218
G1 X132.735 Y99.963 E6.02509
G1 X132.856 Y100.252 E6.03551
G1 X133.301 Y101.543 E6.08093
G1 X133.369 Y101.791 E6.08948
G1 X133.502 Y102.332 E6.10801
G1 X133.547 Y102.538 E6.11502
G1 X133.683 Y103.288 E6.14037
G1 X133.715 Y103.51 E6.14783
G1 X133.812 Y104.533 E6.18201
G1 X133.823 Y104.771 E6.18994
G1 X133.825 Y105.694 E6.22064
G1 X133.81 Y106.06 E6.23282
G1 X133.669 Y107.403 E6.27773
G1 X133.61 Y107.75 E6.28944
G1 X133.412 Y108.667 E6.32064
G1 X133.34 Y108.941 E6.33007
G1 X132.974 Y110.072 E6.3696
G1 X132.909 Y110.24 E6.37559
G1 X132.69 Y110.764 E6.39448
G1 X132.542 Y111.093 E6.40648
G1 X131.899 Y112.305 E6.45212
G1 X131.724 Y112.589 E6.46321
G1 X131.157 Y113.419 E6.49664
G1 X131.024 Y113.595 E6.50398
G1 X130.398 Y114.348 E6.53655
G1 X130.211 Y114.553 E6.54578
G1 X129.259 Y115.473 E6.58981
G1 X128.946 Y115.74 E6.6035
G1 X128.369 Y116.199 E6.62802
G1 X128.181 Y116.338 E6.63579
G1 X127.076 Y117.054 E6.67959
G1 X126.756 Y117.234 E6.6918
G1 X126.097 Y117.575 E6.71648
G1 X125.945 Y117.647 E6.72207
G1 X125.114 Y117.998 E6.75208
G1 X124.23 Y118.328 E6.78346
G1 X122.643 Y118.891 E6.83947
G1 X120.203 Y119.794 E6.926
G1 X117.846 Y120.744 E7.01052
G1 X115.547 Y121.746 E7.09393
G1 X113.233 Y122.834 E7.17898
G1 X110.988 Y123.967 E7.26262
G1 X108.747 Y125.18 E7.34738
G1 X106.854 Y126.27 E7.42003
G1 X106.616 Y126.411 E7.42923
G1 X105.965 Y126.767 E7.45391
G1 X105.816 Y126.842 E7.45946
G1 X105.234 Y127.113 E7.48081
G1 X104.943 Y127.238 E7.49134
G1 X104.071 Y127.568 E7.52235
G1 X103.919 Y127.618 E7.52767
G1 X102.898 Y127.898 E7.56289
G1 X102.505 Y127.985 E7.57627
G1 X101.634 Y128.141 E7.60571
G1 X101.375 Y128.176 E7.6144
G1 X100.188 Y128.268 E7.654
G1 X99.915 Y128.274 E7.66308
G1 X98.595 Y128.221 E7.70702
G1 X98.11 Y128.171 E7.72323
G1 X96.823 Y127.958 E7.76662
G1 X96.588 Y127.904 E7.77464
G1 X95.876 Y127.714 E7.79915
G1 X95.807 Y127.693 E7.80155
G1 X95.151 Y127.47 E7.8246
G1 X94.878 Y127.367 E7.8343
G1 X94.226 Y127.095 E7.8578
G1 X93.956 Y126.972 E7.86767
G1 X92.783 Y126.346 E7.91189
G1 X92.48 Y126.159 E7.92373
G1 X91.708 Y125.635 E7.95476
G1 X91.515 Y125.491 E7.96277
G1 X90.681 Y124.799 E7.99882
G1 X90.446 Y124.583 E8.00943
G1 X89.924 Y124.069 E8.0338
G1 X89.87 Y124.012 E8.03641
G1 X89.456 Y123.549 E8.05707
G1 X89.259 Y123.315 E8.06724
G1 X88.623 Y122.479 E8.10218
G1 X88.462 Y122.244 E8.11165
G1 X87.934 Y121.388 E8.1451
G1 X87.769 Y121.09 E8.15643
G1 X87.213 Y119.923 E8.19943
G1 X87.102 Y119.648 E8.20929
G1 X86.835 Y118.909 E8.23543
G1 X86.66 Y118.309 E8.25621
G1 X86.565 Y117.943 E8.26879
G1 X86.407 Y117.238 E8.29282
G1 X86.382 Y117.105 E8.29732
G1 X86.277 Y116.425 E8.32021
G1 X86.251 Y116.211 E8.32738
G1 X86.189 Y115.496 E8.35125
G1 X86.184 Y115.402 E8.35438
G1 X86.169 Y114.779 E8.37511
G1 X86.171 Y114.426 E8.38685
G1 X86.261 Y113.106 E8.43085
G1 X86.305 Y112.771 E8.44209
G1 X86.481 Y111.793 E8.47514
G1 X86.541 Y111.53 E8.48411
G1 X86.828 Y110.509 E8.51939
G1 X86.94 Y110.176 E8.53107
G1 X87.376 Y109.084 E8.57018
G1 X87.483 Y108.854 E8.57862
G1 X87.9 Y108.05 E8.60874
G1 X88.044 Y107.799 E8.61837
G1 X88.361 Y107.282 E8.63854
G1 X88.748 Y106.722 E8.66118
G1 X88.915 Y106.497 E8.6705
G1 X89.403 Y105.889 E8.69643
G1 X89.586 Y105.677 E8.70574
G1 X90.537 Y104.708 E8.7509
G1 X90.777 Y104.493 E8.76162
G0 F6000 X91.044 Y104.791
G1 F1200 X91.767 Y104.2 E8.79268
G1 X92.047 Y103.992 E8.80428
G1 X92.91 Y103.417 E8.83877
G1 X93.098 Y103.305 E8.84605
G1 X93.53 Y103.062 E8.86253
G1 X93.609 Y103.02 E8.86551
G1 X94.001 Y102.822 E8.88011
G1 X95.025 Y102.334 E8.91784
G1 X114.005 Y93.653 E9.61202
G1 X115.101 Y93.174 E9.6518
G1 X116.28 Y92.744 E9.69354
G1 X116.729 Y92.611 E9.70911
G1 X118.003 Y92.321 E9.75257
G1 X118.276 Y92.277 E9.76177
G1 X118.892 Y92.197 E9.78243
G1 X119.023 Y92.184 E9.78681
G1 X119.698 Y92.139 E9.80931
G1 X119.974 Y92.13 E9.81849
G1 X121.229 Y92.167 E9.86025
G1 X121.526 Y92.194 E9.87017
G1 X122.213 Y92.28 E9.8932
G1 X122.582 Y92.339 E9.90563
G1 X123.794 Y92.609 E9.94693
G1 X123.985 Y92.664 E9.95354
G1 X124.62 Y92.87 E9.97574
G1 X124.831 Y92.946 E9.9832
G1 X125.504 Y93.216 E10.00732
G1 X125.714 Y93.309 E10.01496
G1 X126.515 Y93.706 E10.04469
G1 X126.649 Y93.78 E10.04978
G1 X127.47 Y94.286 E10.08186
G1 X127.88 Y94.566 E10.09837
G1 X128.899 Y95.361 E10.14136
G1 X129.077 Y95.519 E10.14928
G1 X129.742 Y96.165 E10.18011
G1 X129.973 Y96.411 E10.19134
G1 X130.665 Y97.23 E10.227
G1 X130.872 Y97.503 E10.23839
G1 X131.542 Y98.505 E10.27848
G1 X131.664 Y98.713 E10.2865
G1 X131.999 Y99.332 E10.30991
G1 X132.09 Y99.515 E10.31671
G1 X132.366 Y100.118 E10.33877
G1 X132.487 Y100.407 E10.34919
G1 X132.915 Y101.649 E10.39288
G1 X132.983 Y101.897 E10.40143
G1 X133.111 Y102.417 E10.41925
G1 X133.156 Y102.623 E10.42626
G1 X133.287 Y103.345 E10.45066
G1 X133.319 Y103.567 E10.45812
G1 X133.412 Y104.551 E10.491
G1 X133.423 Y104.789 E10.49892
G1 X133.425 Y105.678 E10.52849
G1 X133.41 Y106.044 E10.54067
G1 X133.275 Y107.336 E10.58388
G1 X133.216 Y107.683 E10.59559
G1 X133.025 Y108.565 E10.6256
G1 X132.953 Y108.839 E10.63503
G1 X132.601 Y109.928 E10.67309
G1 X132.536 Y110.096 E10.67908
G1 X132.325 Y110.6 E10.69726
G1 X132.177 Y110.929 E10.70925
G1 X131.559 Y112.095 E10.75315
G1 X131.384 Y112.379 E10.76424
G1 X130.838 Y113.178 E10.79643
G1 X130.705 Y113.354 E10.80377
G1 X130.103 Y114.078 E10.83508
G1 X129.916 Y114.283 E10.84431
G1 X129 Y115.169 E10.8867
G1 X128.687 Y115.436 E10.90038
G1 X128.131 Y115.878 E10.92401
G1 X127.943 Y116.017 E10.93178
G1 X126.88 Y116.705 E10.9739
G1 X126.56 Y116.885 E10.98611
G1 X125.925 Y117.213 E11.00988
G1 X125.773 Y117.285 E11.01547
G1 X124.974 Y117.623 E11.04433
G1 X124.09 Y117.953 E11.07571
G1 X122.518 Y118.511 E11.13119
G1 X120.051 Y119.424 E11.21868
G1 X117.715 Y120.365 E11.30245
G1 X115.353 Y121.395 E11.38815
G1 X113.075 Y122.465 E11.47186
G1 X110.782 Y123.624 E11.55732
G1 X108.579 Y124.815 E11.64061
G1 X106.602 Y125.954 E11.7165
G1 X106.411 Y126.067 E11.72388
G1 X105.785 Y126.41 E11.74762
G1 X105.636 Y126.485 E11.75317
G1 X105.076 Y126.746 E11.77372
G1 X104.785 Y126.871 E11.78425
G1 X103.946 Y127.188 E11.81408
G1 X103.794 Y127.238 E11.8194
G1 X102.812 Y127.508 E11.85328
G1 X102.419 Y127.595 E11.86666
G1 X101.58 Y127.744 E11.89501
G1 X101.321 Y127.779 E11.9037
G1 X100.179 Y127.869 E11.9418
G1 X99.906 Y127.875 E11.95088
G1 X98.636 Y127.823 E11.99316
G1 X98.151 Y127.773 E12.00937
G1 X96.913 Y127.568 E12.05111
G1 X96.678 Y127.514 E12.05913
G1 X95.992 Y127.331 E12.08275
G1 X95.923 Y127.31 E12.08514
G1 X95.292 Y127.095 E12.10732
G1 X95.019 Y126.992 E12.11702
G1 X94.391 Y126.731 E12.13964
G1 X94.121 Y126.608 E12.14951
G1 X92.993 Y126.006 E12.19204
G1 X92.69 Y125.819 E12.20388
G1 X91.947 Y125.314 E12.23376
G1 X91.754 Y125.17 E12.24177
G1 X90.951 Y124.505 E12.27644
G1 X90.716 Y124.289 E12.28706
G1 X90.214 Y123.794 E12.31051
G1 X90.16 Y123.737 E12.31312
G1 X89.762 Y123.291 E12.333
G1 X89.565 Y123.057 E12.34318
G1 X88.953 Y122.253 E12.37678
G1 X88.792 Y122.018 E12.38626
G1 X88.284 Y121.194 E12.41845
G1 X88.119 Y120.896 E12.42978
G1 X87.583 Y119.773 E12.47117
G1 X87.472 Y119.498 E12.48103
G1 X87.215 Y118.786 E12.50621
G1 X87.047 Y118.209 E12.5262
G1 X86.952 Y117.843 E12.53877
G1 X86.801 Y117.164 E12.56191
G1 X86.776 Y117.031 E12.56641
G1 X86.674 Y116.377 E12.58843
G1 X86.648 Y116.163 E12.5956
G1 X86.588 Y115.475 E12.61857
G1 X86.583 Y115.381 E12.6217
G1 X86.569 Y114.781 E12.64166
G1 X86.571 Y114.428 E12.6534
G1 X86.658 Y113.158 E12.69574
G1 X86.702 Y112.823 E12.70698
G1 X86.871 Y111.882 E12.73878
G1 X86.931 Y111.619 E12.74775
G1 X87.207 Y110.636 E12.78171
G1 X87.319 Y110.303 E12.79339
G1 X87.739 Y109.253 E12.83101
G1 X87.846 Y109.023 E12.83944
G1 X88.247 Y108.249 E12.86844
G1 X88.391 Y107.998 E12.87806
G1 X88.696 Y107.499 E12.89751
G1 X89.07 Y106.961 E12.9193
G1 X89.237 Y106.736 E12.92862
G1 X89.706 Y106.15 E12.95359
G1 X89.889 Y105.938 E12.9629
G1 X90.804 Y105.006 E13.00634
G1 X91.044 Y104.791 E13.01706
G1 F2700 E8.01706
;MESH:Palanca metacarpo_distal.stl
G0 F6000 X98.163 Y111.387
G0 X98.683 Y112.339
G0 X101.859 Y112.887
G0 X102.303 Y113.595
G0 X120.269 Y107.514
;TYPE:WALL-INNER
G1 F2700 E13.01706
G1 F1200 X120.65 Y107.477 E13.02979
G1 X120.983 Y107.385 E13.04128
G1 X121.02 Y107.374 E13.04257
G1 X121.089 Y107.342 E13.0451
G1 X121.367 Y107.21 E13.05533
G1 X121.587 Y107.052 E13.06434
G1 X121.678 Y106.987 E13.06806
G1 X121.793 Y106.872 E13.07347
G1 X121.939 Y106.726 E13.08034
G1 X121.978 Y106.669 E13.08263
G1 X122.144 Y106.427 E13.09239
G1 X122.165 Y106.396 E13.09364
G1 X122.265 Y106.179 E13.10159
G1 X122.325 Y106.049 E13.10635
G1 X122.353 Y105.94 E13.11009
G1 X122.421 Y105.676 E13.11916
G1 X122.446 Y105.367 E13.12947
G1 X122.452 Y105.293 E13.13194
G1 X122.433 Y105.095 E13.13856
G1 X122.415 Y104.911 E13.1447
G1 X122.396 Y104.841 E13.14712
G1 X122.313 Y104.542 E13.15744
G1 X122.194 Y104.292 E13.16665
G1 X122.148 Y104.196 E13.17019
G1 X122.058 Y104.07 E13.17534
G1 X121.924 Y103.883 E13.18299
G1 X121.9 Y103.86 E13.18409
G1 X121.674 Y103.639 E13.19461
G1 X121.65 Y103.615 E13.19574
G1 X121.453 Y103.479 E13.2037
G1 X121.336 Y103.398 E13.20843
G1 X121.226 Y103.348 E13.21245
G1 X120.985 Y103.237 E13.22128
G1 X120.687 Y103.161 E13.2315
G1 X120.615 Y103.142 E13.23398
G1 X120.421 Y103.126 E13.24046
G1 X120.231 Y103.11 E13.2468
