;FLAVOR:Marlin
;TIME:2726
;Filament used: 1.49166m
;Layer height: 0.16
;MINX:75.05
;MINY:91.75
;MINZ:0.2
;MAXX:137.816
;MAXY:130.25
;MAXZ:21.52
;Generated with Cura_SteamEngine 4.10.0
M140 S50
M105
M190 S50
M104 S200
M105
M109 S200
M82 ;absolute extrusion mode
M201 X500.00 Y500.00 Z100.00 E5000.00 ;Setup machine max acceleration
M203 X500.00 Y500.00 Z10.00 E50.00 ;Setup machine max feedrate
M204 P500.00 R1000.00 T500.00 ;Setup Print/Retract/Travel acceleration
M205 X8.00 Y8.00 Z0.40 E5.00 ;Setup Jerk
M220 S100 ;Reset Feedrate
M221 S100 ;Reset Flowrate

G28 ;Home

G92 E0 ;Reset Extruder
G1 Z2.0 F3000 ;Move Z Axis up
G1 X10.1 Y20 Z0.28 F5000.0 ;Move to start position
G1 X10.1 Y200.0 Z0.28 F1500.0 E15 ;Draw the first line
G1 X10.4 Y200.0 Z0.28 F5000.0 ;Move to side a little
G1 X10.4 Y20 Z0.28 F1500.0 E30 ;Draw the second line
G92 E0 ;Reset Extruder
G1 Z2.0 F3000 ;Move Z Axis up

G92 E0
G92 E0
G1 F2700 E-5
;LAYER_COUNT:123
;LAYER:0
M107
G0 F6000 X78.936 Y94.377 Z0.2
;TYPE:SKIRT
G1 F2700 E0
G1 F1200 X79.676 Y93.801 E0.03119
G1 X80.462 Y93.289 E0.06239
G1 X81.289 Y92.847 E0.09358
G1 X82.151 Y92.477 E0.12478
G1 X83.041 Y92.181 E0.15597
G1 X83.953 Y91.963 E0.18716
G1 X84.88 Y91.822 E0.21835
G1 X85.751 Y91.763 E0.24738
G1 X86.072 Y91.754 E0.25806
G1 X86.38 Y91.75 E0.26831
G1 X119.743 Y91.75 E1.37797
G1 X120.602 Y91.761 E1.40654
G1 X121.539 Y91.814 E1.43775
G1 X122.467 Y91.947 E1.46894
G1 X123.381 Y92.159 E1.50014
G1 X124.273 Y92.447 E1.53132
G1 X125.138 Y92.811 E1.56253
G1 X125.938 Y93.229 E1.59255
G1 X126.903 Y93.785 E1.6296
G1 X127.34 Y94.045 E1.64651
G1 X129.554 Y95.281 E1.73084
G1 X131.9 Y96.507 E1.81888
G1 X132.712 Y96.976 E1.85007
G1 X133.481 Y97.513 E1.88127
G1 X134.202 Y98.113 E1.91247
G1 X134.868 Y98.773 E1.94365
G1 X135.477 Y99.487 E1.97487
G1 X136.022 Y100.25 E2.00605
G1 X136.5 Y101.057 E2.03725
G1 X136.908 Y101.901 E2.06843
G1 X137.242 Y102.777 E2.09961
G1 X137.501 Y103.679 E2.13082
G1 X137.681 Y104.599 E2.162
G1 X137.803 Y105.954 E2.20725
G1 X137.812 Y106.281 E2.21813
G1 X137.816 Y106.578 E2.22801
G1 X137.816 Y108.456 E2.29047
G1 X137.799 Y109.655 E2.33036
G1 X137.799 Y112.296 E2.4182
G1 X137.814 Y112.998 E2.44155
G1 X137.816 Y113.331 E2.45263
G1 X137.816 Y115.185 E2.51429
G1 X137.806 Y115.898 E2.53801
G1 X137.753 Y116.835 E2.56922
G1 X137.62 Y117.763 E2.6004
G1 X137.409 Y118.677 E2.6316
G1 X137.12 Y119.569 E2.66279
G1 X136.757 Y120.434 E2.69399
G1 X136.321 Y121.264 E2.72517
G1 X135.817 Y122.055 E2.75637
G1 X135.246 Y122.799 E2.78756
G1 X134.615 Y123.493 E2.81876
G1 X133.926 Y124.13 E2.84997
G1 X133.186 Y124.705 E2.88114
G1 X132.399 Y125.216 E2.91235
G1 X131.913 Y125.487 E2.93085
G1 X131.083 Y125.922 E2.96202
G1 X130.589 Y126.172 E2.98044
G1 X128.379 Y127.363 E3.06394
G1 X125.946 Y128.767 E3.15736
G1 X125.114 Y129.201 E3.18858
G1 X124.249 Y129.562 E3.21975
G1 X123.356 Y129.848 E3.25094
G1 X122.441 Y130.058 E3.28216
G1 X121.513 Y130.188 E3.31333
G1 X120.783 Y130.235 E3.33766
G1 X120.456 Y130.245 E3.34854
G1 X120.12 Y130.25 E3.35972
G1 X86.615 Y130.249 E4.4741
G1 X85.917 Y130.24 E4.49732
G1 X84.981 Y130.188 E4.52849
G1 X84.052 Y130.056 E4.5597
G1 X83.138 Y129.846 E4.5909
G1 X82.245 Y129.559 E4.62209
G1 X81.38 Y129.196 E4.65329
G1 X80.549 Y128.762 E4.68448
G1 X79.758 Y128.258 E4.71567
G1 X79.013 Y127.688 E4.74687
G1 X78.319 Y127.057 E4.77807
G1 X77.682 Y126.37 E4.80923
G1 X77.105 Y125.63 E4.84044
G1 X76.593 Y124.844 E4.87164
G1 X76.15 Y124.017 E4.90284
G1 X75.779 Y123.156 E4.93402
G1 X75.483 Y122.266 E4.96522
G1 X75.264 Y121.354 E4.99642
G1 X75.123 Y120.427 E5.0276
G1 X75.063 Y119.538 E5.05724
G1 X75.054 Y119.205 E5.06832
G1 X75.05 Y118.908 E5.0782
G1 X75.051 Y103.275 E5.59815
G1 X75.06 Y102.61 E5.62027
G1 X75.113 Y101.674 E5.65145
G1 X75.245 Y100.745 E5.68266
G1 X75.456 Y99.831 E5.71386
G1 X75.744 Y98.939 E5.74504
G1 X76.107 Y98.074 E5.77624
G1 X76.542 Y97.243 E5.80744
G1 X77.046 Y96.453 E5.8386
G1 X77.616 Y95.708 E5.8698
G1 X78.248 Y95.014 E5.90102
G1 X78.936 Y94.377 E5.93221
G0 F6000 X79.324 Y94.573
G1 F1200 X80.06 Y94.02 E5.96283
G1 X80.841 Y93.532 E5.99346
G1 X81.661 Y93.114 E6.02407
G1 X82.515 Y92.769 E6.0547
G1 X83.395 Y92.499 E6.08532
G1 X84.295 Y92.307 E6.11593
G1 X85.209 Y92.193 E6.14656
G1 X85.762 Y92.163 E6.16498
G1 X86.083 Y92.154 E6.17566
G1 X86.38 Y92.15 E6.18554
G1 X119.743 Y92.15 E7.2952
G1 X120.597 Y92.161 E7.32361
G1 X121.516 Y92.214 E7.35422
G1 X122.427 Y92.347 E7.38484
G1 X123.323 Y92.558 E7.41546
G1 X124.197 Y92.846 E7.44607
G1 X125.044 Y93.209 E7.47672
G1 X125.738 Y93.575 E7.50281
G1 X126.837 Y94.21 E7.54503
G1 X127.146 Y94.394 E7.55699
G1 X129.38 Y95.642 E7.6421
G1 X131.715 Y96.862 E7.72972
G1 X132.511 Y97.323 E7.76032
G1 X133.265 Y97.852 E7.79095
G1 X133.97 Y98.444 E7.82157
G1 X134.621 Y99.095 E7.85219
G1 X135.213 Y99.8 E7.88281
G1 X135.742 Y100.554 E7.91345
G1 X136.203 Y101.35 E7.94404
G1 X136.593 Y102.184 E7.97466
G1 X136.91 Y103.049 E8.00531
G1 X137.15 Y103.937 E8.0359
G1 X137.312 Y104.844 E8.06654
G1 X137.403 Y105.965 E8.10395
G1 X137.412 Y106.292 E8.11483
G1 X137.416 Y106.578 E8.12435
G1 X137.416 Y108.45 E8.18661
G1 X137.399 Y109.649 E8.22649
G1 X137.399 Y112.305 E8.31483
G1 X137.414 Y113.002 E8.33802
G1 X137.416 Y113.331 E8.34896
G1 X137.416 Y115.18 E8.41046
G1 X137.406 Y115.893 E8.43418
G1 X137.353 Y116.812 E8.46479
G1 X137.221 Y117.723 E8.49541
G1 X137.01 Y118.619 E8.52603
G1 X136.722 Y119.493 E8.55663
G1 X136.359 Y120.34 E8.58728
G1 X135.924 Y121.151 E8.61789
G1 X135.421 Y121.922 E8.64851
G1 X134.852 Y122.646 E8.67914
G1 X134.223 Y123.318 E8.70975
G1 X133.538 Y123.933 E8.74037
G1 X132.802 Y124.486 E8.77099
G1 X131.728 Y125.133 E8.81269
G1 X130.898 Y125.568 E8.84386
G1 X130.398 Y125.82 E8.86248
G1 X128.195 Y127.008 E8.94573
G1 X125.746 Y128.421 E9.03977
G1 X124.929 Y128.846 E9.0704
G1 X124.079 Y129.198 E9.101
G1 X123.201 Y129.476 E9.13163
G1 X122.302 Y129.676 E9.16226
G1 X121.39 Y129.798 E9.19286
G1 X120.771 Y129.835 E9.21349
G1 X120.444 Y129.845 E9.22437
G1 X120.12 Y129.85 E9.23515
G1 X86.62 Y129.849 E10.34936
G1 X85.922 Y129.84 E10.37258
G1 X85.003 Y129.788 E10.40319
G1 X84.092 Y129.657 E10.43381
G1 X83.196 Y129.447 E10.46441
G1 X82.321 Y129.16 E10.49504
G1 X81.474 Y128.798 E10.52568
G1 X80.662 Y128.364 E10.5563
G1 X79.891 Y127.862 E10.5869
G1 X79.166 Y127.294 E10.61753
G1 X78.493 Y126.665 E10.64817
G1 X77.878 Y125.981 E10.67877
G1 X77.324 Y125.246 E10.70938
G1 X76.836 Y124.465 E10.74001
G1 X76.417 Y123.645 E10.77064
G1 X76.071 Y122.792 E10.80125
G1 X75.801 Y121.912 E10.83187
G1 X75.608 Y121.011 E10.86252
G1 X75.494 Y120.098 E10.89312
G1 X75.463 Y119.527 E10.91214
G1 X75.454 Y119.194 E10.92322
G1 X75.45 Y118.908 E10.93273
G1 X75.451 Y103.281 E11.45249
G1 X75.46 Y102.616 E11.47461
G1 X75.512 Y101.696 E11.50526
G1 X75.644 Y100.785 E11.53587
G1 X75.855 Y99.889 E11.56649
G1 X76.142 Y99.014 E11.59712
G1 X76.505 Y98.168 E11.62773
G1 X76.939 Y97.356 E11.65836
G1 X77.442 Y96.585 E11.68898
G1 X78.011 Y95.861 E11.7196
G1 X78.639 Y95.189 E11.75019
G1 X79.324 Y94.573 E11.78084
G0 F6000 X79.712 Y94.774
G1 F1200 X80.444 Y94.244 E11.81089
G1 X81.219 Y93.781 E11.84092
G1 X82.032 Y93.388 E11.87095
G1 X82.877 Y93.068 E11.90101
G1 X83.746 Y92.825 E11.93102
G1 X84.634 Y92.659 E11.96106
G1 X85.773 Y92.563 E11.99908
G1 X86.094 Y92.554 E12.00976
G1 X86.38 Y92.55 E12.01928
G1 X119.743 Y92.55 E13.12893
G1 X120.591 Y92.561 E13.15714
G1 X121.493 Y92.614 E13.18719
G1 X122.386 Y92.746 E13.21722
G1 X123.264 Y92.957 E13.24725
G1 X124.12 Y93.245 E13.27729
G1 X124.947 Y93.607 E13.30732
G1 X125.538 Y93.922 E13.32959
G1 X126.633 Y94.554 E13.37164
G1 X126.969 Y94.754 E13.38465
G1 X129.151 Y95.974 E13.46779
G1 X131.53 Y97.216 E13.55705
G1 X132.311 Y97.669 E13.58708
G1 X133.049 Y98.19 E13.61713
G1 X133.738 Y98.773 E13.64715
G1 X134.373 Y99.416 E13.67721
G1 X134.948 Y100.112 E13.70723
G1 X135.46 Y100.856 E13.73727
G1 X135.904 Y101.643 E13.76733
G1 X136.276 Y102.465 E13.79734
G1 X136.574 Y103.318 E13.82739
G1 X136.796 Y104.193 E13.85741
G1 X136.939 Y105.085 E13.88746
G1 X137.003 Y105.976 E13.91717
G1 X137.012 Y106.303 E13.92805
G1 X137.016 Y106.578 E13.9372
G1 X137.016 Y108.445 E13.99929
G1 X136.999 Y109.644 E14.03918
G1 X136.999 Y112.268 E14.12645
G1 X137.014 Y113.005 E14.15097
G1 X137.016 Y113.331 E14.16181
G1 X137.016 Y115.174 E14.22311
G1 X137.006 Y115.887 E14.24683
G1 X136.953 Y116.789 E14.27688
G1 X136.821 Y117.682 E14.3069
G1 X136.611 Y118.56 E14.33693
G1 X136.323 Y119.416 E14.36697
G1 X135.961 Y120.244 E14.39703
G1 X135.527 Y121.036 E14.42706
G1 X135.025 Y121.786 E14.45708
G1 X134.458 Y122.489 E14.48712
G1 X133.831 Y123.14 E14.51718
G1 X133.15 Y123.732 E14.54719
G1 X132.418 Y124.262 E14.57725
G1 X131.542 Y124.778 E14.61107
G1 X130.554 Y125.294 E14.64814
G1 X130.221 Y125.461 E14.66053
G1 X127.984 Y126.667 E14.74506
G1 X125.546 Y128.074 E14.83868
G1 X124.744 Y128.491 E14.86874
G1 X123.909 Y128.834 E14.89877
G1 X123.047 Y129.103 E14.9288
G1 X122.164 Y129.294 E14.95885
G1 X121.268 Y129.407 E14.98889
G1 X120.759 Y129.435 E15.00584
G1 X120.432 Y129.445 E15.01672
G1 X120.12 Y129.45 E15.0271
G1 X86.625 Y129.449 E16.14115
G1 X85.927 Y129.44 E16.16437
G1 X85.026 Y129.389 E16.19438
G1 X84.132 Y129.257 E16.22444
G1 X83.254 Y129.048 E16.25446
G1 X82.397 Y128.761 E16.28452
G1 X81.57 Y128.4 E16.31453
G1 X80.777 Y127.967 E16.34458
G1 X80.026 Y127.466 E16.37461
G1 X79.322 Y126.9 E16.40465
G1 X78.671 Y126.274 E16.43469
G1 X78.078 Y125.593 E16.46473
G1 X77.548 Y124.862 E16.49476
G1 X77.084 Y124.087 E16.5248
G1 X76.69 Y123.274 E16.55485
G1 X76.37 Y122.43 E16.58487
G1 X76.126 Y121.56 E16.61492
G1 X75.96 Y120.672 E16.64497
G1 X75.863 Y119.517 E16.68352
G1 X75.854 Y119.184 E16.6946
G1 X75.85 Y118.908 E16.70378
G1 X75.851 Y103.286 E17.22337
G1 X75.86 Y102.621 E17.24549
G1 X75.912 Y101.719 E17.27554
G1 X76.044 Y100.826 E17.30556
G1 X76.254 Y99.948 E17.33559
G1 X76.541 Y99.091 E17.36565
G1 X76.903 Y98.264 E17.39568
G1 X77.336 Y97.472 E17.4257
G1 X77.838 Y96.721 E17.45574
G1 X78.405 Y96.017 E17.48581
G1 X79.031 Y95.367 E17.51582
G1 X79.712 Y94.774 E17.54586
G1 F2700 E12.54586
;MESH:Base_v2.stl
G0 F6000 X86.464 Y102.085
G0 X86.464 Y103.164
G0 X87.232 Y118.068
G0 X119.45 Y118.25
;TYPE:WALL-INNER
G1 F2700 E17.54586
G1 F1200 X87.05 Y118.25 E18.62349
G1 X87.05 Y103.75 E19.10576
G1 X119.45 Y103.75 E20.18339
G1 X119.45 Y107.25 E20.2998
G1 X125.816 Y107.25 E20.51153
G1 X125.817 Y107.801 E20.52986
G1 X125.817 Y108 E20.53648
G1 X125.618 Y108 E20.54076
G1 X121.534 Y108.001 E20.67659
G1 X119.45 Y110.085 E20.77462
G1 X119.45 Y111.915 E20.83548
G1 X121.534 Y113.999 E20.93351
G1 X125.816 Y114 E21.07593
G1 X125.817 Y114.551 E21.09425
G1 X125.817 Y114.75 E21.10087
G1 X125.618 Y114.75 E21.10516
G1 X119.45 Y114.75 E21.3103
G1 X119.45 Y118.25 E21.42671
G0 F6000 X119.85 Y118.65
G1 F1200 X86.65 Y118.65 E22.53095
G1 X86.65 Y103.35 E23.03983
G1 X119.85 Y103.35 E24.14407
G1 X119.85 Y106.85 E24.26048
G1 X126.216 Y106.85 E24.47221
G1 X126.217 Y108.201 E24.51715
G1 X126.217 Y108.4 E24.52377
G1 X126.018 Y108.4 E24.52805
G1 X121.7 Y108.401 E24.67166
G1 X119.85 Y110.251 E24.75868
G1 X119.85 Y111.749 E24.80851
G1 X121.7 Y113.599 E24.89553
G1 X126.216 Y113.6 E25.04573
G1 X126.217 Y114.951 E25.09066
G1 X126.217 Y115.15 E25.09728
G1 X126.018 Y115.15 E25.10156
G1 X119.85 Y115.15 E25.30671
G1 X119.85 Y118.65 E25.42312
G0 F6000 X120.25 Y119.05
;TYPE:WALL-OUTER
G1 F1200 X86.25 Y119.05 E26.55397
G1 X86.25 Y102.95 E27.08946
G1 X120.25 Y102.95 E28.2203
G1 X120.25 Y106.45 E28.33671
G1 X126.616 Y106.45 E28.54844
G1 X126.617 Y108.8 E28.62661
G1 X121.866 Y108.801 E28.78462
G1 X120.25 Y110.417 E28.86064
G1 X120.25 Y111.583 E28.89942
G1 X121.866 Y113.199 E28.97543
G1 X126.616 Y113.2 E29.13341
G1 X126.617 Y115.55 E29.21158
G1 X120.25 Y115.55 E29.42334
G1 X120.25 Y119.05 E29.53975
G0 F6000 X119.98 Y118.78
G0 X119.34 Y117.86
G0 X119.06 Y117.86
;TYPE:SKIN
G1 F1200 X87.44 Y117.86 E30.59144
G1 X87.44 Y104.14 E31.04777
G1 X119.06 Y104.14 E32.09945
G1 X119.06 Y107.64 E32.21586
G1 X121.343 Y107.64 E32.2918
G1 X119.06 Y109.923 E32.39918
G1 X119.06 Y112.077 E32.47083
G1 X121.343 Y114.36 E32.57821
G1 X119.06 Y114.36 E32.65414
G1 X119.06 Y117.86 E32.77055
G1 F2700 E27.77055
G0 F6000 X119.34 Y117.86
G0 X119.97 Y114.578
G0 X125.635 Y114.568
G0 X125.634 Y114.182
G0 X121.462 Y114.173
G0 X119.34 Y112.062
G0 X119.34 Y109.938
G0 X121.462 Y107.827
G0 X125.635 Y107.818
G0 X125.634 Y107.432
G0 X119.97 Y107.422
G0 X119.34 Y104.757
G0 X118.899 Y104.757
G1 F2700 E32.77055
G1 F1200 X118.442 Y104.3 E32.79205
G0 F6000 X117.876 Y104.3
G1 F1200 X118.899 Y105.322 E32.84014
G0 F6000 X118.899 Y105.888
G1 F1200 X117.311 Y104.3 E32.91484
G0 F6000 X116.745 Y104.3
G1 F1200 X118.899 Y106.454 E33.01616
G0 F6000 X118.899 Y107.019
G1 F1200 X116.179 Y104.3 E33.14407
G0 F6000 X115.614 Y104.3
G1 F1200 X118.899 Y107.585 E33.29859
G0 F6000 X119.114 Y107.8
G1 F1200 X120.034 Y108.72 E33.34186
G0 F6000 X119.751 Y109.003
G1 F1200 X115.048 Y104.3 E33.56308
G0 F6000 X114.482 Y104.3
G1 F1200 X119.468 Y109.286 E33.79761
G0 F6000 X119.185 Y109.569
G1 F1200 X113.917 Y104.3 E34.04542
G0 F6000 X113.351 Y104.3
G1 F1200 X118.902 Y109.851 E34.30652
G0 F6000 X118.899 Y110.414
G1 F1200 X112.785 Y104.3 E34.59411
G0 F6000 X112.219 Y104.3
G1 F1200 X118.899 Y110.979 E34.90829
G0 F6000 X118.899 Y111.545
G1 F1200 X111.654 Y104.3 E35.24907
G0 F6000 X111.088 Y104.3
G1 F1200 X118.899 Y112.111 E35.61648
G0 F6000 X119.332 Y111.964
G0 X121.462 Y114.173
G0 X125.634 Y114.182
G0 X125.635 Y114.568
G0 X119.291 Y114.64
G0 X119.291 Y114.199
G1 F1200 X109.391 Y104.3 E36.08212
G0 F6000 X109.957 Y104.3
G1 F1200 X119.856 Y114.199 E36.54774
G0 F6000 X120.422 Y114.199
G1 F1200 X110.522 Y104.3 E37.01338
G0 F6000 X110.522 Y103.86
G0 X108.825 Y103.86
G0 X108.825 Y104.3
G1 F1200 X118.899 Y114.373 E37.48721
G0 F6000 X118.899 Y114.939
G1 F1200 X108.26 Y104.3 E37.98763
G0 F6000 X107.694 Y104.3
G1 F1200 X118.899 Y115.505 E38.51468
G0 F6000 X118.899 Y116.07
G1 F1200 X107.128 Y104.3 E39.06833
G0 F6000 X106.563 Y104.3
G1 F1200 X118.899 Y116.636 E39.64858
G0 F6000 X118.899 Y117.202
G1 F1200 X105.997 Y104.3 E40.25545
G0 F6000 X105.431 Y104.3
G1 F1200 X118.83 Y117.699 E40.88569
G0 F6000 X118.265 Y117.699
G1 F1200 X104.866 Y104.3 E41.51594
G0 F6000 X104.3 Y104.3
G1 F1200 X117.699 Y117.699 E42.14619
G0 F6000 X117.133 Y117.699
G1 F1200 X103.734 Y104.3 E42.77644
G0 F6000 X103.168 Y104.299
G1 F1200 X116.567 Y117.699 E43.40671
G0 F6000 X116.002 Y117.699
G1 F1200 X102.602 Y104.299 E44.037
G0 F6000 X102.036 Y104.299
G1 F1200 X115.436 Y117.699 E44.6673
G0 F6000 X114.87 Y117.699
G1 F1200 X101.471 Y104.299 E45.29757
G0 F6000 X100.905 Y104.299
G1 F1200 X114.305 Y117.699 E45.92787
G0 F6000 X113.739 Y117.699
G1 F1200 X100.339 Y104.299 E46.55816
G0 F6000 X99.774 Y104.299
G1 F1200 X113.173 Y117.699 E47.18843
G0 F6000 X112.608 Y117.699
G1 F1200 X99.208 Y104.299 E47.81873
G0 F6000 X98.642 Y104.299
G1 F1200 X112.042 Y117.699 E48.44902
G0 F6000 X111.476 Y117.699
G1 F1200 X98.077 Y104.299 E49.07929
G0 F6000 X97.511 Y104.299
G1 F1200 X110.911 Y117.699 E49.70959
G0 F6000 X110.345 Y117.699
G1 F1200 X96.945 Y104.299 E50.33988
G0 F6000 X96.38 Y104.299
G1 F1200 X109.779 Y117.699 E50.97015
G0 F6000 X109.214 Y117.699
G1 F1200 X95.814 Y104.299 E51.60045
G0 F6000 X95.248 Y104.299
G1 F1200 X108.648 Y117.699 E52.23074
G0 F6000 X108.082 Y117.699
G1 F1200 X94.683 Y104.299 E52.86102
G0 F6000 X94.117 Y104.299
G1 F1200 X107.517 Y117.699 E53.49131
G0 F6000 X106.951 Y117.699
G1 F1200 X93.551 Y104.299 E54.12161
G0 F6000 X92.985 Y104.299
G1 F1200 X106.385 Y117.699 E54.7519
G0 F6000 X105.819 Y117.699
G1 F1200 X92.42 Y104.299 E55.38217
G0 F6000 X91.854 Y104.299
G1 F1200 X105.254 Y117.699 E56.01247
G0 F6000 X104.688 Y117.699
G1 F1200 X91.288 Y104.299 E56.64276
G0 F6000 X90.723 Y104.299
G1 F1200 X104.122 Y117.699 E57.27303
G0 F6000 X103.557 Y117.699
G1 F1200 X90.157 Y104.299 E57.90333
G0 F6000 X89.591 Y104.299
G1 F1200 X102.991 Y117.699 E58.53362
G0 F6000 X102.425 Y117.699
G1 F1200 X89.026 Y104.299 E59.16389
G0 F6000 X88.46 Y104.299
G1 F1200 X101.86 Y117.699 E59.79419
G0 F6000 X101.294 Y117.699
G1 F1200 X87.894 Y104.299 E60.42448
G0 F6000 X87.599 Y104.57
G1 F1200 X100.728 Y117.699 E61.04203
