;FLAVOR:Marlin
;TIME:684
;Filament used: 0.410913m
;Layer height: 0.16
;MINX:76.267
;MINY:85.291
;MINZ:0.2
;MAXX:143.731
;MAXY:134.707
;MAXZ:3.6
;Generated with Cura_SteamEngine 4.10.0
M140 S50
M105
M190 S50
M104 S200
M105
M109 S200
M82 ;absolute extrusion mode
M201 X500.00 Y500.00 Z100.00 E5000.00 ;Setup machine max acceleration
M203 X500.00 Y500.00 Z10.00 E50.00 ;Setup machine max feedrate
M204 P500.00 R1000.00 T500.00 ;Setup Print/Retract/Travel acceleration
M205 X8.00 Y8.00 Z0.40 E5.00 ;Setup Jerk
M220 S100 ;Reset Feedrate
M221 S100 ;Reset Flowrate

G28 ;Home

G92 E0 ;Reset Extruder
G1 Z2.0 F3000 ;Move Z Axis up
G1 X10.1 Y20 Z0.28 F5000.0 ;Move to start position
G1 X10.1 Y200.0 Z0.28 F1500.0 E15 ;Draw the first line
G1 X10.4 Y200.0 Z0.28 F5000.0 ;Move to side a little
G1 X10.4 Y20 Z0.28 F1500.0 E30 ;Draw the second line
G92 E0 ;Reset Extruder
G1 Z2.0 F3000 ;Move Z Axis up

G92 E0
G92 E0
G1 F2700 E-5
;LAYER_COUNT:20
;LAYER:0
M107
G0 F6000 X86.491 Y105.362 Z0.2
;TYPE:SKIRT
G1 F2700 E0
G1 F1200 X87.22 Y104.772 E0.03119
G1 X87.996 Y104.246 E0.06237
G1 X88.815 Y103.788 E0.09358
G1 X89.667 Y103.402 E0.12469
G1 X90.503 Y103.067 E0.15465
G1 X92.778 Y102.19 E0.23574
G1 X93.425 Y101.95 E0.25869
G1 X93.728 Y101.842 E0.26939
G1 X94.521 Y101.574 E0.29723
G1 X96.959 Y100.712 E0.38324
G1 X99.306 Y99.806 E0.46692
G1 X101.612 Y98.84 E0.55007
G1 X103.936 Y97.789 E0.63491
G1 X106.189 Y96.693 E0.71824
G1 X108.396 Y95.539 E0.80107
G1 X110.61 Y94.302 E0.88542
G1 X112.779 Y93.008 E0.96943
G1 X114.901 Y91.66 E1.05304
G1 X116.123 Y90.837 E1.10204
G1 X116.512 Y90.585 E1.11746
G1 X117.004 Y90.289 E1.13656
G1 X118.069 Y89.687 E1.17725
G1 X122.469 Y87.298 E1.34377
G1 X123.282 Y86.871 E1.37432
G1 X123.793 Y86.619 E1.39327
G1 X124.006 Y86.521 E1.40106
G1 X124.699 Y86.23 E1.42606
G1 X124.886 Y86.159 E1.43272
G1 X125.709 Y85.884 E1.46158
G1 X125.942 Y85.816 E1.46965
G1 X126.772 Y85.608 E1.49811
G1 X127.011 Y85.558 E1.50623
G1 X127.579 Y85.455 E1.52543
G1 X128.098 Y85.385 E1.54285
G1 X128.297 Y85.363 E1.54951
G1 X129.05 Y85.305 E1.57463
G1 X129.291 Y85.295 E1.58265
G1 X130.072 Y85.291 E1.60863
G1 X130.275 Y85.297 E1.61538
G1 X131.139 Y85.356 E1.64418
G1 X131.369 Y85.381 E1.65188
G1 X132.27 Y85.517 E1.68219
G1 X132.549 Y85.571 E1.69164
G1 X133.572 Y85.821 E1.72666
G1 X133.833 Y85.898 E1.73571
G1 X134.642 Y86.171 E1.76411
G1 X134.849 Y86.25 E1.77148
G1 X135.68 Y86.607 E1.80156
G1 X135.895 Y86.71 E1.80949
G1 X136.677 Y87.124 E1.83892
G1 X136.902 Y87.255 E1.84758
G1 X137.678 Y87.751 E1.87821
G1 X137.885 Y87.896 E1.88662
G1 X138.633 Y88.47 E1.91798
G1 X138.823 Y88.629 E1.92622
G1 X139.542 Y89.287 E1.95864
G1 X139.726 Y89.471 E1.96729
G1 X140.303 Y90.094 E1.99553
G1 X140.458 Y90.275 E2.00346
G1 X141.045 Y91.024 E2.03511
G1 X141.189 Y91.225 E2.04333
G1 X141.695 Y91.998 E2.07406
G1 X141.822 Y92.211 E2.08231
G1 X142.213 Y92.925 E2.10939
G1 X142.315 Y93.129 E2.11697
G1 X142.684 Y93.949 E2.14688
G1 X142.784 Y94.198 E2.1558
G1 X143.104 Y95.108 E2.18789
G1 X143.167 Y95.316 E2.19512
G1 X143.389 Y96.173 E2.22456
G1 X143.448 Y96.445 E2.23382
G1 X143.612 Y97.407 E2.26628
G1 X143.643 Y97.654 E2.27456
G1 X143.718 Y98.535 E2.30396
G1 X143.729 Y98.782 E2.31219
G1 X143.731 Y99.716 E2.34325
G1 X143.721 Y99.963 E2.35147
G1 X143.658 Y100.773 E2.3785
G1 X143.634 Y100.982 E2.38549
G1 X143.483 Y101.932 E2.41749
G1 X143.421 Y102.235 E2.42777
G1 X143.179 Y103.196 E2.46073
G1 X143.118 Y103.399 E2.46778
G1 X142.866 Y104.14 E2.49382
G1 X142.79 Y104.34 E2.50093
G1 X142.448 Y105.142 E2.52993
G1 X142.331 Y105.389 E2.53902
G1 X141.868 Y106.263 E2.57192
G1 X141.739 Y106.482 E2.58037
G1 X141.266 Y107.216 E2.60941
G1 X141.125 Y107.417 E2.61758
G1 X140.489 Y108.238 E2.65212
G1 X140.315 Y108.442 E2.66104
G1 X139.774 Y109.032 E2.68766
G1 X139.618 Y109.19 E2.69505
G1 X139.012 Y109.759 E2.7227
G1 X138.535 Y110.173 E2.74371
G1 X136.972 Y111.496 E2.81181
G1 X135.05 Y113.219 E2.89767
G1 X133.285 Y114.894 E2.9786
G1 X131.467 Y116.722 E3.06435
G1 X129.773 Y118.521 E3.14653
G1 X128.095 Y120.41 E3.23057
G1 X126.059 Y122.85 E3.33627
G1 X125.428 Y123.543 E3.36744
G1 X124.962 Y123.987 E3.38885
G1 X124.238 Y124.584 E3.42006
G1 X123.117 Y125.329 E3.46483
G1 X122.365 Y125.764 E3.49372
G1 X120.553 Y126.78 E3.56282
G1 X119.798 Y127.189 E3.59137
G1 X118.955 Y127.599 E3.62255
G1 X118.038 Y127.951 E3.65522
G1 X117.136 Y128.209 E3.68643
G1 X116.321 Y128.373 E3.71408
G1 X115.784 Y128.458 E3.73216
G1 X113.826 Y128.74 E3.79796
G1 X111.379 Y129.164 E3.88056
G1 X108.894 Y129.667 E3.96488
G1 X106.41 Y130.244 E4.0497
G1 X104.023 Y130.87 E4.13178
G1 X101.578 Y131.586 E4.21651
G1 X99.204 Y132.354 E4.2995
G1 X96.227 Y133.42 E4.40467
G1 X95.096 Y133.847 E4.44488
G1 X94.333 Y134.104 E4.47166
G1 X94.103 Y134.172 E4.47964
G1 X93.255 Y134.386 E4.50873
G1 X93.037 Y134.432 E4.51614
G1 X92.158 Y134.581 E4.54579
G1 X91.868 Y134.618 E4.55551
G1 X90.874 Y134.699 E4.58868
G1 X90.653 Y134.707 E4.59604
G1 X89.834 Y134.706 E4.62328
G1 X89.599 Y134.697 E4.6311
G1 X88.811 Y134.638 E4.65738
G1 X88.594 Y134.614 E4.66465
G1 X87.661 Y134.47 E4.69604
G1 X87.394 Y134.417 E4.7051
G1 X86.473 Y134.193 E4.73662
G1 X86.235 Y134.124 E4.74487
G1 X85.405 Y133.847 E4.77397
G1 X85.183 Y133.763 E4.78186
G1 X84.356 Y133.411 E4.81176
G1 X84.156 Y133.316 E4.81912
G1 X83.351 Y132.892 E4.84938
G1 X83.11 Y132.752 E4.85865
G1 X82.288 Y132.224 E4.89115
G1 X82.07 Y132.07 E4.90002
G1 X81.329 Y131.498 E4.93116
G1 X81.132 Y131.332 E4.93973
G1 X80.442 Y130.698 E4.97089
G1 X80.284 Y130.54 E4.97833
G1 X79.752 Y129.97 E5.00426
G1 X79.595 Y129.789 E5.01223
G1 X78.957 Y128.979 E5.04652
G1 X78.814 Y128.779 E5.0547
G1 X78.403 Y128.16 E5.07941
G1 X78.29 Y127.977 E5.08657
G1 X77.81 Y127.117 E5.11932
G1 X77.672 Y126.841 E5.12959
G1 X77.287 Y125.981 E5.16093
G1 X77.208 Y125.782 E5.16805
G1 X76.904 Y124.91 E5.19876
G1 X76.825 Y124.649 E5.20783
G1 X76.589 Y123.728 E5.23945
G1 X76.537 Y123.481 E5.24785
G1 X76.384 Y122.564 E5.27877
G1 X76.351 Y122.297 E5.28772
G1 X76.275 Y121.348 E5.31938
G1 X76.267 Y121.128 E5.3267
G1 X76.27 Y120.263 E5.35548
G1 X76.281 Y120.003 E5.36413
G1 X76.374 Y118.967 E5.39873
G1 X76.416 Y118.662 E5.40897
G1 X76.563 Y117.833 E5.43697
G1 X76.594 Y117.69 E5.44184
G1 X76.783 Y116.943 E5.46746
G1 X76.864 Y116.665 E5.4771
G1 X77.163 Y115.781 E5.50813
G1 X77.229 Y115.61 E5.51423
G1 X77.56 Y114.84 E5.54211
G1 X77.691 Y114.565 E5.55224
G1 X78.214 Y113.597 E5.58883
G1 X78.34 Y113.389 E5.59692
G1 X78.766 Y112.738 E5.6228
G1 X78.889 Y112.564 E5.62988
G1 X79.414 Y111.88 E5.65856
G1 X79.582 Y111.678 E5.6673
G1 X80.216 Y110.979 E5.69869
G1 X80.389 Y110.804 E5.70687
G1 X80.982 Y110.247 E5.73393
G1 X81.908 Y109.441 E5.77476
G1 X82.536 Y108.91 E5.80212
G1 X83.88 Y107.716 E5.86191
G1 X85.943 Y105.846 E5.95452
G1 X86.491 Y105.362 E5.97884
G0 F6000 X86.756 Y105.662
G1 F1200 X87.472 Y105.083 E6.00946
G1 X88.235 Y104.569 E6.04006
G1 X89.04 Y104.122 E6.07069
G1 X89.817 Y103.773 E6.09902
G1 X90.647 Y103.44 E6.12876
G1 X92.917 Y102.565 E6.20968
G1 X93.564 Y102.325 E6.23263
G1 X93.857 Y102.221 E6.24297
G1 X94.612 Y101.966 E6.26948
G1 X97.099 Y101.086 E6.35722
G1 X99.468 Y100.172 E6.44168
G1 X101.782 Y99.203 E6.52511
G1 X104.097 Y98.156 E6.60962
G1 X106.343 Y97.063 E6.6927
G1 X108.598 Y95.885 E6.77732
G1 X110.831 Y94.636 E6.86242
G1 X112.977 Y93.356 E6.94552
G1 X115.134 Y91.985 E7.03053
G1 X116.347 Y91.169 E7.07916
G1 X116.564 Y91.026 E7.0878
G1 X116.727 Y90.922 E7.09423
G1 X117.201 Y90.637 E7.11263
G1 X118.09 Y90.133 E7.14662
G1 X118.26 Y90.039 E7.15308
G1 X122.794 Y87.578 E7.32466
G1 X123.467 Y87.225 E7.34994
G1 X123.96 Y86.982 E7.36822
G1 X124.173 Y86.884 E7.37602
G1 X124.841 Y86.604 E7.40011
G1 X125.028 Y86.533 E7.40676
G1 X125.821 Y86.267 E7.43458
G1 X126.054 Y86.199 E7.44265
G1 X126.853 Y86 E7.47004
G1 X127.092 Y85.95 E7.47816
G1 X127.642 Y85.85 E7.49675
G1 X128.142 Y85.782 E7.51354
G1 X128.341 Y85.76 E7.52019
G1 X129.067 Y85.705 E7.54441
G1 X129.308 Y85.695 E7.55243
G1 X130.06 Y85.691 E7.57745
G1 X130.263 Y85.697 E7.5842
G1 X131.095 Y85.754 E7.61194
G1 X131.325 Y85.779 E7.61963
G1 X132.194 Y85.91 E7.64886
G1 X132.473 Y85.964 E7.65831
G1 X133.458 Y86.204 E7.69203
G1 X133.719 Y86.281 E7.70108
G1 X134.5 Y86.545 E7.7285
G1 X134.707 Y86.624 E7.73587
G1 X135.507 Y86.967 E7.76482
G1 X135.722 Y87.07 E7.77275
G1 X136.475 Y87.47 E7.80111
G1 X136.7 Y87.601 E7.80977
G1 X137.449 Y88.079 E7.83932
G1 X137.656 Y88.224 E7.84773
G1 X138.377 Y88.777 E7.87795
G1 X138.567 Y88.936 E7.88619
G1 X139.259 Y89.57 E7.91741
G1 X139.443 Y89.754 E7.92606
G1 X139.999 Y90.354 E7.95327
G1 X140.154 Y90.535 E7.9612
G1 X140.72 Y91.257 E7.99171
G1 X140.864 Y91.458 E7.99993
G1 X141.351 Y92.203 E8.02954
G1 X141.478 Y92.416 E8.03778
G1 X141.855 Y93.104 E8.06388
G1 X141.957 Y93.308 E8.07146
G1 X142.312 Y94.098 E8.10027
G1 X142.412 Y94.347 E8.10919
G1 X142.721 Y95.224 E8.14012
G1 X142.784 Y95.432 E8.14735
G1 X142.998 Y96.258 E8.17573
G1 X143.057 Y96.53 E8.18499
G1 X143.215 Y97.457 E8.21626
G1 X143.246 Y97.704 E8.22454
G1 X143.319 Y98.552 E8.25285
G1 X143.33 Y98.799 E8.26108
G1 X143.331 Y99.7 E8.29104
G1 X143.321 Y99.947 E8.29927
G1 X143.261 Y100.727 E8.32528
G1 X143.237 Y100.936 E8.33228
G1 X143.091 Y101.852 E8.36313
G1 X143.029 Y102.155 E8.37342
G1 X142.796 Y103.08 E8.40515
G1 X142.735 Y103.283 E8.4122
G1 X142.492 Y103.998 E8.43731
G1 X142.416 Y104.198 E8.44443
G1 X142.087 Y104.971 E8.47237
G1 X141.97 Y105.218 E8.48146
G1 X141.523 Y106.06 E8.51317
G1 X141.394 Y106.279 E8.52162
G1 X140.939 Y106.986 E8.54959
G1 X140.798 Y107.187 E8.55775
G1 X140.185 Y107.979 E8.59106
G1 X140.011 Y108.183 E8.59998
G1 X139.489 Y108.751 E8.62564
G1 X139.333 Y108.909 E8.63302
G1 X138.75 Y109.457 E8.65964
G1 X138.277 Y109.867 E8.68045
G1 X136.713 Y111.191 E8.74861
G1 X134.791 Y112.914 E8.83446
G1 X132.991 Y114.621 E8.91697
G1 X131.193 Y116.43 E9.0018
G1 X129.466 Y118.264 E9.08559
G1 X127.788 Y120.154 E9.16965
G1 X125.752 Y122.593 E9.27532
G1 X125.132 Y123.274 E9.30595
G1 X124.694 Y123.69 E9.32604
G1 X123.984 Y124.276 E9.35666
G1 X122.916 Y124.983 E9.39926
G1 X122.169 Y125.415 E9.42796
G1 X120.213 Y126.51 E9.50252
G1 X119.608 Y126.837 E9.5254
G1 X118.78 Y127.239 E9.55601
G1 X117.911 Y127.571 E9.58695
G1 X117.026 Y127.824 E9.61756
G1 X116.257 Y127.978 E9.64365
G1 X115.727 Y128.062 E9.6615
G1 X113.773 Y128.344 E9.72716
G1 X111.297 Y128.773 E9.81074
G1 X108.795 Y129.279 E9.89564
G1 X106.365 Y129.843 E9.97861
G1 X103.882 Y130.494 E10.06399
G1 X101.47 Y131.2 E10.14758
G1 X99.053 Y131.983 E10.23208
G1 X96.131 Y133.03 E10.33532
G1 X94.955 Y133.473 E10.37711
G1 X94.219 Y133.72 E10.40294
G1 X93.989 Y133.788 E10.41091
G1 X93.173 Y133.995 E10.43891
G1 X92.955 Y134.041 E10.44632
G1 X92.108 Y134.184 E10.47489
G1 X91.818 Y134.221 E10.48462
G1 X90.859 Y134.299 E10.51662
G1 X90.638 Y134.307 E10.52397
G1 X89.849 Y134.306 E10.55022
G1 X89.614 Y134.297 E10.55804
G1 X88.855 Y134.241 E10.58335
G1 X88.638 Y134.217 E10.59061
G1 X87.739 Y134.078 E10.62087
G1 X87.472 Y134.025 E10.62992
G1 X86.584 Y133.809 E10.66032
G1 X86.346 Y133.74 E10.66856
G1 X85.547 Y133.473 E10.69658
G1 X85.325 Y133.389 E10.70447
G1 X84.528 Y133.05 E10.73328
G1 X84.328 Y132.955 E10.74064
G1 X83.552 Y132.546 E10.76982
G1 X83.311 Y132.406 E10.77909
G1 X82.519 Y131.898 E10.81039
G1 X82.301 Y131.744 E10.81926
G1 X81.587 Y131.192 E10.84928
G1 X81.39 Y131.026 E10.85785
G1 X80.725 Y130.415 E10.88788
G1 X80.567 Y130.257 E10.89532
G1 X80.055 Y129.708 E10.92028
G1 X79.898 Y129.527 E10.92825
G1 X79.282 Y128.746 E10.96134
G1 X79.139 Y128.546 E10.96952
G1 X78.743 Y127.95 E10.99331
G1 X78.63 Y127.767 E11.00047
G1 X78.168 Y126.938 E11.03203
G1 X78.03 Y126.662 E11.0423
G1 X77.659 Y125.833 E11.0725
G1 X77.58 Y125.634 E11.07963
G1 X77.287 Y124.794 E11.10922
G1 X77.208 Y124.533 E11.11829
G1 X76.98 Y123.646 E11.14875
G1 X76.928 Y123.399 E11.15714
G1 X76.781 Y122.515 E11.18695
G1 X76.748 Y122.248 E11.1959
G1 X76.675 Y121.333 E11.22642
G1 X76.667 Y121.113 E11.23375
G1 X76.669 Y120.28 E11.26145
G1 X76.68 Y120.02 E11.27011
G1 X76.77 Y119.022 E11.30344
G1 X76.812 Y118.717 E11.31368
G1 X76.954 Y117.917 E11.3407
G1 X76.985 Y117.774 E11.34557
G1 X77.167 Y117.055 E11.37024
G1 X77.248 Y116.777 E11.37987
G1 X77.536 Y115.925 E11.40978
G1 X77.602 Y115.754 E11.41588
G1 X77.921 Y115.012 E11.44274
G1 X78.052 Y114.737 E11.45287
G1 X78.556 Y113.804 E11.48814
G1 X78.682 Y113.596 E11.49623
G1 X79.092 Y112.969 E11.52115
G1 X79.215 Y112.795 E11.52823
G1 X79.721 Y112.136 E11.55587
G1 X79.889 Y111.934 E11.56461
G1 X80.501 Y111.26 E11.59489
G1 X80.674 Y111.085 E11.60307
G1 X81.245 Y110.549 E11.62912
G1 X82.166 Y109.747 E11.66974
G1 X82.797 Y109.214 E11.69721
G1 X84.186 Y107.979 E11.75903
G1 X86.208 Y106.146 E11.8498
G1 X86.756 Y105.662 E11.87412
G0 F6000 X87.021 Y105.962
G1 F1200 X87.723 Y105.395 E11.90413
G1 X88.474 Y104.892 E11.93419
G1 X89.265 Y104.457 E11.96422
G1 X89.966 Y104.144 E11.98975
G1 X90.791 Y103.813 E12.01932
G1 X92.931 Y102.987 E12.09561
G1 X93.704 Y102.7 E12.12304
G1 X93.985 Y102.6 E12.13296
G1 X94.748 Y102.342 E12.15975
G1 X97.26 Y101.454 E12.24836
G1 X99.588 Y100.556 E12.33135
G1 X101.936 Y99.572 E12.41603
G1 X104.258 Y98.522 E12.50079
G1 X106.552 Y97.405 E12.58565
G1 X108.771 Y96.246 E12.66892
G1 X111.025 Y94.986 E12.7548
G1 X113.191 Y93.693 E12.8387
G1 X115.333 Y92.333 E12.92309
G1 X116.57 Y91.5 E12.9727
G1 X116.943 Y91.259 E12.98747
G1 X117.399 Y90.985 E13.00516
G1 X118.451 Y90.39 E13.04536
G1 X122.98 Y87.932 E13.21675
G1 X123.653 Y87.579 E13.24203
G1 X124.128 Y87.346 E13.25962
G1 X124.341 Y87.248 E13.26742
G1 X124.983 Y86.978 E13.29059
G1 X125.17 Y86.907 E13.29724
G1 X125.933 Y86.651 E13.32401
G1 X126.166 Y86.583 E13.33208
G1 X126.935 Y86.391 E13.35844
G1 X127.174 Y86.341 E13.36656
G1 X127.704 Y86.245 E13.38448
G1 X128.186 Y86.18 E13.40065
G1 X128.385 Y86.158 E13.40731
G1 X129.083 Y86.105 E13.4306
G1 X129.324 Y86.095 E13.43862
G1 X130.048 Y86.09 E13.4627
G1 X130.251 Y86.096 E13.46945
G1 X131.052 Y86.152 E13.49616
G1 X131.282 Y86.177 E13.50385
G1 X132.118 Y86.303 E13.53197
G1 X132.397 Y86.357 E13.54143
G1 X133.345 Y86.588 E13.57388
G1 X133.606 Y86.665 E13.58293
G1 X134.357 Y86.918 E13.60929
G1 X134.564 Y86.997 E13.61666
G1 X135.334 Y87.328 E13.64453
G1 X135.549 Y87.431 E13.65246
G1 X136.274 Y87.815 E13.67975
G1 X136.499 Y87.946 E13.68841
G1 X137.219 Y88.407 E13.71684
G1 X137.426 Y88.552 E13.72525
G1 X138.12 Y89.084 E13.75433
G1 X138.31 Y89.243 E13.76257
G1 X138.976 Y89.853 E13.79261
G1 X139.16 Y90.037 E13.80127
G1 X139.695 Y90.614 E13.82744
G1 X139.85 Y90.795 E13.83537
G1 X140.395 Y91.49 E13.86474
G1 X140.539 Y91.691 E13.87296
G1 X141.008 Y92.407 E13.90143
G1 X141.135 Y92.62 E13.90968
G1 X141.497 Y93.282 E13.93478
G1 X141.599 Y93.486 E13.94236
G1 X141.941 Y94.247 E13.97011
G1 X142.041 Y94.496 E13.97904
G1 X142.338 Y95.34 E14.0088
G1 X142.401 Y95.548 E14.01602
G1 X142.607 Y96.343 E14.04334
G1 X142.666 Y96.615 E14.0526
G1 X142.819 Y97.507 E14.0827
G1 X142.85 Y97.754 E14.09098
G1 X142.919 Y98.57 E14.11821
G1 X142.93 Y98.817 E14.12644
G1 X142.932 Y99.684 E14.15527
G1 X142.922 Y99.931 E14.1635
G1 X142.863 Y100.682 E14.18855
G1 X142.839 Y100.891 E14.19555
G1 X142.699 Y101.772 E14.22522
G1 X142.637 Y102.075 E14.2355
G1 X142.413 Y102.965 E14.26603
G1 X142.352 Y103.168 E14.27308
G1 X142.118 Y103.856 E14.29725
G1 X142.042 Y104.056 E14.30437
G1 X141.725 Y104.799 E14.33123
G1 X141.608 Y105.046 E14.34032
G1 X141.179 Y105.857 E14.37084
G1 X141.05 Y106.076 E14.37929
G1 X140.611 Y106.757 E14.40624
G1 X140.47 Y106.958 E14.41441
G1 X139.881 Y107.719 E14.44641
G1 X139.707 Y107.923 E14.45533
G1 X139.204 Y108.47 E14.48005
G1 X139.048 Y108.628 E14.48743
G1 X138.487 Y109.155 E14.51303
G1 X138.018 Y109.562 E14.53369
G1 X136.45 Y110.889 E14.60201
G1 X134.532 Y112.609 E14.6877
G1 X132.698 Y114.349 E14.77178
G1 X130.9 Y116.157 E14.85659
G1 X129.176 Y117.988 E14.94023
G1 X127.494 Y119.881 E15.02446
G1 X125.445 Y122.337 E15.13084
G1 X124.836 Y123.004 E15.16088
G1 X124.426 Y123.393 E15.17968
G1 X123.729 Y123.966 E15.20969
G1 X122.716 Y124.637 E15.2501
G1 X121.974 Y125.066 E15.27861
G1 X120.162 Y126.082 E15.3477
G1 X119.418 Y126.485 E15.37585
G1 X118.605 Y126.879 E15.4059
G1 X117.785 Y127.192 E15.43509
