;FLAVOR:Marlin
;TIME:3970
;Filament used: 1.88883m
;Layer height: 0.16
;MINX:84.44
;MINY:93.046
;MINZ:0.2
;MAXX:131.891
;MAXY:126.954
;MAXZ:16.24
;Generated with Cura_SteamEngine 4.10.0
M140 S50
M105
M190 S50
M104 S200
M105
M109 S200
M82 ;absolute extrusion mode
M201 X500.00 Y500.00 Z100.00 E5000.00 ;Setup machine max acceleration
M203 X500.00 Y500.00 Z10.00 E50.00 ;Setup machine max feedrate
M204 P500.00 R1000.00 T500.00 ;Setup Print/Retract/Travel acceleration
M205 X8.00 Y8.00 Z0.40 E5.00 ;Setup Jerk
M220 S100 ;Reset Feedrate
M221 S100 ;Reset Flowrate

G28 ;Home

G92 E0 ;Reset Extruder
G1 Z2.0 F3000 ;Move Z Axis up
G1 X10.1 Y20 Z0.28 F5000.0 ;Move to start position
G1 X10.1 Y200.0 Z0.28 F1500.0 E15 ;Draw the first line
G1 X10.4 Y200.0 Z0.28 F5000.0 ;Move to side a little
G1 X10.4 Y20 Z0.28 F1500.0 E30 ;Draw the second line
G92 E0 ;Reset Extruder
G1 Z2.0 F3000 ;Move Z Axis up

G92 E0
G92 E0
G1 F2700 E-5
;LAYER_COUNT:112
;LAYER:0
M107
G0 F6000 X87.964 Y99.375 Z0.2
;TYPE:SKIRT
G1 F2700 E0
G1 F1200 X88.57 Y98.938 E0.02485
G1 X89.22 Y98.567 E0.04974
G1 X89.906 Y98.268 E0.07463
G1 X90.62 Y98.044 E0.09952
G1 X91.353 Y97.897 E0.12439
G1 X91.979 Y97.852 E0.14526
G1 X92.217 Y97.397 E0.16234
G1 X92.632 Y96.774 E0.18724
G1 X93.29 Y96.013 E0.2207
G1 X93.407 Y95.896 E0.2262
G1 X93.964 Y95.396 E0.2511
G1 X94.57 Y94.959 E0.27595
G1 X95.22 Y94.588 E0.30084
G1 X95.906 Y94.289 E0.32573
G1 X96.62 Y94.065 E0.35062
G1 X97.353 Y93.918 E0.37548
G1 X98.357 Y93.846 E0.40896
G1 X118.492 Y93.846 E1.07865
G1 X119.113 Y93.853 E1.09931
G1 X119.533 Y93.871 E1.11329
G1 X119.855 Y93.894 E1.12403
G1 X120.101 Y93.916 E1.13224
G1 X120.512 Y93.96 E1.14599
G1 X120.797 Y93.996 E1.15555
G1 X121.133 Y94.046 E1.16684
G1 X121.413 Y94.094 E1.17629
G1 X123.061 Y94.408 E1.23209
G1 X123.787 Y94.587 E1.25696
G1 X124.491 Y94.842 E1.28187
G1 X125.15 Y95.165 E1.30628
G1 X125.655 Y95.445 E1.32548
G1 X125.795 Y95.504 E1.33053
G1 X126.468 Y95.829 E1.35539
G1 X127.216 Y96.304 E1.38486
G1 X127.623 Y96.601 E1.40162
G1 X127.683 Y96.64 E1.404
G1 X127.995 Y96.857 E1.41664
G1 X128.201 Y97.009 E1.42516
G1 X128.778 Y97.485 E1.45003
G1 X129.302 Y98.02 E1.47494
G1 X129.765 Y98.607 E1.49981
G1 X130.277 Y99.454 E1.53273
G1 X130.321 Y99.54 E1.53594
G1 X130.625 Y100.223 E1.5608
G1 X130.855 Y100.935 E1.58569
G1 X131.008 Y101.667 E1.61056
G1 X131.089 Y102.726 E1.64589
G1 X131.091 Y109.852 E1.8829
G1 X131.09 Y117.268 E2.12956
G1 X131.05 Y118.015 E2.15444
G1 X130.93 Y118.753 E2.17931
G1 X130.733 Y119.475 E2.2042
G1 X130.351 Y120.397 E2.23739
G1 X130.308 Y120.483 E2.24059
G1 X129.938 Y121.134 E2.26549
G1 X129.501 Y121.741 E2.29037
G1 X129.002 Y122.298 E2.31524
G1 X128.222 Y122.972 E2.34953
G1 X127.148 Y123.77 E2.39403
G1 X126.524 Y124.183 E2.41892
G1 X125.86 Y124.528 E2.44381
G1 X125.374 Y124.726 E2.46126
G1 X124.578 Y125.017 E2.48945
G1 X124.027 Y125.249 E2.50934
G1 X123.323 Y125.502 E2.53422
G1 X122.624 Y125.674 E2.55816
G1 X121.418 Y125.905 E2.599
G1 X121.179 Y125.947 E2.60707
G1 X120.871 Y125.995 E2.61744
G1 X120.461 Y126.046 E2.63118
G1 X119.927 Y126.096 E2.64902
G1 X119.56 Y126.125 E2.66127
G1 X119.091 Y126.147 E2.67688
G1 X118.495 Y126.154 E2.69671
G1 X98.357 Y126.154 E3.3665
G1 X97.61 Y126.114 E3.39138
G1 X96.872 Y125.995 E3.41624
G1 X96.15 Y125.797 E3.44114
G1 X95.454 Y125.524 E3.46601
G1 X94.791 Y125.177 E3.4909
G1 X94.168 Y124.762 E3.5158
G1 X93.407 Y124.104 E3.54926
G1 X93.29 Y123.987 E3.55476
G1 X92.79 Y123.43 E3.57965
G1 X92.353 Y122.824 E3.6045
G1 X91.982 Y122.174 E3.6294
G1 X91.973 Y122.154 E3.63013
G1 X91.61 Y122.135 E3.64222
G1 X90.872 Y122.016 E3.66708
G1 X90.15 Y121.818 E3.69198
G1 X89.454 Y121.545 E3.71685
G1 X88.791 Y121.198 E3.74174
G1 X88.168 Y120.783 E3.76663
G1 X87.407 Y120.125 E3.80009
G1 X87.29 Y120.008 E3.8056
G1 X86.79 Y119.451 E3.83049
G1 X86.353 Y118.845 E3.85534
G1 X85.982 Y118.195 E3.88023
G1 X85.683 Y117.509 E3.90512
G1 X85.459 Y116.795 E3.93001
G1 X85.312 Y116.062 E3.95488
G1 X85.24 Y115.058 E3.98836
G1 X85.24 Y112.292 E4.08035
G1 X85.28 Y111.545 E4.10523
G1 X85.399 Y110.807 E4.1301
G1 X85.597 Y110.085 E4.155
G1 X85.632 Y109.996 E4.15818
G1 X85.459 Y109.445 E4.17739
G1 X85.312 Y108.712 E4.20225
G1 X85.24 Y107.708 E4.23573
G1 X85.24 Y104.942 E4.32773
G1 X85.28 Y104.195 E4.35261
G1 X85.399 Y103.457 E4.37747
G1 X85.597 Y102.735 E4.40237
G1 X85.87 Y102.039 E4.42724
G1 X86.217 Y101.376 E4.45213
G1 X86.632 Y100.753 E4.47703
G1 X87.29 Y99.992 E4.51049
G1 X87.407 Y99.875 E4.51599
G1 X87.964 Y99.375 E4.54089
G0 F6000 X87.696 Y99.078
G1 F1200 X88.318 Y98.625 E4.56648
G1 X88.983 Y98.239 E4.59205
G1 X89.685 Y97.924 E4.61764
G1 X90.416 Y97.684 E4.64323
G1 X91.167 Y97.521 E4.66879
G1 X91.731 Y97.459 E4.68767
G1 X91.818 Y97.287 E4.69408
G1 X92.234 Y96.64 E4.71966
G1 X92.715 Y96.04 E4.74524
G1 X93.007 Y95.73 E4.7594
G1 X93.124 Y95.613 E4.7649
G1 X93.696 Y95.099 E4.79048
G1 X94.318 Y94.646 E4.81608
G1 X94.983 Y94.26 E4.84165
G1 X95.685 Y93.945 E4.86724
G1 X96.416 Y93.705 E4.89283
G1 X97.167 Y93.542 E4.91839
G1 X97.932 Y93.458 E4.94399
G1 X98.357 Y93.446 E4.95813
G1 X118.496 Y93.446 E5.62795
G1 X119.117 Y93.453 E5.64861
G1 X119.561 Y93.472 E5.66339
G1 X119.883 Y93.495 E5.67413
G1 X120.144 Y93.518 E5.68284
G1 X120.555 Y93.562 E5.69659
G1 X120.856 Y93.601 E5.70669
G1 X121.192 Y93.651 E5.71798
G1 X121.488 Y93.701 E5.72797
G1 X123.136 Y94.015 E5.78377
G1 X123.883 Y94.198 E5.80935
G1 X124.607 Y94.457 E5.83492
G1 X125.344 Y94.815 E5.86217
G1 X125.832 Y95.086 E5.88074
G1 X125.949 Y95.135 E5.88496
G1 X126.642 Y95.468 E5.91053
G1 X127.452 Y95.981 E5.94242
G1 X127.848 Y96.269 E5.95871
G1 X128.233 Y96.535 E5.97427
G1 X128.439 Y96.687 E5.98279
G1 X129.033 Y97.176 E6.00838
G1 X129.573 Y97.723 E6.03394
G1 X130.054 Y98.323 E6.05952
G1 X130.633 Y99.271 E6.09646
G1 X130.677 Y99.357 E6.09968
G1 X130.991 Y100.059 E6.12525
G1 X131.231 Y100.79 E6.15084
G1 X131.393 Y101.542 E6.17643
G1 X131.477 Y102.307 E6.20203
G1 X131.489 Y102.726 E6.21597
G1 X131.491 Y109.852 E6.45298
G1 X131.49 Y117.268 E6.69964
G1 X131.45 Y118.036 E6.72522
G1 X131.33 Y118.796 E6.75081
G1 X131.133 Y119.539 E6.77637
G1 X130.709 Y120.576 E6.81364
G1 X130.666 Y120.662 E6.81683
G1 X130.286 Y121.332 E6.84245
G1 X129.84 Y121.958 E6.86802
G1 X129.331 Y122.534 E6.89358
G1 X128.764 Y123.055 E6.91919
G1 X128.46 Y123.293 E6.93204
G1 X127.386 Y124.091 E6.97654
G1 X126.746 Y124.517 E7.00211
G1 X126.065 Y124.874 E7.02768
G1 X125.511 Y125.102 E7.04761
G1 X124.726 Y125.389 E7.07541
G1 X124.182 Y125.618 E7.09504
G1 X123.459 Y125.879 E7.1206
G1 X122.699 Y126.067 E7.14664
G1 X121.493 Y126.298 E7.18749
G1 X121.24 Y126.342 E7.19603
G1 X120.932 Y126.39 E7.20639
G1 X120.5 Y126.444 E7.22087
G1 X119.959 Y126.495 E7.23895
G1 X119.592 Y126.524 E7.25119
G1 X119.096 Y126.546 E7.26771
G1 X118.413 Y126.554 E7.29042
G1 X98.357 Y126.554 E7.95749
G1 X97.589 Y126.514 E7.98307
G1 X96.829 Y126.395 E8.00865
G1 X96.086 Y126.197 E8.03423
G1 X95.367 Y125.923 E8.05982
G1 X94.681 Y125.576 E8.08539
G1 X94.034 Y125.16 E8.11097
G1 X93.434 Y124.679 E8.13655
G1 X93.124 Y124.387 E8.15071
G1 X93.007 Y124.27 E8.15622
G1 X92.493 Y123.698 E8.1818
G1 X92.04 Y123.076 E8.20739
G1 X91.73 Y122.542 E8.22792
G1 X91.589 Y122.535 E8.23262
G1 X90.829 Y122.416 E8.25821
G1 X90.086 Y122.218 E8.28378
G1 X89.367 Y121.944 E8.30937
G1 X88.681 Y121.597 E8.33494
G1 X88.034 Y121.181 E8.36053
G1 X87.434 Y120.7 E8.3861
G1 X87.124 Y120.408 E8.40027
G1 X87.007 Y120.291 E8.40577
G1 X86.493 Y119.719 E8.43135
G1 X86.04 Y119.097 E8.45694
G1 X85.654 Y118.432 E8.48251
G1 X85.339 Y117.73 E8.50811
G1 X85.099 Y116.999 E8.5337
G1 X84.936 Y116.248 E8.55926
G1 X84.852 Y115.483 E8.58485
G1 X84.84 Y115.058 E8.59899
G1 X84.84 Y112.292 E8.69099
G1 X84.88 Y111.524 E8.71657
G1 X84.999 Y110.764 E8.74216
G1 X85.197 Y110.021 E8.76773
G1 X85.21 Y109.987 E8.76894
G1 X85.099 Y109.649 E8.78077
G1 X84.936 Y108.898 E8.80633
G1 X84.852 Y108.133 E8.83193
G1 X84.84 Y107.708 E8.84607
G1 X84.84 Y104.942 E8.93807
G1 X84.88 Y104.174 E8.96365
G1 X84.999 Y103.414 E8.98923
G1 X85.197 Y102.671 E9.01481
G1 X85.471 Y101.952 E9.0404
G1 X85.818 Y101.266 E9.06597
G1 X86.234 Y100.619 E9.09155
G1 X86.715 Y100.019 E9.11713
G1 X87.007 Y99.709 E9.13129
G1 X87.124 Y99.592 E9.1368
G1 X87.696 Y99.078 E9.16237
G0 F6000 X87.428 Y98.78
G1 F1200 X88.064 Y98.313 E9.18862
G1 X88.744 Y97.912 E9.21487
G1 X89.462 Y97.582 E9.24116
G1 X90.209 Y97.327 E9.26741
G1 X90.978 Y97.148 E9.29367
G1 X91.479 Y97.084 E9.31047
G1 X91.837 Y96.509 E9.333
G1 X92.32 Y95.885 E9.35924
G1 X92.725 Y95.448 E9.37906
G1 X92.842 Y95.331 E9.38456
G1 X93.428 Y94.801 E9.41084
G1 X94.064 Y94.334 E9.43709
G1 X94.744 Y93.933 E9.46334
G1 X95.462 Y93.603 E9.48963
G1 X96.209 Y93.348 E9.51588
G1 X96.978 Y93.169 E9.54214
G1 X97.762 Y93.069 E9.56843
G1 X98.357 Y93.046 E9.58823
G1 X118.501 Y93.046 E10.25822
G1 X119.122 Y93.053 E10.27888
G1 X119.59 Y93.073 E10.29446
G1 X119.912 Y93.096 E10.3052
G1 X120.186 Y93.12 E10.31434
G1 X120.597 Y93.164 E10.32809
G1 X120.915 Y93.205 E10.33876
G1 X121.251 Y93.255 E10.35006
G1 X121.563 Y93.308 E10.36058
G1 X123.211 Y93.622 E10.41638
G1 X123.978 Y93.809 E10.44264
G1 X124.723 Y94.072 E10.46892
G1 X125.538 Y94.465 E10.49901
G1 X126.01 Y94.727 E10.51696
G1 X126.103 Y94.766 E10.52032
G1 X126.815 Y95.107 E10.54658
G1 X127.687 Y95.658 E10.58088
G1 X128.067 Y95.935 E10.59652
G1 X128.122 Y95.971 E10.59871
G1 X128.47 Y96.214 E10.61283
G1 X128.676 Y96.366 E10.62134
G1 X129.287 Y96.866 E10.6476
G1 X129.844 Y97.426 E10.67387
G1 X130.342 Y98.039 E10.70014
G1 X130.775 Y98.699 E10.72639
G1 X130.989 Y99.089 E10.74119
G1 X131.033 Y99.175 E10.7444
G1 X131.357 Y99.896 E10.77069
G1 X131.606 Y100.645 E10.79695
G1 X131.778 Y101.416 E10.82322
G1 X131.871 Y102.2 E10.84948
G1 X131.889 Y102.726 E10.86698
G1 X131.891 Y109.852 E11.104
G1 X131.89 Y117.268 E11.35065
G1 X131.85 Y118.057 E11.37693
G1 X131.73 Y118.837 E11.40318
G1 X131.532 Y119.602 E11.42946
G1 X131.258 Y120.342 E11.4557
G1 X131.067 Y120.755 E11.47084
G1 X131.024 Y120.841 E11.47404
G1 X130.635 Y121.529 E11.50032
G1 X130.179 Y122.174 E11.5266
G1 X129.66 Y122.769 E11.55286
G1 X129.084 Y123.309 E11.57912
G1 X128.699 Y123.614 E11.59545
G1 X127.625 Y124.412 E11.63996
G1 X126.968 Y124.85 E11.66622
G1 X126.27 Y125.22 E11.6925
G1 X125.648 Y125.478 E11.71489
G1 X124.863 Y125.765 E11.74269
G1 X124.338 Y125.986 E11.76164
G1 X123.595 Y126.256 E11.78793
G1 X122.774 Y126.46 E11.81607
G1 X121.568 Y126.691 E11.85691
G1 X121.302 Y126.737 E11.86589
G1 X120.994 Y126.785 E11.87625
G1 X120.538 Y126.842 E11.89154
G1 X119.99 Y126.894 E11.90985
G1 X119.623 Y126.923 E11.92209
G1 X119.101 Y126.946 E11.93947
G1 X118.413 Y126.954 E11.96236
G1 X98.357 Y126.954 E12.62942
G1 X97.568 Y126.914 E12.6557
G1 X96.788 Y126.795 E12.68194
G1 X96.023 Y126.597 E12.70822
G1 X95.283 Y126.323 E12.73447
G1 X94.574 Y125.975 E12.76074
G1 X93.903 Y125.557 E12.78703
G1 X93.279 Y125.074 E12.81328
G1 X92.842 Y124.669 E12.83309
G1 X92.725 Y124.552 E12.8386
G1 X92.195 Y123.966 E12.86488
G1 X91.728 Y123.33 E12.89112
G1 X91.488 Y122.923 E12.90683
G1 X90.788 Y122.816 E12.93039
G1 X90.023 Y122.618 E12.95667
G1 X89.283 Y122.344 E12.98291
G1 X88.574 Y121.996 E13.00918
G1 X87.903 Y121.578 E13.03548
G1 X87.279 Y121.095 E13.06172
G1 X86.842 Y120.69 E13.08154
G1 X86.725 Y120.573 E13.08704
G1 X86.195 Y119.987 E13.11332
G1 X85.728 Y119.351 E13.13957
G1 X85.327 Y118.671 E13.16582
G1 X84.997 Y117.953 E13.1921
G1 X84.742 Y117.206 E13.21836
G1 X84.563 Y116.437 E13.24462
G1 X84.463 Y115.653 E13.27091
G1 X84.44 Y115.058 E13.29071
G1 X84.44 Y112.292 E13.38271
G1 X84.48 Y111.503 E13.40898
G1 X84.599 Y110.723 E13.43523
G1 X84.788 Y109.992 E13.46034
G1 X84.742 Y109.856 E13.46511
G1 X84.563 Y109.087 E13.49138
G1 X84.463 Y108.303 E13.51766
G1 X84.44 Y107.708 E13.53747
G1 X84.44 Y104.942 E13.62946
G1 X84.48 Y104.153 E13.65574
G1 X84.599 Y103.373 E13.68198
G1 X84.797 Y102.608 E13.70827
G1 X85.071 Y101.868 E13.73451
G1 X85.419 Y101.159 E13.76078
G1 X85.837 Y100.488 E13.78707
G1 X86.32 Y99.864 E13.81332
G1 X86.725 Y99.427 E13.83314
G1 X86.842 Y99.31 E13.83864
G1 X87.428 Y98.78 E13.86492
G0 F6000 X88.231 Y99.674
G1 F1200 X88.822 Y99.251 E13.88909
G1 X89.456 Y98.897 E13.91324
G1 X90.125 Y98.614 E13.9374
G1 X90.821 Y98.406 E13.96156
G1 X91.536 Y98.276 E13.98574
G1 X92.236 Y98.233 E14.00906
G1 X92.27 Y98.149 E14.01208
G1 X92.615 Y97.51 E14.03623
G1 X93.029 Y96.913 E14.06039
G1 X93.573 Y96.296 E14.08775
G1 X93.69 Y96.179 E14.09325
G1 X94.231 Y95.695 E14.1174
G1 X94.822 Y95.272 E14.14157
G1 X95.456 Y94.918 E14.16572
G1 X96.125 Y94.635 E14.18988
G1 X96.821 Y94.427 E14.21404
G1 X97.536 Y94.297 E14.23821
G1 X98.357 Y94.246 E14.26557
G1 X118.487 Y94.246 E14.9351
G1 X119.108 Y94.253 E14.95575
G1 X119.504 Y94.27 E14.96894
G1 X119.826 Y94.293 E14.97967
G1 X120.059 Y94.313 E14.98745
G1 X120.47 Y94.357 E15.0012
G1 X120.738 Y94.392 E15.01019
G1 X121.074 Y94.442 E15.02149
G1 X121.338 Y94.487 E15.0304
G1 X122.986 Y94.801 E15.0862
G1 X123.691 Y94.976 E15.11036
G1 X124.373 Y95.227 E15.13453
G1 X124.956 Y95.514 E15.15614
G1 X125.488 Y95.809 E15.17637
G1 X125.64 Y95.873 E15.18186
G1 X126.294 Y96.19 E15.20603
G1 X126.981 Y96.628 E15.23313
G1 X127.39 Y96.926 E15.24996
G1 X127.463 Y96.974 E15.25287
G1 X127.758 Y97.179 E15.26481
G1 X127.964 Y97.331 E15.27333
G1 X128.523 Y97.794 E15.29747
G1 X129.029 Y98.315 E15.32163
G1 X129.474 Y98.889 E15.34578
G1 X129.921 Y99.636 E15.37474
G1 X129.965 Y99.722 E15.37795
G1 X130.259 Y100.386 E15.4021
G1 X130.479 Y101.078 E15.42625
G1 X130.622 Y101.79 E15.45041
G1 X130.689 Y102.726 E15.48162
G1 X130.691 Y109.852 E15.71863
G1 X130.69 Y117.268 E15.96529
G1 X130.65 Y117.993 E15.98944
G1 X130.53 Y118.71 E16.01362
G1 X130.333 Y119.409 E16.03777
G1 X129.993 Y120.219 E16.06699
G1 X129.95 Y120.305 E16.07019
G1 X129.59 Y120.935 E16.09432
G1 X129.163 Y121.523 E16.11849
G1 X128.674 Y122.06 E16.14265
G1 X127.983 Y122.651 E16.17289
G1 X126.909 Y123.449 E16.21739
G1 X126.303 Y123.849 E16.24154
G1 X125.657 Y124.181 E16.2657
G1 X125.237 Y124.351 E16.28077
G1 X124.406 Y124.655 E16.3102
G1 X123.871 Y124.88 E16.3295
G1 X123.187 Y125.125 E16.35367
G1 X122.549 Y125.281 E16.37551
G1 X121.343 Y125.512 E16.41636
G1 X121.117 Y125.551 E16.42398
G1 X120.809 Y125.599 E16.43435
G1 X120.423 Y125.648 E16.44729
G1 X119.896 Y125.697 E16.4649
G1 X119.529 Y125.726 E16.47714
G1 X119.087 Y125.747 E16.49186
G1 X118.491 Y125.754 E16.51168
G1 X98.357 Y125.754 E17.18134
G1 X97.632 Y125.714 E17.20549
G1 X96.915 Y125.595 E17.22967
G1 X96.216 Y125.397 E17.25383
G1 X95.543 Y125.124 E17.27799
G1 X94.904 Y124.779 E17.30214
G1 X94.307 Y124.365 E17.3263
G1 X93.69 Y123.821 E17.35366
G1 X93.573 Y123.704 E17.35916
G1 X93.089 Y123.163 E17.38331
G1 X92.666 Y122.572 E17.40748
G1 X92.312 Y121.938 E17.43163
G1 X92.24 Y121.769 E17.43774
G1 X91.632 Y121.735 E17.458
G1 X90.915 Y121.616 E17.48217
G1 X90.216 Y121.418 E17.50633
G1 X89.543 Y121.145 E17.53049
G1 X88.904 Y120.8 E17.55464
G1 X88.307 Y120.386 E17.57881
G1 X87.69 Y119.842 E17.60616
G1 X87.573 Y119.725 E17.61167
G1 X87.089 Y119.184 E17.63581
G1 X86.666 Y118.593 E17.65998
G1 X86.312 Y117.959 E17.68414
G1 X86.029 Y117.29 E17.7083
G1 X85.821 Y116.594 E17.73246
G1 X85.691 Y115.879 E17.75663
G1 X85.64 Y115.058 E17.78399
G1 X85.64 Y112.292 E17.87598
G1 X85.68 Y111.567 E17.90013
G1 X85.799 Y110.85 E17.92431
G1 X85.997 Y110.151 E17.94847
G1 X86.056 Y110.005 E17.95371
G1 X86.029 Y109.94 E17.95605
G1 X85.821 Y109.244 E17.98021
G1 X85.691 Y108.529 E18.00438
G1 X85.64 Y107.708 E18.03174
G1 X85.64 Y104.942 E18.12374
G1 X85.68 Y104.217 E18.14789
G1 X85.799 Y103.5 E18.17206
G1 X85.997 Y102.801 E18.19623
G1 X86.27 Y102.128 E18.22038
G1 X86.615 Y101.489 E18.24453
G1 X87.029 Y100.892 E18.2687
G1 X87.573 Y100.275 E18.29606
G1 X87.69 Y100.158 E18.30156
G1 X88.231 Y99.674 E18.3257
G0 F6000 X88.498 Y99.972
G1 F1200 X89.073 Y99.566 E18.34912
G1 X89.691 Y99.228 E18.37254
G1 X90.342 Y98.961 E18.39595
G1 X91.02 Y98.771 E18.41937
G1 X91.715 Y98.658 E18.44278
G1 X92.357 Y98.625 E18.46417
G1 X92.508 Y98.625 E18.46919
G1 X92.669 Y98.242 E18.48301
G1 X93.014 Y97.628 E18.50643
G1 X93.425 Y97.057 E18.52983
G1 X93.856 Y96.579 E18.55124
G1 X93.973 Y96.462 E18.55674
G1 X94.498 Y95.993 E18.58016
