;FLAVOR:Marlin
;TIME:510
;Filament used: 0.170289m
;Layer height: 0.16
;MINX:50.336
;MINY:39.711
;MINZ:0.2
;MAXX:87.267
;MAXY:67.461
;MAXZ:7.48
;Generated with Cura_SteamEngine 4.10.0
M140 S50
M105
M190 S50
M104 S200
M105
M109 S200
M82 ;absolute extrusion mode
M201 X500.00 Y500.00 Z100.00 E5000.00 ;Setup machine max acceleration
M203 X500.00 Y500.00 Z10.00 E50.00 ;Setup machine max feedrate
M204 P500.00 R1000.00 T500.00 ;Setup Print/Retract/Travel acceleration
M205 X8.00 Y8.00 Z0.40 E5.00 ;Setup Jerk
M220 S100 ;Reset Feedrate
M221 S100 ;Reset Flowrate

G28 ;Home

G92 E0 ;Reset Extruder
G1 Z2.0 F3000 ;Move Z Axis up
G1 X10.1 Y20 Z0.28 F5000.0 ;Move to start position
G1 X10.1 Y200.0 Z0.28 F1500.0 E15 ;Draw the first line
G1 X10.4 Y200.0 Z0.28 F5000.0 ;Move to side a little
G1 X10.4 Y20 Z0.28 F1500.0 E30 ;Draw the second line
G92 E0 ;Reset Extruder
G1 Z2.0 F3000 ;Move Z Axis up

G92 E0
G92 E0
G1 F2700 E-5
;LAYER_COUNT:46
;LAYER:0
M107
G0 F6000 X52.902 Y43.669 Z0.2
;TYPE:SKIRT
G1 F2700 E0
G1 F1200 X53.534 Y42.975 E0.03122
G1 X54.222 Y42.338 E0.0624
G1 X54.962 Y41.762 E0.09359
G1 X55.748 Y41.25 E0.12479
G1 X56.575 Y40.808 E0.15598
G1 X57.437 Y40.438 E0.18718
G1 X58.327 Y40.142 E0.21838
G1 X59.239 Y39.924 E0.24957
G1 X60.166 Y39.783 E0.28075
G1 X61.037 Y39.724 E0.30979
G1 X61.358 Y39.715 E0.32047
G1 X61.666 Y39.711 E0.33071
G1 X75.559 Y39.711 E0.7928
G1 X76.415 Y39.722 E0.82127
G1 X77.351 Y39.776 E0.85245
G1 X78.279 Y39.908 E0.88363
G1 X79.193 Y40.12 E0.91484
G1 X80.085 Y40.409 E0.94602
G1 X80.95 Y40.772 E0.97722
G1 X81.78 Y41.208 E1.00841
G1 X82.571 Y41.713 E1.03962
G1 X83.315 Y42.284 E1.07081
G1 X84.008 Y42.916 E1.10201
G1 X84.645 Y43.604 E1.13319
G1 X85.22 Y44.345 E1.16439
G1 X85.731 Y45.131 E1.19557
G1 X86.173 Y45.959 E1.22679
G1 X86.542 Y46.821 E1.25797
G1 X86.837 Y47.711 E1.28916
G1 X87.055 Y48.623 E1.32035
G1 X87.195 Y49.551 E1.35156
G1 X87.253 Y50.413 E1.3803
G1 X87.262 Y50.734 E1.39098
G1 X87.266 Y51.03 E1.40082
G1 X87.267 Y52.002 E1.43315
G1 X87.261 Y53.983 E1.49904
G1 X87.266 Y54.75 E1.52455
G1 X87.266 Y55.881 E1.56217
G1 X87.256 Y56.603 E1.58619
G1 X87.203 Y57.54 E1.6174
G1 X87.07 Y58.468 E1.64858
G1 X86.859 Y59.382 E1.67978
G1 X86.571 Y60.274 E1.71096
G1 X86.208 Y61.139 E1.74216
G1 X85.772 Y61.97 E1.77337
G1 X85.268 Y62.76 E1.80454
G1 X84.698 Y63.505 E1.83574
G1 X84.066 Y64.198 E1.86693
G1 X83.378 Y64.835 E1.89812
G1 X82.638 Y65.411 E1.92931
G1 X81.851 Y65.922 E1.96052
G1 X81.024 Y66.364 E1.9917
G1 X80.162 Y66.734 E2.0229
G1 X79.272 Y67.03 E2.0541
G1 X78.36 Y67.248 E2.08529
G1 X77.433 Y67.388 E2.11647
G1 X76.622 Y67.445 E2.14351
G1 X76.321 Y67.455 E2.15353
G1 X75.956 Y67.461 E2.16567
G1 X61.901 Y67.46 E2.63314
G1 X61.203 Y67.451 E2.65636
G1 X60.267 Y67.399 E2.68754
G1 X59.338 Y67.267 E2.71874
G1 X58.424 Y67.057 E2.74994
G1 X57.531 Y66.77 E2.78113
G1 X56.666 Y66.407 E2.81233
G1 X55.835 Y65.973 E2.84352
G1 X55.044 Y65.469 E2.87471
G1 X54.299 Y64.899 E2.90591
G1 X53.605 Y64.268 E2.93711
G1 X52.968 Y63.581 E2.96827
G1 X52.391 Y62.841 E2.99948
G1 X51.879 Y62.055 E3.03068
G1 X51.436 Y61.228 E3.06188
G1 X51.065 Y60.367 E3.09307
G1 X50.769 Y59.477 E3.12426
G1 X50.55 Y58.565 E3.15546
G1 X50.409 Y57.638 E3.18664
G1 X50.349 Y56.749 E3.21628
G1 X50.34 Y56.416 E3.22736
G1 X50.336 Y56.119 E3.23724
G1 X50.337 Y51.236 E3.39965
G1 X50.346 Y50.571 E3.42177
G1 X50.399 Y49.635 E3.45295
G1 X50.531 Y48.706 E3.48416
G1 X50.742 Y47.792 E3.51536
G1 X51.03 Y46.9 E3.54653
G1 X51.393 Y46.035 E3.57773
G1 X51.828 Y45.204 E3.60893
G1 X52.332 Y44.414 E3.6401
G1 X52.902 Y43.669 E3.6713
G0 F6000 X53.297 Y43.822
G1 F1200 X53.925 Y43.15 E3.70189
G1 X54.61 Y42.534 E3.73253
G1 X55.346 Y41.981 E3.76315
G1 X56.127 Y41.493 E3.79378
G1 X56.947 Y41.075 E3.82439
G1 X57.801 Y40.73 E3.85503
G1 X58.681 Y40.46 E3.88564
G1 X59.581 Y40.268 E3.91625
G1 X60.495 Y40.154 E3.94688
G1 X61.048 Y40.124 E3.9653
G1 X61.369 Y40.115 E3.97598
G1 X61.666 Y40.111 E3.98586
G1 X75.559 Y40.111 E4.44795
G1 X76.409 Y40.122 E4.47622
G1 X77.328 Y40.175 E4.50684
G1 X78.239 Y40.308 E4.53746
G1 X79.135 Y40.519 E4.56807
G1 X80.009 Y40.807 E4.59868
G1 X80.856 Y41.17 E4.62933
G1 X81.667 Y41.605 E4.65994
G1 X82.437 Y42.109 E4.69055
G1 X83.161 Y42.678 E4.72118
G1 X83.833 Y43.308 E4.75181
G1 X84.448 Y43.993 E4.78243
G1 X85.001 Y44.729 E4.81305
G1 X85.488 Y45.51 E4.84366
G1 X85.905 Y46.331 E4.87429
G1 X86.25 Y47.185 E4.90492
G1 X86.519 Y48.065 E4.93553
G1 X86.711 Y48.966 E4.96617
G1 X86.824 Y49.879 E4.99677
G1 X86.853 Y50.424 E5.01492
G1 X86.862 Y50.745 E5.0256
G1 X86.866 Y51.031 E5.03511
G1 X86.867 Y52 E5.06734
G1 X86.861 Y53.986 E5.1334
G1 X86.866 Y54.75 E5.15881
G1 X86.866 Y55.876 E5.19626
G1 X86.856 Y56.598 E5.22028
G1 X86.803 Y57.517 E5.25089
G1 X86.671 Y58.428 E5.28151
G1 X86.46 Y59.324 E5.31213
G1 X86.172 Y60.199 E5.34277
G1 X85.81 Y61.045 E5.37337
G1 X85.375 Y61.857 E5.40401
G1 X84.872 Y62.627 E5.4346
G1 X84.303 Y63.352 E5.46525
G1 X83.674 Y64.024 E5.49587
G1 X82.989 Y64.639 E5.52649
G1 X82.253 Y65.192 E5.55711
G1 X81.472 Y65.679 E5.58772
G1 X80.652 Y66.097 E5.61833
G1 X79.798 Y66.442 E5.64896
G1 X78.918 Y66.712 E5.67958
G1 X78.017 Y66.904 E5.71022
G1 X77.104 Y67.017 E5.74082
G1 X76.609 Y67.045 E5.75731
G1 X76.308 Y67.055 E5.76733
G1 X75.956 Y67.061 E5.77903
G1 X61.906 Y67.06 E6.24634
G1 X61.208 Y67.051 E6.26956
G1 X60.289 Y66.999 E6.30017
G1 X59.378 Y66.868 E6.33078
G1 X58.482 Y66.658 E6.36139
G1 X57.607 Y66.371 E6.39202
G1 X56.76 Y66.009 E6.42266
G1 X55.948 Y65.575 E6.45328
G1 X55.177 Y65.073 E6.48388
G1 X54.452 Y64.505 E6.51451
G1 X53.779 Y63.876 E6.54515
G1 X53.164 Y63.192 E6.57574
G1 X52.61 Y62.457 E6.60636
G1 X52.122 Y61.676 E6.63699
G1 X51.703 Y60.856 E6.66761
G1 X51.357 Y60.003 E6.69823
G1 X51.087 Y59.123 E6.72885
G1 X50.894 Y58.222 E6.75949
G1 X50.78 Y57.309 E6.7901
G1 X50.749 Y56.738 E6.80912
G1 X50.74 Y56.405 E6.8202
G1 X50.736 Y56.119 E6.82971
G1 X50.737 Y51.242 E6.99192
G1 X50.746 Y50.577 E7.01404
G1 X50.798 Y49.657 E7.04469
G1 X50.93 Y48.746 E7.0753
G1 X51.141 Y47.85 E7.10592
G1 X51.428 Y46.975 E7.13655
G1 X51.791 Y46.129 E7.16717
G1 X52.225 Y45.317 E7.19779
G1 X52.728 Y44.546 E7.22841
G1 X53.297 Y43.822 E7.25903
G0 F6000 X53.691 Y43.978
G1 F1200 X54.317 Y43.328 E7.28905
G1 X54.998 Y42.735 E7.31908
G1 X55.73 Y42.205 E7.34914
G1 X56.505 Y41.742 E7.37917
G1 X57.318 Y41.349 E7.4092
G1 X58.163 Y41.029 E7.43925
G1 X59.032 Y40.786 E7.46927
G1 X59.92 Y40.62 E7.49931
G1 X61.059 Y40.524 E7.53733
G1 X61.38 Y40.515 E7.54801
G1 X61.666 Y40.511 E7.55752
G1 X75.559 Y40.511 E8.01961
G1 X76.403 Y40.522 E8.04768
G1 X77.305 Y40.575 E8.07773
G1 X78.198 Y40.707 E8.10776
G1 X79.076 Y40.918 E8.13779
G1 X79.932 Y41.206 E8.16783
G1 X80.759 Y41.568 E8.19786
G1 X81.551 Y42.003 E8.22791
G1 X82.302 Y42.505 E8.25795
G1 X83.005 Y43.072 E8.28799
G1 X83.655 Y43.699 E8.31803
G1 X84.247 Y44.381 E8.34807
G1 X84.777 Y45.112 E8.3781
G1 X85.239 Y45.888 E8.40814
G1 X85.632 Y46.701 E8.43817
G1 X85.95 Y47.546 E8.4682
G1 X86.193 Y48.416 E8.49825
G1 X86.358 Y49.304 E8.52829
G1 X86.453 Y50.435 E8.56604
G1 X86.462 Y50.756 E8.57672
G1 X86.466 Y51.031 E8.58586
G1 X86.467 Y51.999 E8.61806
G1 X86.461 Y53.989 E8.68425
G1 X86.466 Y54.75 E8.70956
G1 X86.466 Y55.87 E8.74681
G1 X86.456 Y56.592 E8.77083
G1 X86.404 Y57.494 E8.80088
G1 X86.272 Y58.387 E8.8309
G1 X86.061 Y59.265 E8.86093
G1 X85.774 Y60.122 E8.89099
G1 X85.412 Y60.949 E8.92102
G1 X84.978 Y61.741 E8.95106
G1 X84.476 Y62.492 E8.9811
G1 X83.909 Y63.195 E9.01114
G1 X83.283 Y63.846 E9.04118
G1 X82.601 Y64.438 E9.07122
G1 X81.87 Y64.968 E9.10125
G1 X81.094 Y65.431 E9.1313
G1 X80.281 Y65.824 E9.16134
G1 X79.436 Y66.143 E9.19138
G1 X78.567 Y66.386 E9.22139
G1 X77.679 Y66.551 E9.25143
G1 X76.596 Y66.645 E9.28759
G1 X76.295 Y66.655 E9.2976
G1 X75.956 Y66.661 E9.30888
G1 X61.911 Y66.66 E9.77602
G1 X61.213 Y66.651 E9.79924
G1 X60.312 Y66.6 E9.82925
G1 X59.418 Y66.468 E9.85931
G1 X58.54 Y66.259 E9.88933
G1 X57.683 Y65.972 E9.91939
G1 X56.856 Y65.611 E9.9494
G1 X56.063 Y65.178 E9.97945
G1 X55.312 Y64.677 E10.00948
G1 X54.608 Y64.111 E10.03952
G1 X53.957 Y63.485 E10.06956
G1 X53.364 Y62.804 E10.0996
G1 X52.834 Y62.073 E10.12963
G1 X52.37 Y61.298 E10.15967
G1 X51.976 Y60.485 E10.18972
G1 X51.656 Y59.641 E10.21974
G1 X51.412 Y58.771 E10.24979
G1 X51.246 Y57.883 E10.27984
G1 X51.149 Y56.728 E10.31839
G1 X51.14 Y56.395 E10.32947
G1 X51.136 Y56.119 E10.33865
G1 X51.137 Y51.247 E10.50069
G1 X51.146 Y50.582 E10.52281
G1 X51.198 Y49.68 E10.55286
G1 X51.33 Y48.787 E10.58289
G1 X51.54 Y47.909 E10.61291
G1 X51.827 Y47.052 E10.64297
G1 X52.189 Y46.225 E10.673
G1 X52.622 Y45.433 E10.70302
G1 X53.124 Y44.682 E10.73307
G1 X53.691 Y43.978 E10.76313
G1 F2700 E5.76313
;MESH:Palanca servo_dedo_1.stl
G0 F6000 X60.924 Y50.3
G0 X61.75 Y51.125
G0 X64.48 Y51.777
G0 X65.012 Y52.044
G0 X65.442 Y52.455
G0 X65.736 Y52.97
G0 X65.854 Y53.491
G0 X65.751 Y55.461
;TYPE:WALL-INNER
G1 F2700 E10.76313
G1 F1200 X65.905 Y55.287 E10.77086
G1 X66.019 Y55.113 E10.77778
G1 X66.113 Y54.969 E10.7835
G1 X66.27 Y54.626 E10.79605
G1 X66.379 Y54.26 E10.80875
G1 X66.431 Y53.883 E10.8214
G1 X66.429 Y53.504 E10.83401
G1 X66.371 Y53.129 E10.84663
G1 X66.26 Y52.765 E10.85929
G1 X66.095 Y52.422 E10.87195
G1 X65.885 Y52.109 E10.88448
G1 X65.63 Y51.828 E10.8971
G1 X65.489 Y51.711 E10.9032
G1 X65.63 Y51.711 E10.90356
G1 X65.885 Y51.711 E10.90861
G1 X72.652 Y51.711 E11.13368
G1 X72.851 Y51.711 E11.1403
G1 X72.851 Y51.91 E11.14458
G1 X72.85 Y55.461 E11.26269
G1 X66.113 Y55.461 E11.48676
G1 X65.905 Y55.461 E11.49141
G1 X65.751 Y55.461 E11.49194
G0 F6000 X65.374 Y55.284
G1 F1200 X65.586 Y55.044 E11.50259
G1 X65.762 Y54.775 E11.51328
G1 X65.895 Y54.485 E11.52389
G1 X65.987 Y54.175 E11.53465
G1 X66.031 Y53.857 E11.54533
G1 X66.029 Y53.536 E11.556
G1 X65.98 Y53.218 E11.5667
G1 X65.886 Y52.911 E11.57738
G1 X65.747 Y52.621 E11.58808
G1 X65.569 Y52.356 E11.5987
G1 X65.353 Y52.118 E11.60939
G1 X65.104 Y51.912 E11.62014
G1 X64.828 Y51.747 E11.63083
G1 X64.731 Y51.706 E11.63433
G1 X64.531 Y51.623 E11.64153
G1 X64.22 Y51.545 E11.6522
G1 X63.901 Y51.512 E11.66287
G1 X63.582 Y51.524 E11.67348
G1 X63.265 Y51.586 E11.68423
G1 X62.962 Y51.691 E11.69489
G1 X62.929 Y51.708 E11.69613
G1 X62.675 Y51.841 E11.70566
G1 X62.417 Y52.029 E11.71628
G1 X62.312 Y52.131 E11.72115
G1 X62.187 Y52.253 E11.72696
G1 X61.992 Y52.509 E11.73766
G1 X61.936 Y52.611 E11.74153
G1 X61.936 Y52.509 E11.74166
G1 X61.936 Y52.253 E11.74458
G1 X61.936 Y52.078 E11.74941
G1 X61.936 Y51.311 E11.77492
G1 X62.924 Y51.311 E11.80778
G1 X62.962 Y51.311 E11.80901
G1 X63.265 Y51.311 E11.81726
G1 X63.582 Y51.311 E11.82369
G1 X63.901 Y51.311 E11.82919
G1 X64.22 Y51.311 E11.83498
G1 X64.531 Y51.311 E11.84203
G1 X64.748 Y51.311 E11.84848
G1 X75.666 Y51.311 E12.21161
G1 X75.667 Y51.912 E12.2316
G1 X75.667 Y52.111 E12.23822
G1 X75.468 Y52.111 E12.2425
G1 X73.251 Y52.111 E12.31624
G1 X73.25 Y54.862 E12.40774
G1 X73.25 Y55.061 E12.41436
G1 X73.449 Y55.061 E12.41864
G1 X75.666 Y55.061 E12.49238
G1 X75.667 Y55.662 E12.51237
G1 X75.667 Y55.861 E12.51899
G1 X75.468 Y55.861 E12.52327
G1 X65.171 Y55.861 E12.86575
G1 X65.13 Y55.861 E12.86711
G1 X64.854 Y55.861 E12.87629
G1 X64.561 Y55.861 E12.88604
G1 X64.295 Y55.861 E12.89488
G1 X64.561 Y55.789 E12.89592
G1 X64.854 Y55.662 E12.89996
G1 X65.13 Y55.493 E12.90794
G1 X65.161 Y55.467 E12.90924
G1 X65.374 Y55.284 E12.91858
G0 F6000 X64.441 Y55.632
G0 X63.388 Y55.861
G1 F1200 X63.294 Y55.861 E12.9217
G1 X62.989 Y55.861 E12.93185
G1 X62.701 Y55.861 E12.94143
G1 X62.488 Y55.861 E12.94851
G1 X61.936 Y55.861 E12.96687
G1 X61.936 Y55.341 E12.98417
G1 X61.936 Y55.192 E12.98912
G1 X61.936 Y54.938 E12.99757
G1 X61.936 Y54.811 E13.00179
G1 X62.008 Y54.938 E13.00263
G1 X62.206 Y55.192 E13.00816
G1 X62.314 Y55.294 E13.01236
G1 X62.44 Y55.413 E13.01813
G1 X62.527 Y55.475 E13.02168
G1 X62.701 Y55.598 E13.02762
G1 X62.989 Y55.744 E13.03317
G1 X63.294 Y55.844 E13.03527
G1 X63.388 Y55.861 E13.03537
G0 F6000 X64.176 Y55.479
;TYPE:WALL-OUTER
G1 F1200 X64.428 Y55.411 E13.04405
G1 X64.669 Y55.306 E13.05279
G1 X64.894 Y55.168 E13.06157
G1 X65.093 Y54.998 E13.07028
G1 X65.267 Y54.801 E13.07902
G1 X65.411 Y54.581 E13.08776
G1 X65.52 Y54.344 E13.09644
G1 X65.595 Y54.09 E13.10525
G1 X65.631 Y53.831 E13.11394
G1 X65.629 Y53.568 E13.12269
G1 X65.589 Y53.308 E13.13144
G1 X65.512 Y53.057 E13.14017
G1 X65.399 Y52.82 E13.14891
G1 X65.253 Y52.603 E13.15761
G1 X65.076 Y52.408 E13.16637
G1 X64.873 Y52.24 E13.17513
G1 X64.647 Y52.105 E13.18388
G1 X64.405 Y52.004 E13.19261
G1 X64.15 Y51.94 E13.20135
G1 X63.888 Y51.913 E13.21011
G1 X63.628 Y51.923 E13.21877
G1 X63.369 Y51.973 E13.22754
G1 X63.121 Y52.059 E13.23627
G1 X62.887 Y52.182 E13.24506
G1 X62.675 Y52.336 E13.25378
G1 X62.487 Y52.519 E13.2625
G1 X62.328 Y52.728 E13.27124
G1 X62.201 Y52.959 E13.28001
G1 X62.109 Y53.205 E13.28874
G1 X62.054 Y53.461 E13.29745
G1 X62.036 Y53.723 E13.30618
G1 X62.057 Y53.986 E13.31496
G1 X62.116 Y54.24 E13.32363
G1 X62.212 Y54.487 E13.33245
G1 X62.341 Y54.715 E13.34116
G1 X62.503 Y54.922 E13.3499
G1 X62.694 Y55.103 E13.35865
G1 X62.908 Y55.254 E13.36737
G1 X63.143 Y55.373 E13.37613
G1 X63.393 Y55.455 E13.38488
G1 X63.651 Y55.502 E13.3936
G1 X63.913 Y55.509 E13.40232
G1 X64.176 Y55.479 E13.41112
G1 F2700 E8.41112
G0 F6000 X64.209 Y55.777
G0 X72.668 Y55.279
G0 X73.351 Y54.66
G0 X73.65 Y54.661
G1 F2700 E13.41112
G1 F1200 X76.066 Y54.661 E13.49148
G1 X76.067 Y56.261 E13.54469
G1 X61.536 Y56.261 E14.028
G1 X61.536 Y50.911 E14.20594
G1 X76.066 Y50.911 E14.68921
G1 X76.067 Y52.511 E14.74242
G1 X73.651 Y52.511 E14.82278
G1 X73.65 Y54.661 E14.89429
G0 F6000 X73.351 Y54.66
G0 X72.737 Y55.217
G0 X72.46 Y55.351
G0 X72.46 Y55.071
;TYPE:SKIN
G1 F1200 X66.496 Y55.071 E15.09265
G1 X66.636 Y54.764 E15.10388
G1 X66.761 Y54.342 E15.11851
G1 X66.821 Y53.909 E15.13305
G1 X66.819 Y53.473 E15.14756
G1 X66.752 Y53.042 E15.16206
G1 X66.625 Y52.623 E15.17662
G1 X66.434 Y52.227 E15.19125
G1 X66.349 Y52.101 E15.1963
G1 X72.461 Y52.101 E15.39959
G1 X72.46 Y55.071 E15.49837
G0 F6000 X72.46 Y55.351
G0 X72.74 Y52.502
G0 X72.3 Y52.501
G1 F1200 X72.059 Y52.26 E15.50971
G0 F6000 X71.494 Y52.26
G1 F1200 X72.3 Y53.066 E15.54762
G0 F6000 X72.299 Y53.631
G1 F1200 X70.928 Y52.26 E15.61211
G0 F6000 X70.362 Y52.26
G1 F1200 X72.299 Y54.197 E15.70322
G0 F6000 X72.299 Y54.763
G1 F1200 X69.797 Y52.26 E15.82093
G0 F6000 X69.231 Y52.26
G1 F1200 X71.881 Y54.911 E15.9456
G0 F6000 X71.315 Y54.911
G1 F1200 X68.665 Y52.26 E16.07027
G0 F6000 X68.1 Y52.26
G1 F1200 X70.75 Y54.911 E16.19494
G0 F6000 X70.184 Y54.911
G1 F1200 X67.534 Y52.26 E16.31961
G0 F6000 X66.968 Y52.26
G1 F1200 X69.618 Y54.911 E16.44428
G0 F6000 X69.053 Y54.911
G1 F1200 X66.803 Y52.661 E16.55012
G0 F6000 X66.966 Y53.39
G1 F1200 X68.487 Y54.911 E16.62166
G0 F6000 X67.921 Y54.911
G1 F1200 X66.973 Y53.962 E16.66628
G0 F6000 X66.895 Y54.45
G1 F1200 X67.356 Y54.911 E16.68796
G0 F6000 X67.356 Y55.351
G0 X66.144 Y55.269
G0 X66.241 Y55.21
;TYPE:SKIN
G1 F1200 X66.183 Y55.152 E16.68932
G0 F6000 X66.143 Y55.125
G0 X66.037 Y52.137
G0 X66.183 Y52.04
G1 F1200 X66.013 Y51.871 E16.69331
G0 F6000 X65.365 Y51.505
G1 F1200 X65.186 Y51.609 E16.69635
G1 X64.841 Y51.547 E16.7015
G0 F6000 X64.814 Y51.521
G0 X62.858 Y51.545
G0 X62.828 Y51.515
G1 F1200 X62.594 Y51.563 E16.70504
G1 X62.222 Y51.756 E16.71125
G1 X61.9 Y52.849 E16.72813
G1 X61.786 Y53.584 E16.73915
G1 X61.846 Y54.493 E16.75265
G1 X61.735 Y54.664 E16.75567
G0 F6000 X61.836 Y54.638
G0 X62.11 Y55.604
G0 X62.15 Y55.645
G1 F1200 X62.397 Y55.609 E16.75942
G0 F6000 X62.436 Y55.648
G0 X63.543 Y55.906
G0 X63.632 Y55.995
G1 F1200 X63.796 Y55.876 E16.7694
G1 X64.015 Y55.812 E16.78063
G0 F6000 X64.145 Y55.942
G0 X65.243 Y55.626
G0 X65.272 Y55.656
G1 F1200 X65.49 Y55.591 E16.78648
G0 F6000 X65.585 Y55.686
G0 X73.008 Y55.472
G1 F1200 X73.222 Y55.686 E16.79151
G0 F6000 X73.279 Y55.46
G1 F1200 X73.562 Y55.46 E16.80281
G1 X75.259 Y55.46 E16.87057
G1 X75.403 Y55.321 E16.87856
G0 F6000 X75.317 Y55.235
G0 X73.422 Y54.889
G0 X73.423 Y52.283
G0 X75.411 Y51.935
G1 F1200 X74.961 Y51.485 E16.88915
G0 F6000 X75.367 Y51.608
G1 F1200 X74.903 Y51.71 E16.90575
G1 X73.22 Y51.724 E16.96458
G1 X73.079 Y51.865 E16.97155
G0 F6000 X73.148 Y51.935
;MESH:NONMESH
