;FLAVOR:Marlin
;TIME:476
;Filament used: 0.192229m
;Layer height: 0.2
;MINX:93.625
;MINY:86.651
;MINZ:0.2
;MAXX:124.156
;MAXY:108.001
;MAXZ:7.48
;Generated with Cura_SteamEngine 4.10.0
M140 S50
M105
M190 S50
M104 S195
M105
M109 S195
M82 ;absolute extrusion mode
M201 X500.00 Y500.00 Z100.00 E5000.00 ;Setup machine max acceleration
M203 X500.00 Y500.00 Z10.00 E50.00 ;Setup machine max feedrate
M204 P500.00 R1000.00 T500.00 ;Setup Print/Retract/Travel acceleration
M205 X8.00 Y8.00 Z0.40 E5.00 ;Setup Jerk
M220 S100 ;Reset Feedrate
M221 S100 ;Reset Flowrate

G28 ;Home

G92 E0 ;Reset Extruder
G1 Z2.0 F3000 ;Move Z Axis up
G1 X10.1 Y20 Z0.28 F5000.0 ;Move to start position
G1 X10.1 Y200.0 Z0.28 F1500.0 E15 ;Draw the first line
G1 X10.4 Y200.0 Z0.28 F5000.0 ;Move to side a little
G1 X10.4 Y20 Z0.28 F1500.0 E30 ;Draw the second line
G92 E0 ;Reset Extruder
G1 Z2.0 F3000 ;Move Z Axis up

G92 E0
G92 E0
G1 F2100 E-5
;LAYER_COUNT:38
;LAYER:0
M107
G0 F6000 X95.91 Y89.053 Z0.2
;TYPE:SKIRT
G1 F2100 E0
G1 F1200 X96.027 Y88.936 E0.0055
G1 X96.613 Y88.406 E0.03178
G1 X97.249 Y87.939 E0.05803
G1 X97.929 Y87.538 E0.08428
G1 X98.647 Y87.208 E0.11057
G1 X99.394 Y86.953 E0.13682
G1 X100.163 Y86.774 E0.16308
G1 X100.947 Y86.674 E0.18937
G1 X101.542 Y86.651 E0.20917
G1 X116.238 Y86.651 E0.69796
G1 X117.027 Y86.691 E0.72424
G1 X117.807 Y86.81 E0.75048
G1 X118.572 Y87.008 E0.77676
G1 X119.312 Y87.282 E0.80301
G1 X120.021 Y87.63 E0.82928
G1 X120.692 Y88.048 E0.85557
G1 X121.316 Y88.531 E0.88182
G1 X121.753 Y88.936 E0.90163
G1 X121.87 Y89.053 E0.90714
G1 X122.4 Y89.639 E0.93342
G1 X122.867 Y90.275 E0.95966
G1 X123.268 Y90.955 E0.98592
G1 X123.598 Y91.673 E1.0122
G1 X123.853 Y92.42 E1.03845
G1 X124.032 Y93.189 E1.06471
G1 X124.132 Y93.973 E1.091
G1 X124.155 Y94.563 E1.11064
G1 X124.156 Y96.079 E1.16106
G1 X124.117 Y96.868 E1.18734
G1 X124.045 Y97.34 E1.20322
G1 X124.132 Y98.023 E1.22612
G1 X124.155 Y98.613 E1.24575
G1 X124.156 Y100.079 E1.29451
G1 X124.117 Y100.867 E1.32075
G1 X123.998 Y101.648 E1.34703
G1 X123.8 Y102.413 E1.37331
G1 X123.527 Y103.153 E1.39955
G1 X123.18 Y103.863 E1.42583
G1 X122.763 Y104.533 E1.45208
G1 X122.28 Y105.158 E1.47835
G1 X121.871 Y105.599 E1.49836
G1 X121.754 Y105.716 E1.50386
G1 X121.168 Y106.246 E1.53014
G1 X120.532 Y106.713 E1.55638
G1 X119.852 Y107.114 E1.58264
G1 X119.134 Y107.444 E1.60892
G1 X118.387 Y107.699 E1.63517
G1 X117.618 Y107.878 E1.66143
G1 X116.834 Y107.978 E1.68772
G1 X116.239 Y108.001 E1.70753
G1 X101.542 Y108.001 E2.19635
G1 X100.753 Y107.961 E2.22263
G1 X99.973 Y107.842 E2.24887
G1 X99.208 Y107.644 E2.27515
G1 X98.468 Y107.37 E2.3014
G1 X97.759 Y107.022 E2.32767
G1 X97.088 Y106.604 E2.35396
G1 X96.464 Y106.121 E2.38021
G1 X96.027 Y105.716 E2.40002
G1 X95.91 Y105.599 E2.40553
G1 X95.38 Y105.013 E2.43181
G1 X94.913 Y104.377 E2.45805
G1 X94.512 Y103.697 E2.48431
G1 X94.182 Y102.979 E2.51059
G1 X93.927 Y102.232 E2.53684
G1 X93.748 Y101.463 E2.5631
G1 X93.648 Y100.679 E2.58939
G1 X93.625 Y100.084 E2.60919
G1 X93.625 Y94.568 E2.79266
G1 X93.665 Y93.779 E2.81893
G1 X93.784 Y92.999 E2.84518
G1 X93.982 Y92.234 E2.87146
G1 X94.256 Y91.494 E2.8977
G1 X94.604 Y90.785 E2.92397
G1 X95.022 Y90.114 E2.95027
G1 X95.505 Y89.49 E2.97651
G1 X95.91 Y89.053 E2.99633
G0 F6000 X96.192 Y89.335
G1 F1200 X96.309 Y89.218 E3.00183
G1 X96.881 Y88.704 E3.02741
G1 X97.503 Y88.251 E3.053
G1 X98.168 Y87.865 E3.07858
G1 X98.87 Y87.55 E3.10417
G1 X99.601 Y87.31 E3.12976
G1 X100.352 Y87.147 E3.15532
G1 X101.117 Y87.063 E3.18091
G1 X101.542 Y87.051 E3.19506
G1 X116.238 Y87.051 E3.68385
G1 X117.006 Y87.091 E3.70942
G1 X117.766 Y87.21 E3.73501
G1 X118.509 Y87.408 E3.76059
G1 X119.228 Y87.682 E3.78618
G1 X119.914 Y88.029 E3.81175
G1 X120.561 Y88.445 E3.83733
G1 X121.161 Y88.926 E3.86291
G1 X121.471 Y89.218 E3.87707
G1 X121.588 Y89.335 E3.88257
G1 X122.102 Y89.907 E3.90815
G1 X122.555 Y90.529 E3.93374
G1 X122.941 Y91.194 E3.95932
G1 X123.256 Y91.896 E3.98491
G1 X123.496 Y92.627 E4.0105
G1 X123.659 Y93.378 E4.03606
G1 X123.743 Y94.143 E4.06166
G1 X123.755 Y94.563 E4.07563
G1 X123.756 Y96.079 E4.12605
G1 X123.717 Y96.847 E4.15163
G1 X123.64 Y97.34 E4.16823
G1 X123.659 Y97.428 E4.17122
G1 X123.743 Y98.193 E4.19682
G1 X123.755 Y98.613 E4.21079
G1 X123.756 Y100.079 E4.25955
G1 X123.717 Y100.847 E4.28513
G1 X123.598 Y101.607 E4.31072
G1 X123.4 Y102.35 E4.33629
G1 X123.127 Y103.069 E4.36187
G1 X122.781 Y103.756 E4.38745
G1 X122.365 Y104.403 E4.41304
G1 X121.884 Y105.004 E4.43864
G1 X121.589 Y105.317 E4.45295
G1 X121.472 Y105.434 E4.45845
G1 X120.9 Y105.948 E4.48403
G1 X120.278 Y106.401 E4.50962
G1 X119.613 Y106.787 E4.53519
G1 X118.911 Y107.102 E4.56079
G1 X118.18 Y107.342 E4.58638
G1 X117.429 Y107.505 E4.61194
G1 X116.664 Y107.589 E4.63753
G1 X116.239 Y107.601 E4.65167
G1 X101.542 Y107.601 E5.1405
G1 X100.774 Y107.561 E5.16608
G1 X100.014 Y107.442 E5.19166
G1 X99.271 Y107.244 E5.21724
G1 X98.552 Y106.97 E5.24283
G1 X97.866 Y106.623 E5.2684
G1 X97.219 Y106.207 E5.29398
G1 X96.619 Y105.726 E5.31956
G1 X96.309 Y105.434 E5.33372
G1 X96.192 Y105.317 E5.33923
G1 X95.678 Y104.745 E5.3648
G1 X95.225 Y104.123 E5.3904
G1 X94.839 Y103.458 E5.41597
G1 X94.524 Y102.756 E5.44156
G1 X94.284 Y102.025 E5.46715
G1 X94.121 Y101.274 E5.49271
G1 X94.037 Y100.509 E5.51831
G1 X94.025 Y100.084 E5.53245
G1 X94.025 Y94.568 E5.71591
G1 X94.065 Y93.8 E5.74149
G1 X94.184 Y93.04 E5.76708
G1 X94.382 Y92.297 E5.79265
G1 X94.656 Y91.578 E5.81824
G1 X95.003 Y90.892 E5.84381
G1 X95.419 Y90.245 E5.8694
G1 X95.9 Y89.645 E5.89497
G1 X96.192 Y89.335 E5.90914
G0 F6000 X96.475 Y89.618
G1 F1200 X96.592 Y89.501 E5.91464
G1 X97.149 Y89.001 E5.93954
G1 X97.755 Y88.564 E5.96439
G1 X98.405 Y88.193 E5.98928
G1 X99.091 Y87.894 E6.01417
G1 X99.805 Y87.67 E6.03906
G1 X100.538 Y87.523 E6.06392
G1 X101.542 Y87.451 E6.0974
G1 X116.238 Y87.451 E6.58619
G1 X116.985 Y87.491 E6.61107
G1 X117.723 Y87.61 E6.63594
G1 X118.445 Y87.808 E6.66084
G1 X119.141 Y88.081 E6.6857
G1 X119.804 Y88.428 E6.71059
G1 X120.427 Y88.843 E6.73549
G1 X121.188 Y89.501 E6.76895
G1 X121.305 Y89.618 E6.77445
G1 X121.805 Y90.175 E6.79935
G1 X122.242 Y90.781 E6.8242
G1 X122.613 Y91.431 E6.84909
G1 X122.912 Y92.117 E6.87398
G1 X123.136 Y92.831 E6.89887
G1 X123.283 Y93.564 E6.92373
G1 X123.355 Y94.563 E6.95705
G1 X123.356 Y96.079 E7.00747
G1 X123.317 Y96.826 E7.03235
G1 X123.231 Y97.357 E7.05024
G1 X123.283 Y97.614 E7.05896
G1 X123.355 Y98.613 E7.09227
G1 X123.356 Y100.079 E7.14103
G1 X123.317 Y100.826 E7.16591
G1 X123.198 Y101.565 E7.19081
G1 X123 Y102.286 E7.21568
G1 X122.728 Y102.983 E7.24056
G1 X122.382 Y103.646 E7.26544
G1 X121.967 Y104.269 E7.29033
G1 X121.306 Y105.034 E7.32396
G1 X121.189 Y105.151 E7.32946
G1 X120.632 Y105.651 E7.35436
G1 X120.026 Y106.088 E7.37921
G1 X119.376 Y106.459 E7.4041
G1 X118.69 Y106.758 E7.42899
G1 X117.976 Y106.982 E7.45388
G1 X117.243 Y107.129 E7.47874
G1 X116.239 Y107.201 E7.51222
G1 X101.542 Y107.201 E8.00105
G1 X100.795 Y107.161 E8.02593
G1 X100.057 Y107.042 E8.05079
G1 X99.335 Y106.844 E8.07569
G1 X98.639 Y106.571 E8.10056
G1 X97.976 Y106.224 E8.12545
G1 X97.353 Y105.809 E8.15034
G1 X96.592 Y105.151 E8.1838
G1 X96.475 Y105.034 E8.18931
G1 X95.975 Y104.477 E8.2142
G1 X95.538 Y103.871 E8.23905
G1 X95.167 Y103.221 E8.26395
G1 X94.868 Y102.535 E8.28884
G1 X94.644 Y101.821 E8.31372
G1 X94.497 Y101.088 E8.33859
G1 X94.425 Y100.084 E8.37207
G1 X94.425 Y94.568 E8.55553
G1 X94.465 Y93.821 E8.58041
G1 X94.584 Y93.083 E8.60527
G1 X94.782 Y92.361 E8.63018
G1 X95.055 Y91.665 E8.65504
G1 X95.402 Y91.002 E8.67993
G1 X95.817 Y90.379 E8.70483
G1 X96.475 Y89.618 E8.73829
G0 F6000 X96.758 Y89.901
G1 F1200 X96.875 Y89.784 E8.74379
G1 X97.416 Y89.3 E8.76794
G1 X98.007 Y88.877 E8.79211
G1 X98.641 Y88.523 E8.81626
G1 X99.31 Y88.24 E8.84042
G1 X100.006 Y88.032 E8.86458
G1 X100.721 Y87.902 E8.88875
G1 X101.542 Y87.851 E8.91611
G1 X116.238 Y87.851 E9.4049
G1 X116.963 Y87.891 E9.42905
G1 X117.68 Y88.01 E9.45323
G1 X118.379 Y88.208 E9.47739
G1 X119.052 Y88.481 E9.50154
G1 X119.691 Y88.826 E9.5257
G1 X120.288 Y89.24 E9.54986
G1 X120.905 Y89.784 E9.57722
G1 X121.022 Y89.901 E9.58272
G1 X121.506 Y90.442 E9.60687
G1 X121.929 Y91.033 E9.63104
G1 X122.283 Y91.667 E9.65519
G1 X122.566 Y92.336 E9.67935
G1 X122.774 Y93.032 E9.70351
G1 X122.904 Y93.747 E9.72768
G1 X122.955 Y94.564 E9.75491
G1 X122.956 Y96.08 E9.80533
G1 X122.917 Y96.805 E9.82948
G1 X122.825 Y97.361 E9.84822
G1 X122.904 Y97.797 E9.86296
G1 X122.955 Y98.613 E9.89016
G1 X122.956 Y100.079 E9.93891
G1 X122.917 Y100.805 E9.9631
G1 X122.798 Y101.521 E9.98724
G1 X122.601 Y102.22 E10.01139
G1 X122.328 Y102.894 E10.03558
G1 X121.983 Y103.533 E10.05973
G1 X121.57 Y104.13 E10.08388
G1 X121.023 Y104.751 E10.1114
G1 X120.906 Y104.868 E10.1169
G1 X120.365 Y105.352 E10.14105
G1 X119.774 Y105.775 E10.16522
G1 X119.14 Y106.129 E10.18937
G1 X118.471 Y106.412 E10.21353
G1 X117.775 Y106.62 E10.23769
G1 X117.06 Y106.75 E10.26186
G1 X116.239 Y106.801 E10.28922
G1 X101.542 Y106.801 E10.77805
G1 X100.817 Y106.761 E10.8022
G1 X100.1 Y106.642 E10.82637
G1 X99.401 Y106.444 E10.85053
G1 X98.728 Y106.171 E10.87469
G1 X98.089 Y105.826 E10.89884
G1 X97.492 Y105.412 E10.92301
G1 X96.875 Y104.868 E10.95036
G1 X96.758 Y104.751 E10.95587
G1 X96.274 Y104.21 E10.98001
G1 X95.851 Y103.619 E11.00418
G1 X95.497 Y102.985 E11.02834
G1 X95.214 Y102.316 E11.0525
G1 X95.006 Y101.62 E11.07666
G1 X94.876 Y100.905 E11.10083
G1 X94.825 Y100.084 E11.12819
G1 X94.825 Y94.568 E11.31165
G1 X94.865 Y93.843 E11.3358
G1 X94.984 Y93.126 E11.35997
G1 X95.182 Y92.427 E11.38414
G1 X95.455 Y91.754 E11.40829
G1 X95.8 Y91.115 E11.43245
G1 X96.214 Y90.518 E11.45661
G1 X96.758 Y89.901 E11.48397
G0 F6000 X97.041 Y90.184
G1 F1200 X97.158 Y90.067 E11.48947
G1 X97.683 Y89.598 E11.51289
G1 X98.258 Y89.192 E11.5363
G1 X98.876 Y88.854 E11.55973
G1 X99.527 Y88.587 E11.58313
G1 X100.205 Y88.397 E11.60655
G1 X100.9 Y88.284 E11.62997
G1 X101.542 Y88.251 E11.65135
G1 X116.238 Y88.251 E12.14014
G1 X116.941 Y88.291 E12.16356
G1 X117.635 Y88.41 E12.18698
G1 X118.31 Y88.608 E12.21037
G1 X118.959 Y88.88 E12.23378
G1 X119.573 Y89.225 E12.2572
G1 X120.144 Y89.636 E12.2806
G1 X120.622 Y90.067 E12.30201
G1 X120.739 Y90.184 E12.30751
G1 X121.208 Y90.709 E12.33093
G1 X121.614 Y91.284 E12.35434
G1 X121.952 Y91.902 E12.37777
G1 X122.219 Y92.553 E12.40117
G1 X122.409 Y93.231 E12.42459
G1 X122.522 Y93.926 E12.44801
G1 X122.555 Y94.564 E12.46926
G1 X122.556 Y96.08 E12.51968
G1 X122.516 Y96.783 E12.5431
G1 X122.42 Y97.348 E12.56216
G1 X122.522 Y97.976 E12.58332
G1 X122.555 Y98.614 E12.60457
G1 X122.556 Y100.08 E12.65333
G1 X122.517 Y100.783 E12.67675
G1 X122.398 Y101.477 E12.70017
G1 X122.201 Y102.152 E12.72355
G1 X121.929 Y102.802 E12.74699
G1 X121.585 Y103.416 E12.7704
G1 X121.173 Y103.987 E12.79382
G1 X120.74 Y104.468 E12.81534
G1 X120.623 Y104.585 E12.82085
G1 X120.098 Y105.054 E12.84426
G1 X119.523 Y105.46 E12.86767
G1 X118.905 Y105.798 E12.8911
G1 X118.254 Y106.065 E12.9145
G1 X117.576 Y106.255 E12.93792
G1 X116.881 Y106.368 E12.96134
G1 X116.239 Y106.401 E12.98272
G1 X101.542 Y106.401 E13.47155
G1 X100.839 Y106.361 E13.49497
G1 X100.145 Y106.242 E13.51839
G1 X99.47 Y106.044 E13.54178
G1 X98.821 Y105.772 E13.56519
G1 X98.207 Y105.427 E13.58861
G1 X97.636 Y105.016 E13.61201
G1 X97.158 Y104.585 E13.63342
G1 X97.041 Y104.468 E13.63892
G1 X96.572 Y103.943 E13.66234
G1 X96.166 Y103.368 E13.68575
G1 X95.828 Y102.75 E13.70918
G1 X95.561 Y102.099 E13.73258
G1 X95.371 Y101.421 E13.756
G1 X95.258 Y100.726 E13.77942
G1 X95.225 Y100.084 E13.8008
G1 X95.225 Y94.568 E13.98426
G1 X95.265 Y93.865 E14.00768
G1 X95.384 Y93.171 E14.0311
G1 X95.582 Y92.496 E14.0545
G1 X95.854 Y91.847 E14.0779
G1 X96.199 Y91.233 E14.10133
G1 X96.61 Y90.662 E14.12473
G1 X97.041 Y90.184 E14.14613
G0 F6000 X97.324 Y90.467
G1 F1200 X97.441 Y90.35 E14.15164
G1 X97.95 Y89.897 E14.1743
G1 X98.508 Y89.508 E14.19692
G1 X99.108 Y89.186 E14.21957
G1 X99.742 Y88.937 E14.24223
G1 X100.401 Y88.764 E14.26489
G1 X101.075 Y88.67 E14.28752
G1 X101.542 Y88.651 E14.30307
G1 X116.238 Y88.651 E14.79186
G1 X116.918 Y88.691 E14.81451
G1 X117.588 Y88.81 E14.83715
G1 X118.24 Y89.007 E14.8598
G1 X118.864 Y89.279 E14.88244
G1 X119.452 Y89.623 E14.9051
G1 X119.996 Y90.033 E14.92776
G1 X120.339 Y90.35 E14.94329
G1 X120.456 Y90.467 E14.94879
G1 X120.909 Y90.976 E14.97146
G1 X121.298 Y91.534 E14.99408
G1 X121.62 Y92.134 E15.01673
G1 X121.869 Y92.768 E15.03938
G1 X122.042 Y93.427 E15.06205
G1 X122.136 Y94.101 E15.08468
G1 X122.155 Y94.564 E15.10009
G1 X122.156 Y96.08 E15.15051
G1 X122.116 Y96.76 E15.17317
G1 X122.011 Y97.358 E15.19336
G1 X122.042 Y97.477 E15.19745
G1 X122.136 Y98.151 E15.22009
G1 X122.155 Y98.614 E15.2355
G1 X122.156 Y100.08 E15.28426
G1 X122.116 Y100.76 E15.30692
G1 X121.998 Y101.43 E15.32954
G1 X121.801 Y102.082 E15.3522
G1 X121.529 Y102.706 E15.37484
G1 X121.186 Y103.295 E15.39751
G1 X120.777 Y103.839 E15.42014
G1 X120.457 Y104.185 E15.43582
G1 X120.34 Y104.302 E15.44132
G1 X119.831 Y104.755 E15.46399
G1 X119.273 Y105.144 E15.48661
G1 X118.673 Y105.466 E15.50926
G1 X118.039 Y105.715 E15.53191
G1 X117.38 Y105.888 E15.55457
G1 X116.706 Y105.982 E15.57721
G1 X116.239 Y106.001 E15.59275
G1 X101.542 Y106.001 E16.08158
G1 X100.862 Y105.961 E16.10423
G1 X100.192 Y105.842 E16.12687
G1 X99.54 Y105.645 E16.14952
G1 X98.916 Y105.373 E16.17216
G1 X98.328 Y105.029 E16.19482
G1 X97.784 Y104.619 E16.21748
G1 X97.441 Y104.302 E16.23301
G1 X97.324 Y104.185 E16.23851
G1 X96.871 Y103.676 E16.26118
G1 X96.482 Y103.118 E16.2838
G1 X96.16 Y102.518 E16.30645
G1 X95.911 Y101.884 E16.3291
G1 X95.738 Y101.225 E16.35177
G1 X95.644 Y100.551 E16.3744
G1 X95.625 Y100.084 E16.38994
G1 X95.625 Y94.568 E16.57341
G1 X95.665 Y93.888 E16.59606
G1 X95.784 Y93.218 E16.6187
G1 X95.981 Y92.566 E16.64135
G1 X96.253 Y91.942 E16.66399
G1 X96.597 Y91.354 E16.68665
G1 X97.007 Y90.81 E16.70931
G1 X97.324 Y90.467 E16.72484
G0 F6000 X97.607 Y90.75
G1 F1200 X97.724 Y90.633 E16.73034
G1 X98.216 Y90.197 E16.75221
G1 X98.757 Y89.825 E16.77405
G1 X99.339 Y89.521 E16.79588
G1 X99.954 Y89.29 E16.81773
G1 X100.593 Y89.135 E16.8396
G1 X101.542 Y89.051 E16.87129
G1 X116.238 Y89.051 E17.36008
G1 X116.894 Y89.091 E17.38194
G1 X117.54 Y89.21 E17.40379
G1 X118.167 Y89.407 E17.42565
G1 X118.765 Y89.679 E17.4475
G1 X119.326 Y90.021 E17.46935
G1 X120.056 Y90.633 E17.50103
G1 X120.173 Y90.75 E17.50654
G1 X120.609 Y91.242 E17.5284
G1 X120.981 Y91.783 E17.55024
G1 X121.285 Y92.365 E17.57208
G1 X121.516 Y92.98 E17.59393
G1 X121.671 Y93.619 E17.6158
G1 X121.755 Y94.564 E17.64735
G1 X121.756 Y96.08 E17.69778
G1 X121.716 Y96.736 E17.71964
G1 X121.599 Y97.374 E17.74121
G1 X121.671 Y97.669 E17.75131
G1 X121.755 Y98.614 E17.78286
G1 X121.756 Y100.08 E17.83162
G1 X121.716 Y100.736 E17.85348
G1 X121.598 Y101.382 E17.87532
G1 X121.401 Y102.009 E17.89718
G1 X121.13 Y102.608 E17.91905
G1 X120.788 Y103.169 E17.9409
G1 X120.174 Y103.902 E17.97271
G1 X120.057 Y104.019 E17.97821
G1 X119.565 Y104.455 E18.00007
G1 X119.024 Y104.827 E18.02191
G1 X118.442 Y105.131 E18.04375
G1 X117.827 Y105.362 E18.0656
G1 X117.188 Y105.517 E18.08747
G1 X116.239 Y105.601 E18.11916
G1 X101.542 Y105.601 E18.60798
G1 X100.886 Y105.561 E18.62984
G1 X100.24 Y105.442 E18.65169
G1 X99.613 Y105.245 E18.67355
G1 X99.015 Y104.973 E18.6954
G1 X98.454 Y104.631 E18.71725
G1 X97.724 Y104.019 E18.74893
G1 X97.607 Y103.902 E18.75444
G1 X97.171 Y103.41 E18.7763
G1 X96.799 Y102.869 E18.79814
G1 X96.495 Y102.287 E18.81998
G1 X96.264 Y101.672 E18.84183
G1 X96.109 Y101.033 E18.8637
G1 X96.025 Y100.084 E18.89539
G1 X96.025 Y94.568 E19.07885
G1 X96.065 Y93.912 E19.10071
G1 X96.184 Y93.266 E19.12255
G1 X96.381 Y92.639 E19.14441
G1 X96.653 Y92.041 E19.16626
G1 X96.995 Y91.48 E19.18812
G1 X97.607 Y90.75 E19.2198
G0 F6000 X97.889 Y91.032
G1 F1200 X98.006 Y90.915 E19.2253
G1 X98.481 Y90.498 E19.24633
G1 X99.004 Y90.143 E19.26735
G1 X99.568 Y89.857 E19.28838
G1 X100.163 Y89.645 E19.30939
G1 X100.781 Y89.509 E19.33044
G1 X101.542 Y89.451 E19.35582
G1 X116.238 Y89.451 E19.84461
G1 X116.869 Y89.491 E19.86564
G1 X117.49 Y89.61 E19.88667
G1 X118.09 Y89.807 E19.90768
G1 X118.662 Y90.078 E19.92873
