;FLAVOR:Marlin
;TIME:3301
;Filament used: 1.57537m
;Layer height: 0.2
;MINX:30.83
;MINY:32.086
;MINZ:0.2
;MAXX:63.411
;MAXY:66.836
;MAXZ:38.32
;Generated with Cura_SteamEngine 4.10.0
M140 S50
M105
M190 S50
M104 S195
M105
M109 S195
M82 ;absolute extrusion mode
M201 X500.00 Y500.00 Z100.00 E5000.00 ;Setup machine max acceleration
M203 X500.00 Y500.00 Z10.00 E50.00 ;Setup machine max feedrate
M204 P500.00 R1000.00 T500.00 ;Setup Print/Retract/Travel acceleration
M205 X8.00 Y8.00 Z0.40 E5.00 ;Setup Jerk
M220 S100 ;Reset Feedrate
M221 S100 ;Reset Flowrate

G28 ;Home

G92 E0 ;Reset Extruder
G1 Z2.0 F3000 ;Move Z Axis up
G1 X10.1 Y20 Z0.28 F5000.0 ;Move to start position
G1 X10.1 Y200.0 Z0.28 F1500.0 E15 ;Draw the first line
G1 X10.4 Y200.0 Z0.28 F5000.0 ;Move to side a little
G1 X10.4 Y20 Z0.28 F1500.0 E30 ;Draw the second line
G92 E0 ;Reset Extruder
G1 Z2.0 F3000 ;Move Z Axis up

G92 E0
G92 E0
G1 F2700 E-5
;LAYER_COUNT:194
;LAYER:0
M107
G0 F6000 X33.978 Y37.917 Z0.2
;TYPE:SKIRT
G1 F2700 E0
G1 F1200 X34.614 Y37.45 E0.02624
G1 X35.241 Y37.08 E0.05046
G1 X35.391 Y36.904 E0.05815
G1 X35.666 Y36.59 E0.07203
G1 X35.921 Y36.312 E0.08458
G1 X36.142 Y36.083 E0.09516
G1 X36.345 Y35.882 E0.10467
G1 X36.615 Y35.622 E0.11713
G1 X36.884 Y35.374 E0.1293
G1 X37.175 Y35.119 E0.14217
G1 X37.387 Y34.94 E0.1514
G1 X37.791 Y34.613 E0.16869
G1 X38.109 Y34.366 E0.18208
G1 X38.489 Y34.089 E0.19772
G1 X38.733 Y33.922 E0.20755
G1 X38.947 Y33.781 E0.21608
G1 X39.33 Y33.537 E0.23118
G1 X39.655 Y33.341 E0.2438
G1 X40.058 Y33.111 E0.25924
G1 X40.763 Y32.754 E0.28552
G1 X41.5 Y32.471 E0.31178
G1 X42.262 Y32.264 E0.33804
G1 X43.041 Y32.135 E0.3643
G1 X43.829 Y32.086 E0.39056
G1 X44.618 Y32.116 E0.41682
G1 X45.4 Y32.226 E0.44309
G1 X46.167 Y32.414 E0.46936
G1 X46.911 Y32.679 E0.49562
G1 X47.271 Y32.857 E0.50898
G1 X51.12 Y32.858 E0.637
G1 X51.909 Y32.898 E0.66328
G1 X52.69 Y33.018 E0.68956
G1 X53.454 Y33.216 E0.71581
G1 X54.195 Y33.49 E0.74208
G1 X54.904 Y33.838 E0.76835
G1 X55.574 Y34.255 E0.7946
G1 X56.198 Y34.739 E0.82087
G1 X56.634 Y35.143 E0.84064
G1 X56.777 Y35.286 E0.84736
G1 X57.307 Y35.872 E0.87364
G1 X57.774 Y36.508 E0.89989
G1 X58.102 Y37.063 E0.92133
G1 X58.409 Y37.255 E0.93337
G1 X59.033 Y37.738 E0.95962
G1 X59.606 Y38.281 E0.98587
G1 X60.121 Y38.88 E1.01215
G1 X60.616 Y39.599 E1.04118
G1 X60.9 Y40.065 E1.05933
G1 X61.045 Y40.314 E1.06891
G1 X61.19 Y40.573 E1.07879
G1 X61.372 Y40.918 E1.09176
G1 X61.671 Y41.521 E1.11415
G1 X61.795 Y41.784 E1.12382
G1 X61.976 Y42.186 E1.13848
G1 X62.233 Y42.832 E1.1616
G1 X62.464 Y43.498 E1.18505
G1 X62.575 Y43.844 E1.19714
G1 X62.73 Y44.375 E1.21553
G1 X62.836 Y44.775 E1.2293
G1 X62.903 Y45.042 E1.23845
G1 X63.004 Y45.503 E1.25415
G1 X63.172 Y46.399 E1.28447
G1 X63.234 Y46.782 E1.29737
G1 X63.328 Y47.471 E1.3205
G1 X63.399 Y48.4 E1.35149
G1 X63.41 Y49.089 E1.37441
G1 X63.411 Y49.295 E1.38126
G1 X63.401 Y50.256 E1.41323
G1 X63.371 Y50.864 E1.43347
G1 X63.314 Y51.507 E1.45494
G1 X63.245 Y52.054 E1.47328
G1 X63.137 Y52.727 E1.49595
G1 X63.071 Y53.089 E1.50819
G1 X62.954 Y53.648 E1.52719
G1 X62.905 Y53.865 E1.53459
G1 X62.799 Y54.308 E1.54974
G1 X62.699 Y54.682 E1.56261
G1 X62.587 Y55.065 E1.57588
G1 X62.472 Y55.427 E1.58852
G1 X62.372 Y55.716 E1.59869
G1 X62.194 Y56.181 E1.61525
G1 X61.828 Y57.054 E1.64673
G1 X61.639 Y57.471 E1.66196
G1 X61.267 Y58.23 E1.69007
G1 X60.882 Y58.923 E1.71644
G1 X60.708 Y59.197 E1.72724
G1 X60.447 Y59.589 E1.7429
G1 X59.976 Y60.223 E1.76917
G1 X59.444 Y60.807 E1.79545
G1 X58.856 Y61.333 E1.82169
G1 X58.217 Y61.798 E1.84797
G1 X58.121 Y61.854 E1.85167
G1 X58.087 Y61.924 E1.85425
G1 X57.671 Y62.594 E1.88049
G1 X57.188 Y63.22 E1.90678
G1 X56.777 Y63.663 E1.92688
G1 X56.659 Y63.781 E1.93243
G1 X56.073 Y64.311 E1.95871
G1 X55.437 Y64.778 E1.98496
G1 X54.757 Y65.179 E2.01121
G1 X54.039 Y65.509 E2.03749
G1 X53.292 Y65.764 E2.06375
G1 X52.523 Y65.943 E2.09001
G1 X51.739 Y66.043 E2.1163
G1 X51.144 Y66.066 E2.1361
G1 X47.294 Y66.066 E2.26415
G1 X47.157 Y66.137 E2.26928
G1 X46.423 Y66.427 E2.29553
G1 X45.663 Y66.642 E2.3218
G1 X44.885 Y66.779 E2.34808
G1 X44.098 Y66.836 E2.37432
G1 X43.308 Y66.814 E2.40061
G1 X42.525 Y66.711 E2.42687
G1 X41.756 Y66.53 E2.45315
G1 X41.01 Y66.273 E2.47939
G1 X40.028 Y65.795 E2.51572
G1 X39.598 Y65.547 E2.53223
G1 X39.267 Y65.345 E2.54513
G1 X38.943 Y65.136 E2.55795
G1 X38.485 Y64.827 E2.57633
G1 X38.158 Y64.592 E2.58972
G1 X37.889 Y64.388 E2.60095
G1 X37.655 Y64.203 E2.61087
G1 X37.36 Y63.961 E2.62356
G1 X37.146 Y63.779 E2.6329
G1 X36.814 Y63.486 E2.64763
G1 X36.583 Y63.274 E2.65806
G1 X36.398 Y63.097 E2.66658
G1 X36.138 Y62.837 E2.67881
G1 X35.807 Y62.489 E2.69478
G1 X35.579 Y62.237 E2.70608
G1 X35.396 Y62.027 E2.71535
G1 X35.236 Y61.838 E2.72358
G1 X35.124 Y61.783 E2.72773
G1 X34.453 Y61.365 E2.75403
G1 X33.829 Y60.882 E2.78027
G1 X33.392 Y60.477 E2.80009
G1 X33.275 Y60.36 E2.80559
G1 X32.745 Y59.774 E2.83187
G1 X32.278 Y59.138 E2.85812
G1 X31.877 Y58.458 E2.88437
G1 X31.547 Y57.74 E2.91065
G1 X31.292 Y56.993 E2.93691
G1 X31.113 Y56.224 E2.96317
G1 X31.013 Y55.44 E2.98946
G1 X30.99 Y54.845 E3.00926
G1 X30.99 Y51.779 E3.11124
G1 X30.934 Y51.469 E3.12171
G1 X30.888 Y51.027 E3.13649
G1 X30.847 Y50.365 E3.15855
G1 X30.83 Y49.453 E3.18889
G1 X30.83 Y49.219 E3.19668
G1 X30.835 Y48.781 E3.21124
G1 X30.857 Y48.266 E3.22839
G1 X30.891 Y47.828 E3.243
G1 X30.927 Y47.476 E3.25477
G1 X30.99 Y47.066 E3.26857
G1 X30.99 Y44.079 E3.36791
G1 X31.03 Y43.29 E3.39419
G1 X31.149 Y42.51 E3.42043
G1 X31.347 Y41.745 E3.44672
G1 X31.621 Y41.005 E3.47296
G1 X31.969 Y40.296 E3.49923
G1 X32.387 Y39.625 E3.52552
G1 X32.87 Y39.001 E3.55177
G1 X33.275 Y38.564 E3.57159
G1 X33.392 Y38.447 E3.57709
G1 X33.978 Y37.917 E3.60337
G0 F6000 X34.246 Y38.215
G1 F1200 X34.868 Y37.762 E3.62896
G1 X35.499 Y37.396 E3.65322
G1 X35.692 Y37.168 E3.66316
G1 X35.967 Y36.854 E3.67704
G1 X36.209 Y36.59 E3.68895
G1 X36.43 Y36.361 E3.69954
G1 X36.622 Y36.17 E3.70855
G1 X36.892 Y35.91 E3.72101
G1 X37.148 Y35.674 E3.73259
G1 X37.439 Y35.419 E3.74546
G1 X37.64 Y35.25 E3.7542
G1 X38.037 Y34.929 E3.77118
G1 X38.355 Y34.682 E3.78457
G1 X38.714 Y34.419 E3.79937
G1 X38.958 Y34.252 E3.80921
G1 X39.162 Y34.118 E3.81732
G1 X39.545 Y33.874 E3.83243
G1 X39.853 Y33.688 E3.84439
G1 X40.256 Y33.458 E3.85983
G1 X40.943 Y33.112 E3.88541
G1 X41.662 Y32.839 E3.91099
G1 X42.406 Y32.642 E3.93659
G1 X43.166 Y32.524 E3.96217
G1 X43.934 Y32.485 E3.98775
G1 X44.702 Y32.526 E4.01333
G1 X45.462 Y32.646 E4.03892
G1 X46.205 Y32.845 E4.0645
G1 X46.923 Y33.12 E4.09007
G1 X47.192 Y33.257 E4.10011
G1 X51.12 Y33.258 E4.23076
G1 X51.888 Y33.298 E4.25634
G1 X52.648 Y33.418 E4.28193
G1 X53.391 Y33.616 E4.3075
G1 X54.11 Y33.889 E4.33308
G1 X54.797 Y34.237 E4.3587
G1 X55.443 Y34.653 E4.38425
G1 X56.043 Y35.134 E4.40983
G1 X56.352 Y35.425 E4.42395
G1 X56.495 Y35.568 E4.43067
G1 X57.009 Y36.14 E4.45625
G1 X57.462 Y36.762 E4.48184
G1 X57.8 Y37.345 E4.50426
G1 X58.278 Y37.652 E4.52315
G1 X58.878 Y38.133 E4.54873
G1 X59.425 Y38.674 E4.57432
G1 X59.913 Y39.269 E4.59991
G1 X60.274 Y39.807 E4.62146
G1 X60.558 Y40.273 E4.63961
G1 X60.696 Y40.509 E4.64871
G1 X60.841 Y40.768 E4.65858
G1 X61.014 Y41.096 E4.67091
G1 X61.313 Y41.699 E4.6933
G1 X61.431 Y41.948 E4.70246
G1 X61.612 Y42.35 E4.71713
G1 X61.855 Y42.963 E4.73906
G1 X62.086 Y43.629 E4.7625
G1 X62.192 Y43.957 E4.77397
G1 X62.296 Y44.309 E4.78618
G1 X62.416 Y44.746 E4.80125
G1 X62.515 Y45.139 E4.81473
G1 X62.611 Y45.576 E4.82961
G1 X62.779 Y46.472 E4.85993
G1 X62.838 Y46.836 E4.8722
G1 X62.932 Y47.525 E4.89532
G1 X62.999 Y48.407 E4.92474
G1 X63.01 Y49.096 E4.94766
G1 X63.011 Y49.291 E4.95415
G1 X63.001 Y50.252 E4.98611
G1 X62.972 Y50.828 E5.0053
G1 X62.915 Y51.471 E5.02677
G1 X62.851 Y51.991 E5.04419
G1 X62.743 Y52.664 E5.06686
G1 X62.679 Y53.007 E5.07847
G1 X62.562 Y53.566 E5.09746
G1 X62.516 Y53.772 E5.10448
G1 X62.41 Y54.215 E5.11963
G1 X62.316 Y54.57 E5.13185
G1 X62.204 Y54.953 E5.14512
G1 X62.094 Y55.296 E5.1571
G1 X61.994 Y55.585 E5.16727
G1 X61.826 Y56.026 E5.18297
G1 X61.46 Y56.899 E5.21445
G1 X61.28 Y57.295 E5.22892
G1 X60.908 Y58.054 E5.25703
G1 X60.543 Y58.712 E5.28206
G1 X60.375 Y58.975 E5.29244
G1 X60.114 Y59.367 E5.3081
G1 X59.655 Y59.984 E5.33368
G1 X59.134 Y60.551 E5.35929
G1 X58.558 Y61.06 E5.38486
G1 X57.931 Y61.506 E5.41045
G1 X57.81 Y61.574 E5.41507
G1 X57.688 Y61.817 E5.42411
G1 X57.273 Y62.464 E5.44968
G1 X56.792 Y63.065 E5.47528
G1 X56.495 Y63.381 E5.4897
G1 X56.377 Y63.499 E5.49525
G1 X55.805 Y64.013 E5.52083
G1 X55.183 Y64.466 E5.54642
G1 X54.518 Y64.852 E5.572
G1 X53.816 Y65.167 E5.59759
G1 X53.085 Y65.407 E5.62318
G1 X52.334 Y65.57 E5.64874
G1 X51.569 Y65.654 E5.67434
G1 X51.144 Y65.666 E5.68848
G1 X47.196 Y65.666 E5.81979
G1 X46.973 Y65.781 E5.82813
G1 X46.257 Y66.061 E5.8537
G1 X45.515 Y66.265 E5.8793
G1 X44.756 Y66.391 E5.90489
G1 X43.989 Y66.438 E5.93045
G1 X43.22 Y66.404 E5.95605
G1 X42.459 Y66.291 E5.98164
G1 X41.714 Y66.1 E6.00722
G1 X40.993 Y65.833 E6.03279
G1 X40.228 Y65.448 E6.06127
G1 X39.798 Y65.2 E6.07778
G1 X39.484 Y65.008 E6.09002
G1 X39.01 Y64.7 E6.10883
G1 X38.71 Y64.496 E6.12089
G1 X38.399 Y64.273 E6.13362
G1 X38.13 Y64.069 E6.14485
G1 X37.909 Y63.894 E6.15423
G1 X37.614 Y63.652 E6.16692
G1 X37.41 Y63.479 E6.17581
G1 X37.078 Y63.186 E6.19054
G1 X36.859 Y62.985 E6.20043
G1 X36.674 Y62.808 E6.20894
G1 X36.428 Y62.561 E6.22054
G1 X36.097 Y62.213 E6.23651
G1 X35.88 Y61.975 E6.24722
G1 X35.697 Y61.765 E6.25649
G1 X35.488 Y61.514 E6.26735
G1 X35.231 Y61.384 E6.27693
G1 X34.584 Y60.968 E6.30251
G1 X33.984 Y60.487 E6.32809
G1 X33.674 Y60.195 E6.34226
G1 X33.557 Y60.078 E6.34776
G1 X33.043 Y59.506 E6.37334
G1 X32.59 Y58.884 E6.39893
G1 X32.204 Y58.219 E6.4245
G1 X31.889 Y57.517 E6.4501
G1 X31.649 Y56.786 E6.47569
G1 X31.486 Y56.035 E6.50125
G1 X31.402 Y55.27 E6.52684
G1 X31.39 Y54.845 E6.54098
G1 X31.39 Y51.786 E6.64273
G1 X31.332 Y51.428 E6.65479
G1 X31.286 Y50.986 E6.66957
G1 X31.247 Y50.358 E6.6905
G1 X31.23 Y49.446 E6.72084
G1 X31.229 Y49.224 E6.72822
G1 X31.234 Y48.786 E6.74279
G1 X31.256 Y48.297 E6.75907
G1 X31.29 Y47.859 E6.77368
G1 X31.324 Y47.525 E6.78485
G1 X31.345 Y47.355 E6.79054
G1 X31.39 Y47.1 E6.79916
G1 X31.39 Y44.079 E6.89964
G1 X31.43 Y43.311 E6.92521
G1 X31.549 Y42.551 E6.9508
G1 X31.747 Y41.808 E6.97637
G1 X32.021 Y41.089 E7.00197
G1 X32.368 Y40.403 E7.02753
G1 X32.784 Y39.756 E7.05312
G1 X33.265 Y39.156 E7.0787
G1 X33.557 Y38.846 E7.09286
G1 X33.674 Y38.729 E7.09836
G1 X34.246 Y38.215 E7.12394
G0 F6000 X34.514 Y38.512
G1 F1200 X35.12 Y38.075 E7.14879
G1 X35.76 Y37.71 E7.1733
G1 X35.993 Y37.431 E7.18539
G1 X36.268 Y37.117 E7.19927
G1 X36.497 Y36.868 E7.21052
G1 X36.718 Y36.639 E7.2211
G1 X36.9 Y36.458 E7.22964
G1 X37.17 Y36.198 E7.24211
G1 X37.412 Y35.975 E7.25305
G1 X37.703 Y35.72 E7.26592
G1 X37.892 Y35.56 E7.27416
G1 X38.152 Y35.348 E7.28532
G1 X38.6 Y34.998 E7.30423
G1 X38.94 Y34.749 E7.31824
G1 X39.184 Y34.582 E7.32808
G1 X39.377 Y34.455 E7.33576
G1 X39.76 Y34.211 E7.35087
G1 X40.051 Y34.035 E7.36218
G1 X40.454 Y33.805 E7.37761
G1 X41.123 Y33.47 E7.40249
G1 X41.823 Y33.208 E7.42735
G1 X42.548 Y33.022 E7.45225
G1 X43.288 Y32.914 E7.47712
G1 X44.036 Y32.886 E7.50202
G1 X44.782 Y32.938 E7.52689
G1 X45.519 Y33.069 E7.55179
G1 X46.237 Y33.278 E7.57666
G1 X46.929 Y33.563 E7.60155
G1 X47.108 Y33.657 E7.60828
G1 X51.12 Y33.658 E7.74171
G1 X51.867 Y33.698 E7.7666
G1 X52.606 Y33.818 E7.7915
G1 X53.327 Y34.015 E7.81636
G1 X54.023 Y34.289 E7.84123
G1 X54.686 Y34.635 E7.86611
G1 X55.309 Y35.05 E7.89101
G1 X56.069 Y35.708 E7.92444
G1 X56.212 Y35.851 E7.93117
G1 X56.712 Y36.408 E7.95606
G1 X57.149 Y37.014 E7.98091
G1 X57.496 Y37.622 E8.0042
G1 X57.521 Y37.635 E8.00513
G1 X58.144 Y38.05 E8.03003
G1 X58.718 Y38.529 E8.0549
G1 X59.239 Y39.066 E8.07978
G1 X59.698 Y39.656 E8.10464
G1 X59.932 Y40.015 E8.1189
G1 X60.216 Y40.481 E8.13705
G1 X60.347 Y40.704 E8.14565
G1 X60.492 Y40.963 E8.15552
G1 X60.655 Y41.273 E8.16717
G1 X60.954 Y41.876 E8.18956
G1 X61.066 Y42.112 E8.19825
G1 X61.247 Y42.514 E8.21291
G1 X61.477 Y43.094 E8.23366
G1 X61.708 Y43.76 E8.25711
G1 X61.808 Y44.071 E8.26797
G1 X61.958 Y44.583 E8.28572
G1 X62.06 Y44.969 E8.299
G1 X62.127 Y45.236 E8.30815
G1 X62.218 Y45.65 E8.32225
G1 X62.386 Y46.546 E8.35257
G1 X62.442 Y46.89 E8.36416
G1 X62.536 Y47.579 E8.38729
G1 X62.599 Y48.413 E8.41511
G1 X62.61 Y49.102 E8.43803
G1 X62.611 Y49.287 E8.44418
G1 X62.601 Y50.248 E8.47615
G1 X62.574 Y50.793 E8.4943
G1 X62.517 Y51.436 E8.51577
G1 X62.456 Y51.927 E8.53222
G1 X62.348 Y52.6 E8.55489
G1 X62.288 Y52.925 E8.56589
G1 X62.171 Y53.484 E8.58488
G1 X62.127 Y53.679 E8.59153
G1 X62.021 Y54.122 E8.60668
G1 X61.932 Y54.458 E8.61824
G1 X61.82 Y54.841 E8.63151
G1 X61.716 Y55.165 E8.64283
G1 X61.616 Y55.454 E8.653
G1 X61.457 Y55.871 E8.66785
G1 X61.091 Y56.744 E8.69933
G1 X60.921 Y57.119 E8.71302
G1 X60.549 Y57.878 E8.74114
G1 X60.203 Y58.5 E8.76481
G1 X60.042 Y58.753 E8.77479
G1 X59.781 Y59.145 E8.79045
G1 X59.333 Y59.745 E8.81535
G1 X58.825 Y60.294 E8.84023
G1 X58.26 Y60.785 E8.86513
G1 X57.647 Y61.213 E8.88999
G1 X57.507 Y61.29 E8.89531
G1 X57.289 Y61.707 E8.91096
G1 X56.875 Y62.33 E8.93584
G1 X56.212 Y63.098 E8.96958
G1 X56.094 Y63.216 E8.97513
G1 X55.537 Y63.716 E9.00003
G1 X54.931 Y64.153 E9.02488
G1 X54.281 Y64.524 E9.04977
G1 X53.595 Y64.823 E9.07466
G1 X52.881 Y65.047 E9.09955
G1 X52.148 Y65.194 E9.12442
G1 X51.144 Y65.266 E9.15789
G1 X47.099 Y65.266 E9.29243
G1 X46.79 Y65.425 E9.30399
G1 X46.092 Y65.694 E9.32887
G1 X45.369 Y65.887 E9.35376
G1 X44.63 Y66.002 E9.37863
G1 X43.883 Y66.038 E9.40351
G1 X43.136 Y65.993 E9.4284
G1 X42.398 Y65.869 E9.45329
G1 X41.678 Y65.668 E9.47815
G1 X40.983 Y65.39 E9.50305
G1 X40.428 Y65.102 E9.52384
G1 X39.998 Y64.854 E9.54035
G1 X39.701 Y64.672 E9.55194
G1 X39.235 Y64.369 E9.57043
G1 X38.935 Y64.165 E9.58249
G1 X38.641 Y63.955 E9.59451
G1 X38.372 Y63.751 E9.60574
G1 X38.162 Y63.585 E9.61464
G1 X37.867 Y63.343 E9.62733
G1 X37.675 Y63.179 E9.63573
G1 X37.343 Y62.886 E9.65046
G1 X37.136 Y62.696 E9.6598
G1 X36.951 Y62.519 E9.66832
G1 X36.718 Y62.285 E9.6793
G1 X36.387 Y61.937 E9.69528
G1 X36.182 Y61.712 E9.7054
G1 X35.999 Y61.502 E9.71467
G1 X35.744 Y61.196 E9.72791
G1 X35.341 Y60.985 E9.74304
G1 X34.718 Y60.57 E9.76794
G1 X33.957 Y59.912 E9.8014
G1 X33.84 Y59.795 E9.80691
G1 X33.34 Y59.238 E9.8318
G1 X32.903 Y58.632 E9.85665
G1 X32.532 Y57.982 E9.88154
G1 X32.233 Y57.296 E9.90643
G1 X32.009 Y56.582 E9.93132
G1 X31.862 Y55.849 E9.95619
G1 X31.79 Y54.845 E9.98967
G1 X31.79 Y51.808 E10.09068
G1 X31.73 Y51.387 E10.10482
G1 X31.684 Y50.945 E10.1196
G1 X31.647 Y50.35 E10.13943
G1 X31.63 Y49.438 E10.16977
G1 X31.629 Y49.228 E10.17675
G1 X31.634 Y48.79 E10.19132
G1 X31.655 Y48.328 E10.2067
G1 X31.689 Y47.89 E10.22132
G1 X31.721 Y47.574 E10.23188
G1 X31.742 Y47.404 E10.23758
G1 X31.79 Y47.134 E10.2467
G1 X31.79 Y44.079 E10.34831
G1 X31.83 Y43.332 E10.37319
G1 X31.949 Y42.594 E10.39805
G1 X32.147 Y41.872 E10.42295
G1 X32.42 Y41.176 E10.44782
G1 X32.767 Y40.513 E10.47271
G1 X33.182 Y39.89 E10.4976
G1 X33.84 Y39.129 E10.53106
G1 X33.957 Y39.012 E10.53657
G1 X34.514 Y38.512 E10.56146
G0 F6000 X34.781 Y38.811
G1 F1200 X35.372 Y38.388 E10.58564
G1 X36.014 Y38.031 E10.61007
G1 X36.294 Y37.695 E10.62462
G1 X36.569 Y37.381 E10.6385
G1 X36.785 Y37.146 E10.64911
G1 X37.006 Y36.917 E10.6597
G1 X37.177 Y36.746 E10.66774
G1 X37.447 Y36.486 E10.68021
G1 X37.675 Y36.276 E10.69052
G1 X37.966 Y36.021 E10.70339
G1 X38.145 Y35.87 E10.71118
G1 X38.527 Y35.561 E10.72752
G1 X38.845 Y35.314 E10.74091
G1 X39.166 Y35.08 E10.75412
G1 X39.41 Y34.913 E10.76396
G1 X39.592 Y34.793 E10.77121
G1 X39.975 Y34.549 E10.78631
G1 X40.25 Y34.383 E10.797
G1 X40.653 Y34.153 E10.81243
G1 X41.302 Y33.828 E10.83657
G1 X41.984 Y33.577 E10.86074
G1 X42.689 Y33.402 E10.8849
G1 X43.409 Y33.305 E10.90907
G1 X44.135 Y33.288 E10.93322
G1 X44.858 Y33.351 E10.95736
G1 X45.571 Y33.494 E10.98154
G1 X46.263 Y33.713 E11.00568
G1 X46.986 Y34.057 E11.03232
G1 X51.12 Y34.058 E11.16981
G1 X51.845 Y34.098 E11.19396
G1 X52.562 Y34.218 E11.21814
G1 X53.261 Y34.415 E11.2423
G1 X53.934 Y34.688 E11.26645
G1 X54.573 Y35.034 E11.29062
G1 X55.17 Y35.447 E11.31477
G1 X55.786 Y35.991 E11.3421
