;FLAVOR:Marlin
;TIME:531
;Filament used: 0.304433m
;Layer height: 0.2
;MINX:21.686
;MINY:26.473
;MINZ:0.2
;MAXX:74.775
;MAXY:61.514
;MAXZ:3.56
;Generated with Cura_SteamEngine 4.10.0
M140 S50
M105
M190 S50
M104 S195
M105
M109 S195
M82 ;absolute extrusion mode
M201 X500.00 Y500.00 Z100.00 E5000.00 ;Setup machine max acceleration
M203 X500.00 Y500.00 Z10.00 E50.00 ;Setup machine max feedrate
M204 P500.00 R1000.00 T500.00 ;Setup Print/Retract/Travel acceleration
M205 X8.00 Y8.00 Z0.40 E5.00 ;Setup Jerk
M220 S100 ;Reset Feedrate
M221 S100 ;Reset Flowrate

G28 ;Home

G92 E0 ;Reset Extruder
G1 Z2.0 F3000 ;Move Z Axis up
G1 X10.1 Y20 Z0.28 F5000.0 ;Move to start position
G1 X10.1 Y200.0 Z0.28 F1500.0 E15 ;Draw the first line
G1 X10.4 Y200.0 Z0.28 F5000.0 ;Move to side a little
G1 X10.4 Y20 Z0.28 F1500.0 E30 ;Draw the second line
G92 E0 ;Reset Extruder
G1 Z2.0 F3000 ;Move Z Axis up

G92 E0
G92 E0
G1 F2700 E-5
;LAYER_COUNT:17
;LAYER:0
M107
G0 F6000 X25.221 Y48.751 Z0.2
;TYPE:SKIRT
G1 F2700 E0
G1 F1200 X64.73 Y27.297 E1.49531
G1 X64.893 Y27.213 E1.50141
G1 X65.142 Y27.093 E1.51061
G1 X65.576 Y26.916 E1.5262
G1 X66.041 Y26.759 E1.54252
G1 X66.66 Y26.606 E1.56373
G1 X67.157 Y26.527 E1.58046
G1 X67.62 Y26.482 E1.59594
G1 X67.875 Y26.473 E1.60442
G1 X68.371 Y26.488 E1.62093
G1 X68.872 Y26.536 E1.63767
G1 X69.483 Y26.646 E1.65832
G1 X69.974 Y26.776 E1.67521
G1 X70.582 Y26.994 E1.69669
G1 X71.019 Y27.194 E1.71268
G1 X71.57 Y27.503 E1.73369
G1 X71.995 Y27.791 E1.75076
G1 X72.487 Y28.189 E1.77181
G1 X72.842 Y28.528 E1.78814
G1 X73.267 Y29.007 E1.80944
G1 X73.584 Y29.433 E1.8271
G1 X73.851 Y29.846 E1.84345
G1 X73.968 Y30.055 E1.85142
G1 X74.115 Y30.346 E1.86226
G1 X74.228 Y30.596 E1.87139
G1 X74.395 Y31.036 E1.88704
G1 X74.537 Y31.494 E1.90299
G1 X74.65 Y31.965 E1.9191
G1 X74.697 Y32.234 E1.92818
G1 X74.74 Y32.564 E1.93925
G1 X74.76 Y32.798 E1.94706
G1 X74.774 Y33.108 E1.95738
G1 X74.775 Y33.386 E1.96663
G1 X74.749 Y33.847 E1.98199
G1 X74.694 Y34.311 E1.99753
G1 X74.564 Y34.941 E2.01892
G1 X74.416 Y35.442 E2.0363
G1 X74.248 Y35.901 E2.05256
G1 X74.149 Y36.125 E2.0607
G1 X74.003 Y36.419 E2.07162
G1 X73.87 Y36.661 E2.0808
G1 X73.63 Y37.043 E2.09581
G1 X73.358 Y37.423 E2.11135
G1 X73.026 Y37.825 E2.12869
G1 X72.827 Y38.035 E2.13832
G1 X72.496 Y38.345 E2.1534
G1 X72.137 Y38.643 E2.16892
G1 X71.755 Y38.922 E2.18465
G1 X71.517 Y39.074 E2.19404
G1 X71.24 Y39.235 E2.2047
G1 X71.025 Y39.348 E2.21278
G1 X70.702 Y39.499 E2.22464
G1 X70.449 Y39.603 E2.23373
G1 X70.021 Y39.749 E2.24878
G1 X69.553 Y39.879 E2.26493
G1 X68.933 Y39.997 E2.28592
G1 X68.438 Y40.049 E2.30248
G1 X67.798 Y40.062 E2.32377
G1 X67.284 Y40.029 E2.3409
G1 X66.797 Y39.966 E2.35723
G1 X66.562 Y39.92 E2.3652
G1 X66.255 Y39.847 E2.37569
G1 X65.987 Y39.771 E2.38496
G1 X65.529 Y39.609 E2.40111
G1 X65.411 Y39.559 E2.40538
G1 X35.148 Y55.991 E3.55073
G1 X35.123 Y56.133 E3.55553
G1 X34.961 Y56.75 E3.57675
G1 X34.791 Y57.229 E3.59365
G1 X34.732 Y57.384 E3.59917
G1 X34.514 Y57.839 E3.61595
G1 X34.275 Y58.263 E3.63214
G1 X33.923 Y58.783 E3.65302
G1 X33.61 Y59.171 E3.6696
G1 X33.432 Y59.375 E3.67861
G1 X33.158 Y59.644 E3.69138
G1 X32.777 Y59.981 E3.7083
G1 X32.262 Y60.364 E3.72964
G1 X31.846 Y60.622 E3.74592
G1 X31.264 Y60.917 E3.76763
G1 X30.783 Y61.111 E3.78488
G1 X30.162 Y61.302 E3.80649
G1 X29.665 Y61.409 E3.82339
G1 X29.045 Y61.49 E3.84419
G1 X28.54 Y61.514 E3.86101
G1 X27.909 Y61.491 E3.88201
G1 X27.432 Y61.434 E3.89799
G1 X26.816 Y61.308 E3.9189
G1 X26.327 Y61.165 E3.93584
G1 X25.728 Y60.934 E3.9572
G1 X25.283 Y60.717 E3.97366
G1 X24.746 Y60.397 E3.99445
G1 X24.337 Y60.106 E4.01115
G1 X24.151 Y59.965 E4.01891
G1 X23.809 Y59.656 E4.03424
G1 X23.444 Y59.283 E4.0516
G1 X23.047 Y58.804 E4.07229
G1 X22.774 Y58.414 E4.08813
G1 X22.448 Y57.852 E4.10974
G1 X22.202 Y57.325 E4.12908
G1 X22.009 Y56.796 E4.14781
G1 X21.875 Y56.321 E4.16422
G1 X21.753 Y55.684 E4.1858
G1 X21.7 Y55.177 E4.20275
G1 X21.686 Y54.549 E4.22364
G1 X21.716 Y54.061 E4.2399
G1 X21.734 Y53.856 E4.24675
G1 X21.813 Y53.403 E4.26204
G1 X21.928 Y52.916 E4.27869
G1 X22.122 Y52.319 E4.29956
G1 X22.315 Y51.859 E4.31616
G1 X22.546 Y51.398 E4.33331
G1 X22.687 Y51.159 E4.34254
G1 X22.946 Y50.776 E4.35791
G1 X23.237 Y50.397 E4.37381
G1 X23.656 Y49.935 E4.39455
G1 X24.026 Y49.589 E4.4114
G1 X24.515 Y49.202 E4.43214
G1 X24.928 Y48.927 E4.44864
G1 X25.221 Y48.751 E4.46001
G0 F6000 X25.412 Y49.102
G1 F1200 X64.921 Y27.648 E5.95533
G1 X65.067 Y27.573 E5.96079
G1 X65.316 Y27.453 E5.96998
G1 X65.704 Y27.295 E5.98391
G1 X66.169 Y27.138 E6.00024
G1 X66.723 Y27.001 E6.01922
G1 X67.22 Y26.922 E6.03596
G1 X67.634 Y26.882 E6.04979
G1 X67.889 Y26.873 E6.05828
G1 X68.333 Y26.886 E6.07305
G1 X68.834 Y26.934 E6.08979
G1 X69.38 Y27.032 E6.10824
G1 X69.871 Y27.162 E6.12513
G1 X70.416 Y27.357 E6.14439
G1 X70.853 Y27.557 E6.16037
G1 X71.345 Y27.834 E6.17915
G1 X71.77 Y28.122 E6.19622
G1 X72.211 Y28.478 E6.21507
G1 X72.566 Y28.817 E6.2314
G1 X72.946 Y29.246 E6.25046
G1 X73.263 Y29.672 E6.26812
G1 X73.502 Y30.041 E6.28275
G1 X73.619 Y30.25 E6.29071
G1 X73.75 Y30.511 E6.30043
G1 X73.863 Y30.761 E6.30955
G1 X74.012 Y31.154 E6.32353
G1 X74.154 Y31.612 E6.33948
G1 X74.256 Y32.034 E6.35392
G1 X74.303 Y32.303 E6.363
G1 X74.342 Y32.598 E6.3729
G1 X74.362 Y32.832 E6.38071
G1 X74.374 Y33.11 E6.38996
G1 X74.375 Y33.388 E6.39921
G1 X74.351 Y33.8 E6.41294
G1 X74.296 Y34.264 E6.42848
G1 X74.181 Y34.827 E6.44759
G1 X74.033 Y35.328 E6.46496
G1 X73.882 Y35.739 E6.47953
G1 X73.783 Y35.963 E6.48767
G1 X73.653 Y36.227 E6.49746
G1 X73.52 Y36.469 E6.50665
G1 X73.305 Y36.81 E6.52005
G1 X73.033 Y37.19 E6.5356
G1 X72.736 Y37.55 E6.55112
G1 X72.537 Y37.76 E6.56074
G1 X72.241 Y38.037 E6.57422
G1 X71.882 Y38.335 E6.58974
G1 X71.54 Y38.584 E6.60381
G1 X71.302 Y38.736 E6.61321
G1 X71.054 Y38.881 E6.62276
G1 X70.839 Y38.994 E6.63084
G1 X70.55 Y39.129 E6.64145
G1 X70.297 Y39.233 E6.65055
G1 X69.914 Y39.364 E6.66401
G1 X69.446 Y39.494 E6.68016
G1 X68.891 Y39.599 E6.69895
G1 X68.396 Y39.651 E6.71551
G1 X67.823 Y39.663 E6.73457
G1 X67.309 Y39.63 E6.7517
G1 X66.874 Y39.574 E6.76629
G1 X66.639 Y39.528 E6.77425
G1 X66.364 Y39.462 E6.78366
G1 X66.096 Y39.386 E6.79292
G1 X65.686 Y39.241 E6.80739
G1 X65.391 Y39.115 E6.81806
G1 X34.787 Y55.732 E7.97632
G1 X34.729 Y56.064 E7.98753
G1 X34.584 Y56.616 E8.00651
G1 X34.414 Y57.095 E8.02341
G1 X34.361 Y57.236 E8.02842
G1 X34.166 Y57.643 E8.04343
G1 X33.927 Y58.067 E8.05962
G1 X33.611 Y58.532 E8.07832
G1 X33.298 Y58.92 E8.0949
G1 X33.138 Y59.104 E8.10301
G1 X32.893 Y59.345 E8.11444
G1 X32.512 Y59.682 E8.13136
G1 X32.051 Y60.024 E8.15045
G1 X31.635 Y60.282 E8.16673
G1 X31.115 Y60.546 E8.18613
G1 X30.634 Y60.74 E8.20338
G1 X30.078 Y60.911 E8.22273
G1 X29.581 Y61.018 E8.23964
G1 X29.026 Y61.09 E8.25825
G1 X28.521 Y61.114 E8.27507
G1 X27.957 Y61.094 E8.29384
G1 X27.48 Y61.037 E8.30981
G1 X26.929 Y60.924 E8.32852
G1 X26.44 Y60.781 E8.34547
G1 X25.904 Y60.574 E8.36458
G1 X25.459 Y60.357 E8.38104
G1 X24.978 Y60.071 E8.39966
G1 X24.569 Y59.78 E8.41635
G1 X24.401 Y59.653 E8.42336
G1 X24.095 Y59.376 E8.43709
G1 X23.73 Y59.003 E8.45444
G1 X23.375 Y58.575 E8.47294
G1 X23.102 Y58.185 E8.48877
G1 X22.81 Y57.682 E8.50812
G1 X22.559 Y57.145 E8.52783
G1 X22.394 Y56.687 E8.54402
G1 X22.26 Y56.212 E8.56044
G1 X22.15 Y55.642 E8.57975
G1 X22.097 Y55.135 E8.5967
G1 X22.085 Y54.573 E8.6154
G1 X22.115 Y54.085 E8.63166
G1 X22.132 Y53.901 E8.6378
G1 X22.202 Y53.495 E8.65151
G1 X22.317 Y53.008 E8.66815
G1 X22.491 Y52.474 E8.68683
G1 X22.684 Y52.014 E8.70342
G1 X22.891 Y51.601 E8.71879
G1 X23.032 Y51.362 E8.72802
G1 X23.263 Y51.019 E8.74177
G1 X23.554 Y50.64 E8.75766
G1 X23.929 Y50.228 E8.77619
G1 X24.299 Y49.882 E8.79304
G1 X24.737 Y49.535 E8.81163
G1 X25.15 Y49.26 E8.82813
G1 X25.412 Y49.102 E8.83831
G0 F6000 X25.602 Y49.454
G1 F1200 X65.111 Y28 E10.33362
G1 X65.241 Y27.933 E10.33849
G1 X65.49 Y27.813 E10.34768
G1 X65.832 Y27.674 E10.35996
G1 X66.297 Y27.517 E10.37628
G1 X66.786 Y27.396 E10.39304
G1 X67.283 Y27.317 E10.40977
G1 X67.648 Y27.282 E10.42197
G1 X67.903 Y27.273 E10.43046
G1 X68.295 Y27.285 E10.4435
G1 X68.796 Y27.333 E10.46024
G1 X69.278 Y27.419 E10.47652
G1 X69.769 Y27.549 E10.49342
G1 X70.249 Y27.721 E10.51038
G1 X70.686 Y27.921 E10.52636
G1 X71.121 Y28.166 E10.54297
G1 X71.546 Y28.454 E10.56004
G1 X71.935 Y28.767 E10.57665
G1 X72.29 Y29.106 E10.59297
G1 X72.625 Y29.485 E10.6098
G1 X72.942 Y29.911 E10.62746
G1 X73.153 Y30.237 E10.64038
G1 X73.27 Y30.446 E10.64834
G1 X73.386 Y30.675 E10.65688
G1 X73.499 Y30.925 E10.666
G1 X73.63 Y31.273 E10.67837
G1 X73.772 Y31.731 E10.69432
G1 X73.862 Y32.103 E10.70705
G1 X73.909 Y32.372 E10.71613
G1 X73.943 Y32.633 E10.72489
G1 X73.974 Y33.111 E10.74082
G1 X73.975 Y33.389 E10.75007
G1 X73.954 Y33.753 E10.76219
G1 X73.899 Y34.217 E10.77773
G1 X73.797 Y34.714 E10.79461
G1 X73.649 Y35.215 E10.81198
G1 X73.516 Y35.578 E10.82484
G1 X73.417 Y35.802 E10.83299
G1 X73.302 Y36.034 E10.8416
G1 X73.169 Y36.276 E10.85078
G1 X72.979 Y36.577 E10.86262
G1 X72.707 Y36.957 E10.87817
G1 X72.446 Y37.275 E10.89185
G1 X72.247 Y37.485 E10.90147
G1 X71.985 Y37.729 E10.91338
G1 X71.626 Y38.027 E10.9289
G1 X71.325 Y38.247 E10.9413
G1 X71.087 Y38.399 E10.95069
G1 X70.868 Y38.527 E10.95913
G1 X70.653 Y38.64 E10.96721
G1 X70.398 Y38.759 E10.97656
G1 X70.145 Y38.863 E10.98566
G1 X69.807 Y38.979 E10.99755
G1 X69.339 Y39.109 E11.0137
G1 X68.849 Y39.202 E11.03029
G1 X68.354 Y39.254 E11.04685
G1 X67.849 Y39.264 E11.06365
G1 X67.335 Y39.231 E11.08078
G1 X66.951 Y39.181 E11.09366
G1 X66.474 Y39.077 E11.10989
G1 X66.206 Y39.001 E11.11916
G1 X65.844 Y38.873 E11.13193
G1 X65.373 Y38.67 E11.14899
G1 X34.424 Y55.474 E12.3203
G1 X34.421 Y55.504 E12.3213
G1 X34.335 Y55.996 E12.33792
G1 X34.207 Y56.482 E12.35463
G1 X34.037 Y56.961 E12.37154
G1 X33.989 Y57.087 E12.37602
G1 X33.817 Y57.446 E12.38926
G1 X33.578 Y57.87 E12.40545
G1 X33.3 Y58.281 E12.42195
G1 X32.987 Y58.669 E12.43853
G1 X32.844 Y58.833 E12.44577
G1 X32.628 Y59.045 E12.45584
G1 X32.247 Y59.382 E12.47275
G1 X31.84 Y59.684 E12.48961
G1 X31.424 Y59.942 E12.50589
G1 X30.965 Y60.175 E12.52301
G1 X30.484 Y60.369 E12.54026
G1 X29.993 Y60.52 E12.55735
G1 X29.496 Y60.627 E12.57426
G1 X29.007 Y60.691 E12.59066
G1 X28.502 Y60.715 E12.60748
G1 X28.004 Y60.697 E12.62405
G1 X27.527 Y60.64 E12.64003
G1 X27.041 Y60.54 E12.65653
G1 X26.552 Y60.397 E12.67348
G1 X26.079 Y60.214 E12.69035
G1 X25.634 Y59.997 E12.70681
G1 X25.21 Y59.745 E12.72322
G1 X24.801 Y59.454 E12.73991
G1 X24.651 Y59.341 E12.74616
G1 X24.381 Y59.096 E12.75828
G1 X24.016 Y58.723 E12.77564
G1 X23.702 Y58.345 E12.79199
G1 X23.429 Y57.955 E12.80782
G1 X23.172 Y57.512 E12.82485
G1 X22.933 Y57 E12.84365
G1 X22.779 Y56.579 E12.85856
G1 X22.645 Y56.104 E12.87497
G1 X22.548 Y55.601 E12.89201
G1 X22.495 Y55.094 E12.90897
G1 X22.485 Y54.598 E12.92547
G1 X22.515 Y54.11 E12.94173
G1 X22.529 Y53.945 E12.94724
G1 X22.591 Y53.587 E12.95932
G1 X22.706 Y53.1 E12.97596
G1 X22.86 Y52.628 E12.99248
G1 X23.053 Y52.168 E13.00907
G1 X23.235 Y51.805 E13.02257
G1 X23.376 Y51.566 E13.0318
G1 X23.58 Y51.263 E13.04395
G1 X23.871 Y50.884 E13.05984
G1 X24.202 Y50.52 E13.07621
G1 X24.572 Y50.174 E13.09306
G1 X24.958 Y49.868 E13.10944
G1 X25.371 Y49.593 E13.12594
G1 X25.602 Y49.454 E13.13491
G0 F6000 X25.793 Y49.805
G1 F1200 X65.302 Y28.351 E14.63022
G1 X65.414 Y28.294 E14.6344
G1 X65.663 Y28.174 E14.6436
G1 X65.96 Y28.053 E14.65426
G1 X66.425 Y27.896 E14.67059
G1 X66.849 Y27.791 E14.68512
G1 X67.346 Y27.712 E14.70185
G1 X67.662 Y27.682 E14.71241
G1 X67.917 Y27.673 E14.7209
G1 X68.257 Y27.683 E14.73221
G1 X68.758 Y27.731 E14.74895
G1 X69.175 Y27.806 E14.76304
G1 X69.666 Y27.936 E14.77994
G1 X70.083 Y28.085 E14.79466
G1 X70.52 Y28.285 E14.81065
G1 X70.897 Y28.497 E14.82503
G1 X71.322 Y28.785 E14.84211
G1 X71.659 Y29.057 E14.85651
G1 X72.014 Y29.396 E14.87284
G1 X72.304 Y29.724 E14.8874
G1 X72.621 Y30.15 E14.90506
G1 X72.804 Y30.432 E14.91624
G1 X73.021 Y30.84 E14.93161
G1 X73.134 Y31.09 E14.94074
G1 X73.248 Y31.391 E14.95145
G1 X73.39 Y31.849 E14.96739
G1 X73.468 Y32.172 E14.97845
G1 X73.515 Y32.441 E14.98753
G1 X73.565 Y32.901 E15.00292
G1 X73.574 Y33.113 E15.00998
G1 X73.575 Y33.391 E15.01922
G1 X73.557 Y33.706 E15.02972
G1 X73.502 Y34.17 E15.04526
G1 X73.413 Y34.601 E15.05989
G1 X73.265 Y35.102 E15.07727
G1 X73.15 Y35.416 E15.08839
G1 X72.952 Y35.841 E15.10399
G1 X72.819 Y36.083 E15.11317
G1 X72.654 Y36.344 E15.12344
G1 X72.382 Y36.724 E15.13898
G1 X72.155 Y36.999 E15.15084
G1 X71.956 Y37.209 E15.16047
G1 X71.73 Y37.422 E15.17079
G1 X71.371 Y37.72 E15.18631
G1 X71.109 Y37.91 E15.19708
G1 X70.871 Y38.062 E15.20647
G1 X70.467 Y38.285 E15.22182
G1 X70.246 Y38.389 E15.22994
G1 X69.993 Y38.493 E15.23904
G1 X69.7 Y38.593 E15.24934
G1 X69.232 Y38.723 E15.26549
G1 X68.808 Y38.804 E15.27985
G1 X68.313 Y38.856 E15.2964
G1 X67.874 Y38.865 E15.31101
G1 X67.36 Y38.832 E15.32814
G1 X67.028 Y38.789 E15.33927
G1 X66.583 Y38.692 E15.35442
G1 X66.315 Y38.616 E15.36369
G1 X66.001 Y38.505 E15.37476
G1 X65.564 Y38.318 E15.39057
G1 X65.361 Y38.221 E15.39806
G1 X34.046 Y55.224 E16.58322
G1 X34.027 Y55.435 E16.59027
G1 X33.941 Y55.927 E16.60688
G1 X33.83 Y56.349 E16.6214
G1 X33.66 Y56.828 E16.6383
G1 X33.618 Y56.939 E16.64225
G1 X33.469 Y57.25 E16.65372
G1 X33.23 Y57.674 E16.66991
G1 X32.989 Y58.029 E16.68418
G1 X32.676 Y58.417 E16.70076
G1 X32.55 Y58.562 E16.70715
G1 X32.363 Y58.745 E16.71585
G1 X31.982 Y59.082 E16.73277
G1 X31.629 Y59.345 E16.74741
G1 X31.213 Y59.603 E16.76369
G1 X30.816 Y59.804 E16.77849
G1 X30.335 Y59.998 E16.79574
G1 X29.909 Y60.129 E16.81056
G1 X29.412 Y60.236 E16.82747
G1 X28.988 Y60.291 E16.84169
G1 X28.483 Y60.315 E16.85851
G1 X28.052 Y60.3 E16.87285
G1 X27.575 Y60.243 E16.88883
G1 X27.153 Y60.156 E16.90316
G1 X26.664 Y60.013 E16.92011
G1 X26.254 Y59.855 E16.93472
G1 X25.809 Y59.638 E16.95119
G1 X25.442 Y59.42 E16.96539
G1 X25.033 Y59.129 E16.98208
G1 X24.901 Y59.028 E16.98761
G1 X24.667 Y58.816 E16.99811
G1 X24.302 Y58.443 E17.01547
G1 X24.03 Y58.116 E17.02962
G1 X23.757 Y57.726 E17.04545
G1 X23.534 Y57.341 E17.06025
G1 X23.29 Y56.82 E17.07938
G1 X23.164 Y56.47 E17.09175
G1 X23.03 Y55.995 E17.10817
G1 X22.946 Y55.559 E17.12294
G1 X22.893 Y55.052 E17.13989
G1 X22.884 Y54.622 E17.1542
G1 X22.914 Y54.134 E17.17046
G1 X22.927 Y53.989 E17.1753
G1 X22.981 Y53.678 E17.1858
G1 X23.096 Y53.191 E17.20244
G1 X23.228 Y52.783 E17.21671
G1 X23.421 Y52.323 E17.2333
G1 X23.58 Y52.008 E17.24503
G1 X23.721 Y51.769 E17.25426
G1 X23.898 Y51.507 E17.26478
G1 X24.189 Y51.128 E17.28067
G1 X24.475 Y50.812 E17.29485
G1 X24.845 Y50.466 E17.3117
G1 X25.18 Y50.201 E17.3259
G1 X25.593 Y49.926 E17.34241
G1 X25.793 Y49.805 E17.35018
G0 F6000 X25.984 Y50.157
G1 F1200 X65.493 Y28.703 E18.84549
G1 X65.588 Y28.654 E18.84905
G1 X65.837 Y28.534 E18.85824
G1 X66.088 Y28.432 E18.86725
G1 X66.553 Y28.275 E18.88358
G1 X66.912 Y28.186 E18.89588
G1 X67.409 Y28.107 E18.91262
G1 X67.676 Y28.081 E18.92154
G1 X67.931 Y28.072 E18.93003
G1 X68.219 Y28.081 E18.93961
G1 X68.72 Y28.129 E18.95635
G1 X69.073 Y28.192 E18.96828
G1 X69.564 Y28.322 E18.98517
G1 X69.917 Y28.449 E18.99765
G1 X70.354 Y28.649 E19.01363
G1 X70.672 Y28.828 E19.02577
G1 X71.097 Y29.116 E19.04285
G1 X71.382 Y29.346 E19.05503
G1 X71.737 Y29.685 E19.07135
G1 X71.983 Y29.963 E19.0837
G1 X72.3 Y30.389 E19.10136
G1 X72.455 Y30.627 E19.11081
G1 X72.657 Y31.005 E19.12506
G1 X72.77 Y31.255 E19.13419
G1 X72.866 Y31.509 E19.14322
G1 X73.008 Y31.967 E19.15917
G1 X73.074 Y32.24 E19.16851
G1 X73.121 Y32.509 E19.17759
G1 X73.166 Y32.935 E19.19184
G1 X73.174 Y33.114 E19.1978
G1 X73.175 Y33.392 E19.20704
G1 X73.16 Y33.659 E19.21594
G1 X73.105 Y34.123 E19.23148
G1 X73.03 Y34.487 E19.24384
G1 X72.882 Y34.988 E19.26122
G1 X72.784 Y35.254 E19.27064
G1 X72.601 Y35.649 E19.28512
G1 X72.468 Y35.891 E19.29431
G1 X72.329 Y36.112 E19.30299
G1 X72.057 Y36.492 E19.31853
G1 X71.865 Y36.724 E19.32855
G1 X71.666 Y36.934 E19.33817
G1 X71.474 Y37.114 E19.34693
G1 X71.115 Y37.412 E19.36244
G1 X70.894 Y37.573 E19.37154
G1 X70.656 Y37.725 E19.38093
G1 X70.281 Y37.931 E19.39516
G1 X70.093 Y38.019 E19.40207
G1 X69.84 Y38.123 E19.41116
G1 X69.593 Y38.208 E19.41985
