;FLAVOR:Marlin
;TIME:5585
;Filament used: 3.08431m
;Layer height: 0.2
;MINX:22.438
;MINY:24.72
;MINZ:0.2
;MAXX:88.158
;MAXY:56.82
;MAXZ:27.24
;Generated with Cura_SteamEngine 4.10.0
M140 S50
M105
M190 S50
M104 S195
M105
M109 S195
M82 ;absolute extrusion mode
M201 X500.00 Y500.00 Z100.00 E5000.00 ;Setup machine max acceleration
M203 X500.00 Y500.00 Z10.00 E50.00 ;Setup machine max feedrate
M204 P500.00 R1000.00 T500.00 ;Setup Print/Retract/Travel acceleration
M205 X8.00 Y8.00 Z0.40 E5.00 ;Setup Jerk
M220 S100 ;Reset Feedrate
M221 S100 ;Reset Flowrate

G28 ;Home

G92 E0 ;Reset Extruder
G1 Z2.0 F3000 ;Move Z Axis up
G1 X10.1 Y20 Z0.28 F5000.0 ;Move to start position
G1 X10.1 Y200.0 Z0.28 F1500.0 E15 ;Draw the first line
G1 X10.4 Y200.0 Z0.28 F5000.0 ;Move to side a little
G1 X10.4 Y20 Z0.28 F1500.0 E30 ;Draw the second line
G92 E0 ;Reset Extruder
G1 Z2.0 F3000 ;Move Z Axis up

G92 E0
G92 E0
G1 F2700 E-5
;LAYER_COUNT:158
;LAYER:0
M107
G0 F6000 X25.426 Y28.725 Z0.2
;TYPE:SKIRT
G1 F2700 E0
G1 F1200 X26.062 Y28.258 E0.02624
G1 X26.742 Y27.857 E0.0525
G1 X27.46 Y27.527 E0.07878
G1 X28.207 Y27.272 E0.10504
G1 X28.976 Y27.093 E0.1313
G1 X29.76 Y26.993 E0.15758
G1 X30.355 Y26.97 E0.17739
G1 X36.732 Y26.97 E0.38949
G1 X37.521 Y27.01 E0.41576
G1 X38.301 Y27.129 E0.44201
G1 X39.066 Y27.327 E0.46829
G1 X39.806 Y27.601 E0.49453
G1 X40.15 Y27.77 E0.50728
G1 X40.589 Y27.884 E0.52237
G1 X55.39 Y27.888 E1.01465
G1 X60.777 Y27.883 E1.19382
G1 X61.035 Y27.548 E1.20789
G1 X61.578 Y26.974 E1.23417
G1 X61.949 Y26.641 E1.25075
G1 X62.056 Y26.551 E1.2554
G1 X62.685 Y26.074 E1.28165
G1 X63.36 Y25.663 E1.30794
G1 X64.072 Y25.322 E1.3342
G1 X64.815 Y25.055 E1.36046
G1 X65.582 Y24.865 E1.38674
G1 X66.363 Y24.753 E1.41298
G1 X67.077 Y24.72 E1.43675
G1 X77.301 Y24.72 E1.7768
G1 X77.698 Y24.74 E1.79003
G1 X78.218 Y24.72 E1.80733
G1 X80.241 Y24.72 E1.87462
G1 X81.03 Y24.76 E1.90089
G1 X81.81 Y24.879 E1.92714
G1 X82.575 Y25.077 E1.95342
G1 X83.315 Y25.351 E1.97967
G1 X84.024 Y25.699 E2.00593
G1 X84.695 Y26.117 E2.03223
G1 X85.319 Y26.6 E2.05847
G1 X85.756 Y27.005 E2.07829
G1 X85.873 Y27.122 E2.08379
G1 X86.403 Y27.708 E2.11007
G1 X86.87 Y28.344 E2.13632
G1 X87.271 Y29.024 E2.16257
G1 X87.601 Y29.742 E2.18886
G1 X87.856 Y30.489 E2.21511
G1 X88.035 Y31.258 E2.24137
G1 X88.135 Y32.042 E2.26766
G1 X88.158 Y32.637 E2.28746
G1 X88.158 Y34.903 E2.36283
G1 X88.118 Y35.692 E2.38911
G1 X87.999 Y36.472 E2.41535
G1 X87.801 Y37.237 E2.44163
G1 X87.527 Y37.977 E2.46788
G1 X87.179 Y38.686 E2.49415
G1 X86.761 Y39.357 E2.52044
G1 X86.278 Y39.981 E2.54668
G1 X85.873 Y40.418 E2.5665
G1 X85.756 Y40.535 E2.572
G1 X85.499 Y40.767 E2.58352
G1 X85.756 Y41.005 E2.59517
G1 X85.873 Y41.122 E2.60067
G1 X86.403 Y41.708 E2.62695
G1 X86.87 Y42.344 E2.6532
G1 X87.271 Y43.024 E2.67945
G1 X87.601 Y43.742 E2.70574
G1 X87.856 Y44.489 E2.73199
G1 X88.035 Y45.258 E2.75825
G1 X88.135 Y46.042 E2.78454
G1 X88.158 Y46.637 E2.80434
G1 X88.158 Y48.903 E2.87971
G1 X88.118 Y49.692 E2.90598
G1 X87.999 Y50.472 E2.93223
G1 X87.801 Y51.237 E2.95851
G1 X87.527 Y51.977 E2.98476
G1 X87.179 Y52.686 E3.01102
G1 X86.761 Y53.357 E3.03732
G1 X86.278 Y53.981 E3.06356
G1 X85.873 Y54.418 E3.08338
G1 X85.756 Y54.535 E3.08888
G1 X85.17 Y55.065 E3.11516
G1 X84.534 Y55.532 E3.14141
G1 X83.854 Y55.933 E3.16766
G1 X83.136 Y56.263 E3.19395
G1 X82.389 Y56.518 E3.2202
G1 X81.62 Y56.697 E3.24646
G1 X80.836 Y56.797 E3.27275
G1 X80.241 Y56.82 E3.29255
G1 X78.219 Y56.82 E3.3598
G1 X77.805 Y56.799 E3.37359
G1 X77.707 Y56.809 E3.37687
G1 X77.302 Y56.82 E3.39034
G1 X67.08 Y56.82 E3.73033
G1 X66.291 Y56.78 E3.7566
G1 X65.511 Y56.661 E3.78285
G1 X64.746 Y56.463 E3.80913
G1 X64.006 Y56.189 E3.83537
G1 X63.297 Y55.841 E3.86164
G1 X62.626 Y55.423 E3.88794
G1 X62.123 Y55.043 E3.9089
G1 X62.01 Y54.95 E3.91377
G1 X61.427 Y54.418 E3.94002
G1 X60.9 Y53.829 E3.96631
G1 X60.774 Y53.656 E3.97343
G1 X55.369 Y53.651 E4.1532
G1 X46.093 Y53.651 E4.46172
G1 X40.656 Y53.656 E4.64256
G1 X40.434 Y53.728 E4.65032
G1 X40.084 Y53.804 E4.66223
G1 X39.929 Y53.883 E4.66802
G1 X39.194 Y54.17 E4.69426
G1 X38.433 Y54.381 E4.72053
G1 X37.654 Y54.515 E4.74682
G1 X36.728 Y54.57 E4.77767
G1 X30.355 Y54.57 E4.98964
G1 X29.566 Y54.53 E5.01591
G1 X28.786 Y54.411 E5.04216
G1 X28.021 Y54.213 E5.06844
G1 X27.281 Y53.939 E5.09468
G1 X26.572 Y53.591 E5.12095
G1 X25.901 Y53.173 E5.14725
G1 X25.277 Y52.69 E5.17349
G1 X24.84 Y52.285 E5.19331
G1 X24.723 Y52.168 E5.19881
G1 X24.193 Y51.582 E5.22509
G1 X23.726 Y50.946 E5.25133
G1 X23.325 Y50.266 E5.27759
G1 X22.995 Y49.548 E5.30387
G1 X22.74 Y48.801 E5.33013
G1 X22.561 Y48.032 E5.35639
G1 X22.461 Y47.248 E5.38267
G1 X22.438 Y46.653 E5.40248
G1 X22.438 Y42.887 E5.52774
G1 X22.478 Y42.098 E5.55401
G1 X22.597 Y41.318 E5.58026
G1 X22.736 Y40.782 E5.59867
G1 X22.561 Y40.032 E5.62429
G1 X22.461 Y39.248 E5.65058
G1 X22.438 Y38.653 E5.67038
G1 X22.438 Y34.887 E5.79564
G1 X22.478 Y34.098 E5.82191
G1 X22.597 Y33.318 E5.84816
G1 X22.795 Y32.553 E5.87444
G1 X23.069 Y31.813 E5.90068
G1 X23.417 Y31.104 E5.92695
G1 X23.835 Y30.433 E5.95325
G1 X24.318 Y29.809 E5.97949
G1 X24.723 Y29.372 E5.99931
G1 X24.84 Y29.255 E6.00481
G1 X25.426 Y28.725 E6.03109
G0 F6000 X25.694 Y29.023
G1 F1200 X26.316 Y28.57 E6.05669
G1 X26.981 Y28.184 E6.08226
G1 X27.683 Y27.869 E6.10785
G1 X28.414 Y27.629 E6.13344
G1 X29.165 Y27.466 E6.159
G1 X29.93 Y27.382 E6.1846
G1 X30.355 Y27.37 E6.19874
G1 X36.732 Y27.37 E6.41084
G1 X37.5 Y27.41 E6.43642
G1 X38.26 Y27.529 E6.462
G1 X39.003 Y27.727 E6.48758
G1 X39.722 Y28.001 E6.51317
G1 X40.013 Y28.148 E6.52401
G1 X40.146 Y28.173 E6.52851
G1 X40.52 Y28.284 E6.54149
G1 X55.391 Y28.288 E7.0361
G1 X60.971 Y28.283 E7.22169
G1 X61.405 Y27.732 E7.24502
G1 X62.207 Y26.947 E7.28235
G1 X62.314 Y26.857 E7.287
G1 X62.927 Y26.393 E7.31257
G1 X63.586 Y25.995 E7.33817
G1 X64.282 Y25.668 E7.36375
G1 X65.008 Y25.415 E7.38932
G1 X65.757 Y25.239 E7.41491
G1 X66.52 Y25.141 E7.4405
G1 X67.077 Y25.12 E7.45904
G1 X77.301 Y25.12 E7.79909
G1 X77.709 Y25.141 E7.81268
G1 X77.793 Y25.132 E7.81549
G1 X78.218 Y25.12 E7.82963
G1 X80.241 Y25.12 E7.89691
G1 X81.009 Y25.16 E7.92249
G1 X81.769 Y25.279 E7.94808
G1 X82.512 Y25.477 E7.97365
G1 X83.231 Y25.751 E7.99924
G1 X83.917 Y26.098 E8.02481
G1 X84.564 Y26.514 E8.0504
G1 X85.164 Y26.995 E8.07597
G1 X85.474 Y27.287 E8.09014
G1 X85.591 Y27.404 E8.09564
G1 X86.105 Y27.976 E8.12122
G1 X86.558 Y28.598 E8.14681
G1 X86.944 Y29.263 E8.17239
G1 X87.259 Y29.965 E8.19798
G1 X87.499 Y30.696 E8.22357
G1 X87.662 Y31.447 E8.24913
G1 X87.746 Y32.212 E8.27472
G1 X87.758 Y32.637 E8.28886
G1 X87.758 Y34.903 E8.36423
G1 X87.718 Y35.671 E8.38981
G1 X87.599 Y36.431 E8.4154
G1 X87.401 Y37.174 E8.44097
G1 X87.127 Y37.893 E8.46656
G1 X86.78 Y38.579 E8.49213
G1 X86.364 Y39.226 E8.51772
G1 X85.883 Y39.826 E8.54329
G1 X85.591 Y40.136 E8.55746
G1 X85.474 Y40.253 E8.56296
G1 X84.89 Y40.776 E8.58903
G1 X85.164 Y40.995 E8.6007
G1 X85.474 Y41.287 E8.61487
G1 X85.591 Y41.404 E8.62037
G1 X86.105 Y41.976 E8.64595
G1 X86.558 Y42.598 E8.67154
G1 X86.944 Y43.263 E8.69711
G1 X87.259 Y43.965 E8.72271
G1 X87.499 Y44.696 E8.7483
G1 X87.662 Y45.447 E8.77385
G1 X87.746 Y46.212 E8.79945
G1 X87.758 Y46.637 E8.81359
G1 X87.758 Y48.903 E8.88896
G1 X87.718 Y49.671 E8.91454
G1 X87.599 Y50.431 E8.94012
G1 X87.401 Y51.174 E8.9657
G1 X87.127 Y51.893 E8.99129
G1 X86.78 Y52.579 E9.01686
G1 X86.364 Y53.226 E9.04244
G1 X85.883 Y53.826 E9.06802
G1 X85.591 Y54.136 E9.08219
G1 X85.474 Y54.253 E9.08769
G1 X84.902 Y54.767 E9.11327
G1 X84.28 Y55.22 E9.13886
G1 X83.615 Y55.606 E9.16443
G1 X82.913 Y55.921 E9.19002
G1 X82.182 Y56.161 E9.21561
G1 X81.431 Y56.324 E9.24117
G1 X80.666 Y56.408 E9.26677
G1 X80.241 Y56.42 E9.28091
G1 X78.219 Y56.42 E9.34816
G1 X77.738 Y56.395 E9.36418
G1 X77.302 Y56.42 E9.37871
G1 X67.08 Y56.42 E9.71869
G1 X66.312 Y56.38 E9.74427
G1 X65.552 Y56.261 E9.76986
G1 X64.809 Y56.063 E9.79543
G1 X64.09 Y55.789 E9.82103
G1 X63.404 Y55.442 E9.84659
G1 X62.757 Y55.026 E9.87218
G1 X62.378 Y54.734 E9.88809
G1 X62.265 Y54.641 E9.89296
G1 X61.697 Y54.122 E9.91855
G1 X61.186 Y53.547 E9.94413
G1 X60.977 Y53.256 E9.95605
G1 X55.37 Y53.251 E10.14254
G1 X46.093 Y53.251 E10.45109
G1 X40.589 Y53.256 E10.63416
G1 X40.213 Y53.372 E10.64725
G1 X39.942 Y53.426 E10.65644
G1 X39.729 Y53.534 E10.66438
G1 X39.01 Y53.809 E10.68998
G1 X38.267 Y54.008 E10.71557
G1 X37.508 Y54.129 E10.74113
G1 X36.728 Y54.17 E10.76711
G1 X30.355 Y54.17 E10.97908
G1 X29.587 Y54.13 E11.00465
G1 X28.827 Y54.011 E11.03024
G1 X28.084 Y53.813 E11.05581
G1 X27.365 Y53.539 E11.08141
G1 X26.679 Y53.192 E11.10698
G1 X26.032 Y52.776 E11.13256
G1 X25.432 Y52.295 E11.15814
G1 X25.122 Y52.003 E11.1723
G1 X25.005 Y51.886 E11.1778
G1 X24.491 Y51.314 E11.20338
G1 X24.038 Y50.692 E11.22897
G1 X23.652 Y50.027 E11.25455
G1 X23.337 Y49.325 E11.28014
G1 X23.097 Y48.594 E11.30573
G1 X22.934 Y47.843 E11.33129
G1 X22.85 Y47.078 E11.35689
G1 X22.838 Y46.653 E11.37103
G1 X22.838 Y42.887 E11.49629
G1 X22.878 Y42.119 E11.52186
G1 X22.997 Y41.359 E11.54745
G1 X23.154 Y40.769 E11.56776
G1 X23.097 Y40.594 E11.57388
G1 X22.934 Y39.843 E11.59944
G1 X22.85 Y39.078 E11.62503
G1 X22.838 Y38.653 E11.63918
G1 X22.838 Y34.887 E11.76443
G1 X22.878 Y34.119 E11.79001
G1 X22.997 Y33.359 E11.8156
G1 X23.195 Y32.616 E11.84117
G1 X23.469 Y31.897 E11.86676
G1 X23.816 Y31.211 E11.89233
G1 X24.232 Y30.564 E11.91792
G1 X24.713 Y29.964 E11.94349
G1 X25.005 Y29.654 E11.95766
G1 X25.122 Y29.537 E11.96316
G1 X25.694 Y29.023 E11.98874
G0 F6000 X25.962 Y29.32
G1 F1200 X26.568 Y28.883 E12.01359
G1 X27.218 Y28.512 E12.03848
G1 X27.904 Y28.213 E12.06337
G1 X28.618 Y27.989 E12.08826
G1 X29.351 Y27.842 E12.11312
G1 X30.355 Y27.77 E12.1466
G1 X36.732 Y27.77 E12.3587
G1 X37.479 Y27.81 E12.38358
G1 X38.217 Y27.929 E12.40845
G1 X38.939 Y28.127 E12.43335
G1 X39.635 Y28.4 E12.45821
G1 X39.894 Y28.536 E12.46794
G1 X40.291 Y28.623 E12.48146
G1 X40.471 Y28.683 E12.48777
G1 X55.391 Y28.688 E12.98401
G1 X61.185 Y28.683 E13.17672
G1 X61.303 Y28.5 E13.18396
G1 X61.774 Y27.919 E13.20884
G1 X62.464 Y27.253 E13.24074
G1 X62.571 Y27.163 E13.24539
G1 X63.169 Y26.713 E13.27028
G1 X63.811 Y26.329 E13.29516
G1 X64.49 Y26.016 E13.32003
G1 X65.199 Y25.777 E13.34491
G1 X65.929 Y25.615 E13.36978
G1 X66.673 Y25.532 E13.39468
G1 X67.077 Y25.52 E13.40813
G1 X77.301 Y25.52 E13.74818
G1 X77.826 Y25.548 E13.76566
G1 X78.218 Y25.52 E13.77874
G1 X80.241 Y25.52 E13.84602
G1 X80.988 Y25.56 E13.8709
G1 X81.726 Y25.679 E13.89576
G1 X82.448 Y25.877 E13.92067
G1 X83.144 Y26.15 E13.94553
G1 X83.807 Y26.497 E13.97042
G1 X84.43 Y26.912 E13.99532
G1 X85.191 Y27.57 E14.02878
G1 X85.308 Y27.687 E14.03428
G1 X85.808 Y28.244 E14.05918
G1 X86.245 Y28.85 E14.08403
G1 X86.616 Y29.5 E14.10892
G1 X86.915 Y30.186 E14.13381
G1 X87.139 Y30.9 E14.1587
G1 X87.286 Y31.633 E14.18356
G1 X87.358 Y32.637 E14.21704
G1 X87.358 Y34.903 E14.29241
G1 X87.318 Y35.65 E14.31729
G1 X87.199 Y36.388 E14.34215
G1 X87.001 Y37.11 E14.36705
G1 X86.728 Y37.806 E14.39192
G1 X86.381 Y38.469 E14.41681
G1 X85.966 Y39.092 E14.44171
G1 X85.308 Y39.853 E14.47517
G1 X85.191 Y39.97 E14.48067
G1 X84.634 Y40.47 E14.50557
G1 X84.217 Y40.77 E14.52265
G1 X84.43 Y40.912 E14.53117
G1 X85.191 Y41.57 E14.56463
G1 X85.308 Y41.687 E14.57013
G1 X85.808 Y42.244 E14.59502
G1 X86.245 Y42.85 E14.61987
G1 X86.616 Y43.5 E14.64477
G1 X86.915 Y44.186 E14.66966
G1 X87.139 Y44.9 E14.69455
G1 X87.286 Y45.633 E14.71941
G1 X87.358 Y46.637 E14.75289
G1 X87.358 Y48.903 E14.82826
G1 X87.318 Y49.65 E14.85314
G1 X87.199 Y50.388 E14.878
G1 X87.001 Y51.11 E14.9029
G1 X86.728 Y51.806 E14.92777
G1 X86.381 Y52.469 E14.95266
G1 X85.966 Y53.092 E14.97755
G1 X85.308 Y53.853 E15.01101
G1 X85.191 Y53.97 E15.01652
G1 X84.634 Y54.47 E15.04141
G1 X84.028 Y54.907 E15.06626
G1 X83.378 Y55.278 E15.09116
G1 X82.692 Y55.577 E15.11604
G1 X81.978 Y55.801 E15.14093
G1 X81.245 Y55.948 E15.1658
G1 X80.241 Y56.02 E15.19928
G1 X78.219 Y56.02 E15.26653
G1 X77.834 Y55.999 E15.27935
G1 X77.822 Y56.001 E15.27976
G1 X77.302 Y56.02 E15.29707
G1 X67.08 Y56.02 E15.63705
G1 X66.333 Y55.98 E15.66193
G1 X65.595 Y55.861 E15.68679
G1 X64.873 Y55.663 E15.7117
G1 X64.177 Y55.39 E15.73656
G1 X63.514 Y55.043 E15.76145
G1 X62.632 Y54.425 E15.79727
G1 X62.519 Y54.332 E15.80214
G1 X61.967 Y53.826 E15.82704
G1 X61.473 Y53.265 E15.85191
G1 X61.185 Y52.856 E15.86854
G1 X55.37 Y52.851 E16.06195
G1 X46.092 Y52.851 E16.37054
G1 X40.537 Y52.856 E16.5553
G1 X39.996 Y53.014 E16.57404
G1 X39.801 Y53.049 E16.58063
G1 X39.529 Y53.185 E16.59075
G1 X38.828 Y53.447 E16.61564
G1 X38.104 Y53.633 E16.6405
G1 X37.363 Y53.741 E16.66541
G1 X36.728 Y53.77 E16.68655
G1 X30.355 Y53.77 E16.89852
G1 X29.608 Y53.73 E16.9234
G1 X28.87 Y53.611 E16.94826
G1 X28.148 Y53.413 E16.97316
G1 X27.452 Y53.14 E16.99803
G1 X26.789 Y52.793 E17.02292
G1 X26.166 Y52.378 E17.04781
G1 X25.405 Y51.72 E17.08127
G1 X25.288 Y51.603 E17.08678
G1 X24.788 Y51.046 E17.11167
G1 X24.351 Y50.44 E17.13652
G1 X23.98 Y49.79 E17.16141
G1 X23.681 Y49.104 E17.1863
G1 X23.457 Y48.39 E17.21119
G1 X23.31 Y47.657 E17.23606
G1 X23.238 Y46.653 E17.26954
G1 X23.238 Y42.887 E17.3948
G1 X23.278 Y42.14 E17.41968
G1 X23.397 Y41.402 E17.44454
G1 X23.573 Y40.76 E17.46668
G1 X23.457 Y40.39 E17.47958
G1 X23.31 Y39.657 E17.50444
G1 X23.238 Y38.653 E17.53792
G1 X23.238 Y34.887 E17.66318
G1 X23.278 Y34.14 E17.68806
G1 X23.397 Y33.402 E17.71292
G1 X23.595 Y32.68 E17.73782
G1 X23.868 Y31.984 E17.76269
G1 X24.215 Y31.321 E17.78758
G1 X24.63 Y30.698 E17.81248
G1 X25.288 Y29.937 E17.84594
G1 X25.405 Y29.82 E17.85144
G1 X25.962 Y29.32 E17.87633
G0 F6000 X26.229 Y29.619
G1 F1200 X26.82 Y29.196 E17.90051
G1 X27.454 Y28.842 E17.92466
G1 X28.123 Y28.559 E17.94882
G1 X28.819 Y28.351 E17.97298
G1 X29.534 Y28.221 E17.99715
G1 X30.355 Y28.17 E18.02451
G1 X36.732 Y28.17 E18.23661
G1 X37.457 Y28.21 E18.26076
G1 X38.174 Y28.329 E18.28493
G1 X38.873 Y28.527 E18.3091
G1 X39.546 Y28.8 E18.33325
G1 X39.732 Y28.9 E18.34028
G1 X40.433 Y29.083 E18.36437
G1 X55.391 Y29.088 E18.86188
G1 X61.402 Y29.083 E19.0618
G1 X61.677 Y28.667 E19.07839
G1 X62.142 Y28.11 E19.10252
G1 X62.722 Y27.559 E19.12913
G1 X62.829 Y27.469 E19.13378
G1 X63.409 Y27.033 E19.15792
G1 X64.035 Y26.663 E19.1821
G1 X64.697 Y26.364 E19.20626
G1 X65.387 Y26.14 E19.23039
G1 X66.099 Y25.993 E19.25457
G1 X67.077 Y25.92 E19.28719
G1 X77.301 Y25.92 E19.62724
G1 X77.787 Y25.947 E19.64343
G1 X78.218 Y25.92 E19.65779
G1 X80.241 Y25.92 E19.72508
G1 X80.966 Y25.96 E19.74923
G1 X81.683 Y26.079 E19.7734
G1 X82.382 Y26.277 E19.79757
G1 X83.055 Y26.55 E19.82172
G1 X83.694 Y26.895 E19.84588
G1 X84.291 Y27.309 E19.87004
G1 X84.908 Y27.853 E19.8974
G1 X85.025 Y27.97 E19.9029
G1 X85.509 Y28.511 E19.92704
G1 X85.932 Y29.102 E19.95122
G1 X86.286 Y29.736 E19.97537
G1 X86.569 Y30.405 E19.99953
G1 X86.777 Y31.101 E20.02369
G1 X86.907 Y31.816 E20.04786
G1 X86.958 Y32.637 E20.07522
G1 X86.958 Y34.903 E20.15059
G1 X86.918 Y35.628 E20.17474
G1 X86.799 Y36.345 E20.19891
G1 X86.601 Y37.044 E20.22307
G1 X86.328 Y37.717 E20.24723
G1 X85.983 Y38.356 E20.27138
G1 X85.569 Y38.953 E20.29555
G1 X85.025 Y39.57 E20.32291
G1 X84.908 Y39.687 E20.32841
G1 X84.367 Y40.171 E20.35255
G1 X83.776 Y40.594 E20.37673
G1 X83.462 Y40.77 E20.3887
G1 X83.694 Y40.895 E20.39746
G1 X84.291 Y41.309 E20.42163
G1 X84.908 Y41.853 E20.44899
G1 X85.025 Y41.97 E20.45449
G1 X85.509 Y42.511 E20.47863
G1 X85.932 Y43.102 E20.50281
G1 X86.286 Y43.736 E20.52696
G1 X86.569 Y44.405 E20.55112
G1 X86.777 Y45.101 E20.57528
G1 X86.907 Y45.816 E20.59945
G1 X86.958 Y46.637 E20.62681
G1 X86.958 Y48.903 E20.70218
G1 X86.918 Y49.628 E20.72633
G1 X86.799 Y50.345 E20.7505
G1 X86.601 Y51.044 E20.77466
G1 X86.328 Y51.717 E20.79882
G1 X85.983 Y52.356 E20.82297
G1 X85.569 Y52.953 E20.84713
G1 X85.025 Y53.57 E20.87449
G1 X84.908 Y53.687 E20.88
G1 X84.367 Y54.171 E20.90414
G1 X83.776 Y54.594 E20.92831
G1 X83.142 Y54.948 E20.95246
G1 X82.473 Y55.231 E20.97662
G1 X81.777 Y55.439 E21.00079
G1 X81.062 Y55.569 E21.02496
G1 X80.241 Y55.62 E21.05232
G1 X78.219 Y55.62 E21.11957
G1 X77.707 Y55.592 E21.13662
G1 X77.302 Y55.62 E21.15012
G1 X67.08 Y55.62 E21.49011
G1 X66.355 Y55.58 E21.51426
G1 X65.638 Y55.461 E21.53843
