;FLAVOR:Marlin
;TIME:6386
;Filament used: 3.27059m
;Layer height: 0.2
;MINX:23.941
;MINY:29.601
;MINZ:0.2
;MAXX:89.661
;MAXY:61.701
;MAXZ:27.24
;Generated with Cura_SteamEngine 4.10.0
M140 S50
M105
M190 S50
M104 S195
M105
M109 S195
M82 ;absolute extrusion mode
M201 X500.00 Y500.00 Z100.00 E5000.00 ;Setup machine max acceleration
M203 X500.00 Y500.00 Z10.00 E50.00 ;Setup machine max feedrate
M204 P500.00 R1000.00 T500.00 ;Setup Print/Retract/Travel acceleration
M205 X8.00 Y8.00 Z0.40 E5.00 ;Setup Jerk
M220 S100 ;Reset Feedrate
M221 S100 ;Reset Flowrate

G28 ;Home

G92 E0 ;Reset Extruder
G1 Z2.0 F3000 ;Move Z Axis up
G1 X10.1 Y20 Z0.28 F5000.0 ;Move to start position
G1 X10.1 Y200.0 Z0.28 F1500.0 E15 ;Draw the first line
G1 X10.4 Y200.0 Z0.28 F5000.0 ;Move to side a little
G1 X10.4 Y20 Z0.28 F1500.0 E30 ;Draw the second line
G92 E0 ;Reset Extruder
G1 Z2.0 F3000 ;Move Z Axis up

G92 E0
G92 E0
G1 F2700 E-5
;LAYER_COUNT:155
;LAYER:0
M107
G0 F6000 X26.929 Y33.802 Z0.2
;TYPE:SKIRT
G1 F2700 E0
G1 F1200 X27.565 Y33.335 E0.02624
G1 X28.245 Y32.934 E0.0525
G1 X28.963 Y32.604 E0.07878
G1 X29.71 Y32.349 E0.10504
G1 X30.479 Y32.17 E0.1313
G1 X31.263 Y32.07 E0.15758
G1 X31.858 Y32.047 E0.17739
G1 X37.23 Y32.047 E0.35606
G1 X37.479 Y31.989 E0.36457
G1 X38.263 Y31.889 E0.39085
G1 X38.875 Y31.866 E0.41122
G1 X39.664 Y31.906 E0.4375
G1 X40.444 Y32.025 E0.46374
G1 X41.209 Y32.223 E0.49002
G1 X41.949 Y32.497 E0.51627
G1 X42.495 Y32.765 E0.5365
G1 X47.576 Y32.769 E0.70549
G1 X62.276 Y32.769 E1.19442
G1 X62.485 Y32.492 E1.20596
G1 X63.021 Y31.912 E1.23223
G1 X63.506 Y31.476 E1.25392
G1 X63.615 Y31.386 E1.25862
G1 X64.248 Y30.915 E1.28486
G1 X64.926 Y30.51 E1.31113
G1 X65.642 Y30.176 E1.33741
G1 X66.387 Y29.916 E1.36365
G1 X67.156 Y29.732 E1.38995
G1 X67.938 Y29.628 E1.41619
G1 X68.581 Y29.601 E1.43759
G1 X78.804 Y29.601 E1.77761
G1 X79.201 Y29.621 E1.79083
G1 X79.721 Y29.601 E1.80814
G1 X81.744 Y29.601 E1.87543
G1 X82.533 Y29.641 E1.9017
G1 X83.313 Y29.76 E1.92794
G1 X84.078 Y29.958 E1.95423
G1 X84.818 Y30.232 E1.98047
G1 X85.527 Y30.58 E2.00674
G1 X86.198 Y30.998 E2.03304
G1 X86.822 Y31.481 E2.05928
G1 X87.259 Y31.886 E2.0791
G1 X87.376 Y32.003 E2.0846
G1 X87.906 Y32.589 E2.11088
G1 X88.373 Y33.225 E2.13712
G1 X88.774 Y33.905 E2.16338
G1 X89.104 Y34.623 E2.18966
G1 X89.359 Y35.37 E2.21592
G1 X89.538 Y36.139 E2.24218
G1 X89.638 Y36.923 E2.26846
G1 X89.661 Y37.518 E2.28827
G1 X89.661 Y39.784 E2.36364
G1 X89.621 Y40.573 E2.38991
G1 X89.502 Y41.353 E2.41615
G1 X89.304 Y42.118 E2.44244
G1 X89.03 Y42.858 E2.46868
G1 X88.682 Y43.567 E2.49495
G1 X88.264 Y44.238 E2.52125
G1 X87.781 Y44.862 E2.54749
G1 X87.376 Y45.299 E2.56731
G1 X87.259 Y45.416 E2.57281
G1 X87.002 Y45.648 E2.58433
G1 X87.259 Y45.886 E2.59598
G1 X87.376 Y46.003 E2.60148
G1 X87.906 Y46.589 E2.62776
G1 X88.373 Y47.225 E2.654
G1 X88.774 Y47.905 E2.68026
G1 X89.104 Y48.623 E2.70654
G1 X89.359 Y49.37 E2.7328
G1 X89.538 Y50.139 E2.75906
G1 X89.638 Y50.923 E2.78534
G1 X89.661 Y51.518 E2.80515
G1 X89.661 Y53.784 E2.88052
G1 X89.621 Y54.573 E2.90679
G1 X89.502 Y55.353 E2.93303
G1 X89.304 Y56.118 E2.95932
G1 X89.03 Y56.858 E2.98556
G1 X88.682 Y57.567 E3.01183
G1 X88.264 Y58.238 E3.03812
G1 X87.781 Y58.862 E3.06437
G1 X87.376 Y59.299 E3.08419
G1 X87.259 Y59.416 E3.08969
G1 X86.673 Y59.946 E3.11597
G1 X86.037 Y60.413 E3.14221
G1 X85.357 Y60.814 E3.16847
G1 X84.639 Y61.144 E3.19475
G1 X83.892 Y61.399 E3.22101
G1 X83.123 Y61.578 E3.24727
G1 X82.339 Y61.678 E3.27355
G1 X81.744 Y61.701 E3.29336
G1 X79.722 Y61.701 E3.36061
G1 X79.308 Y61.68 E3.3744
G1 X79.21 Y61.69 E3.37767
G1 X78.805 Y61.701 E3.39115
G1 X68.58 Y61.701 E3.73123
G1 X67.791 Y61.661 E3.75751
G1 X67.011 Y61.542 E3.78375
G1 X66.246 Y61.344 E3.81004
G1 X65.506 Y61.07 E3.83628
G1 X64.797 Y60.722 E3.86255
G1 X64.126 Y60.304 E3.88884
G1 X63.635 Y59.933 E3.90931
G1 X63.524 Y59.842 E3.91409
G1 X62.939 Y59.311 E3.94036
G1 X62.411 Y58.724 E3.96662
G1 X62.271 Y58.532 E3.97453
G1 X47.575 Y58.532 E4.46332
G1 X42.503 Y58.535 E4.63201
G1 X42.396 Y58.596 E4.63611
G1 X41.674 Y58.916 E4.66238
G1 X40.924 Y59.162 E4.68863
G1 X40.152 Y59.331 E4.71491
G1 X39.368 Y59.42 E4.74116
G1 X38.858 Y59.436 E4.75813
G1 X38.069 Y59.396 E4.7844
G1 X37.289 Y59.277 E4.81065
G1 X37.204 Y59.255 E4.81357
G1 X31.858 Y59.255 E4.99138
G1 X31.069 Y59.215 E5.01765
G1 X30.289 Y59.096 E5.04389
G1 X29.524 Y58.898 E5.07018
G1 X28.784 Y58.624 E5.09642
G1 X28.075 Y58.276 E5.12269
G1 X27.404 Y57.858 E5.14899
G1 X26.78 Y57.375 E5.17523
G1 X26.343 Y56.97 E5.19505
G1 X26.226 Y56.853 E5.20055
G1 X25.696 Y56.267 E5.22683
G1 X25.229 Y55.631 E5.25307
G1 X24.828 Y54.951 E5.27933
G1 X24.498 Y54.233 E5.30561
G1 X24.243 Y53.486 E5.33187
G1 X24.064 Y52.717 E5.35813
G1 X23.964 Y51.933 E5.38441
G1 X23.941 Y51.338 E5.40422
G1 X23.941 Y47.572 E5.52948
G1 X23.981 Y46.783 E5.55575
G1 X24.1 Y46.003 E5.582
G1 X24.191 Y45.653 E5.59402
G1 X24.064 Y45.109 E5.6126
G1 X23.964 Y44.325 E5.63889
G1 X23.941 Y43.73 E5.6587
G1 X23.941 Y39.964 E5.78395
G1 X23.981 Y39.175 E5.81023
G1 X24.1 Y38.395 E5.83647
G1 X24.298 Y37.63 E5.86275
G1 X24.572 Y36.89 E5.889
G1 X24.92 Y36.181 E5.91527
G1 X25.338 Y35.51 E5.94156
G1 X25.821 Y34.886 E5.96781
G1 X26.226 Y34.449 E5.98762
G1 X26.343 Y34.332 E5.99313
G1 X26.929 Y33.802 E6.01941
G0 F6000 X27.197 Y34.1
G1 F1200 X27.819 Y33.647 E6.045
G1 X28.484 Y33.261 E6.07057
G1 X29.186 Y32.946 E6.09617
G1 X29.917 Y32.706 E6.12176
G1 X30.668 Y32.543 E6.14732
G1 X31.433 Y32.459 E6.17291
G1 X31.858 Y32.447 E6.18705
G1 X37.276 Y32.447 E6.36726
G1 X37.668 Y32.362 E6.3806
G1 X38.433 Y32.278 E6.4062
G1 X38.875 Y32.266 E6.4209
G1 X39.643 Y32.306 E6.44648
G1 X40.403 Y32.425 E6.47207
G1 X41.146 Y32.623 E6.49764
G1 X41.865 Y32.897 E6.52323
G1 X42.395 Y33.165 E6.54299
G1 X47.575 Y33.169 E6.71527
G1 X62.472 Y33.169 E7.21075
G1 X62.856 Y32.672 E7.23164
G1 X63.387 Y32.115 E7.25723
G1 X63.76 Y31.785 E7.2738
G1 X63.869 Y31.695 E7.2785
G1 X64.487 Y31.237 E7.30408
G1 X65.149 Y30.845 E7.32967
G1 X65.848 Y30.524 E7.35526
G1 X66.577 Y30.278 E7.38085
G1 X67.327 Y30.108 E7.40642
G1 X68.091 Y30.017 E7.43201
G1 X68.581 Y30.001 E7.44832
G1 X78.804 Y30.001 E7.78834
G1 X79.212 Y30.022 E7.80193
G1 X79.296 Y30.013 E7.80474
G1 X79.721 Y30.001 E7.81888
G1 X81.744 Y30.001 E7.88616
G1 X82.512 Y30.041 E7.91174
G1 X83.272 Y30.16 E7.93733
G1 X84.015 Y30.358 E7.9629
G1 X84.734 Y30.632 E7.98849
G1 X85.42 Y30.979 E8.01406
G1 X86.067 Y31.395 E8.03965
G1 X86.667 Y31.876 E8.06522
G1 X86.977 Y32.168 E8.07939
G1 X87.094 Y32.285 E8.08489
G1 X87.608 Y32.857 E8.11047
G1 X88.061 Y33.479 E8.13606
G1 X88.447 Y34.144 E8.16164
G1 X88.762 Y34.846 E8.18723
G1 X89.002 Y35.577 E8.21282
G1 X89.165 Y36.328 E8.23838
G1 X89.249 Y37.093 E8.26397
G1 X89.261 Y37.518 E8.27812
G1 X89.261 Y39.784 E8.35348
G1 X89.221 Y40.552 E8.37906
G1 X89.102 Y41.312 E8.40465
G1 X88.904 Y42.055 E8.43022
G1 X88.63 Y42.774 E8.45581
G1 X88.283 Y43.46 E8.48138
G1 X87.867 Y44.107 E8.50697
G1 X87.386 Y44.707 E8.53254
G1 X87.094 Y45.017 E8.54671
G1 X86.977 Y45.134 E8.55221
G1 X86.393 Y45.657 E8.57829
G1 X86.667 Y45.876 E8.58995
G1 X86.977 Y46.168 E8.60412
G1 X87.094 Y46.285 E8.60962
G1 X87.608 Y46.857 E8.6352
G1 X88.061 Y47.479 E8.66079
G1 X88.447 Y48.144 E8.68636
G1 X88.762 Y48.846 E8.71196
G1 X89.002 Y49.577 E8.73755
G1 X89.165 Y50.328 E8.76311
G1 X89.249 Y51.093 E8.7887
G1 X89.261 Y51.518 E8.80284
G1 X89.261 Y53.784 E8.87821
G1 X89.221 Y54.552 E8.90379
G1 X89.102 Y55.312 E8.92938
G1 X88.904 Y56.055 E8.95495
G1 X88.63 Y56.774 E8.98054
G1 X88.283 Y57.46 E9.00611
G1 X87.867 Y58.107 E9.03169
G1 X87.386 Y58.707 E9.05727
G1 X87.094 Y59.017 E9.07144
G1 X86.977 Y59.134 E9.07694
G1 X86.405 Y59.648 E9.10252
G1 X85.783 Y60.101 E9.12811
G1 X85.118 Y60.487 E9.15368
G1 X84.416 Y60.802 E9.17928
G1 X83.685 Y61.042 E9.20487
G1 X82.934 Y61.205 E9.23043
G1 X82.169 Y61.289 E9.25602
G1 X81.744 Y61.301 E9.27016
G1 X79.722 Y61.301 E9.33742
G1 X79.241 Y61.276 E9.35344
G1 X78.805 Y61.301 E9.36796
G1 X68.58 Y61.301 E9.70805
G1 X67.812 Y61.261 E9.73362
G1 X67.052 Y61.142 E9.75921
G1 X66.309 Y60.944 E9.78478
G1 X65.59 Y60.67 E9.81038
G1 X64.904 Y60.323 E9.83594
G1 X64.257 Y59.907 E9.86153
G1 X63.888 Y59.624 E9.877
G1 X63.777 Y59.533 E9.88177
G1 X63.209 Y59.015 E9.90734
G1 X62.697 Y58.441 E9.93292
G1 X62.474 Y58.132 E9.94559
G1 X47.575 Y58.132 E10.44114
G1 X42.392 Y58.135 E10.61352
G1 X42.09 Y58.301 E10.62499
G1 X41.381 Y58.599 E10.65057
G1 X40.645 Y58.821 E10.67613
G1 X39.889 Y58.966 E10.70174
G1 X38.858 Y59.036 E10.73611
G1 X38.09 Y58.996 E10.76169
G1 X37.33 Y58.877 E10.78727
G1 X37.247 Y58.855 E10.79013
G1 X31.858 Y58.855 E10.96937
G1 X31.09 Y58.815 E10.99495
G1 X30.33 Y58.696 E11.02053
G1 X29.587 Y58.498 E11.04611
G1 X28.868 Y58.224 E11.0717
G1 X28.182 Y57.877 E11.09727
G1 X27.535 Y57.461 E11.12285
G1 X26.935 Y56.98 E11.14843
G1 X26.625 Y56.688 E11.16259
G1 X26.508 Y56.571 E11.1681
G1 X25.994 Y55.999 E11.19367
G1 X25.541 Y55.377 E11.21927
G1 X25.155 Y54.712 E11.24484
G1 X24.84 Y54.01 E11.27043
G1 X24.6 Y53.279 E11.29602
G1 X24.437 Y52.528 E11.32158
G1 X24.353 Y51.763 E11.34718
G1 X24.341 Y51.338 E11.36132
G1 X24.341 Y47.572 E11.48658
G1 X24.381 Y46.804 E11.51216
G1 X24.5 Y46.044 E11.53774
G1 X24.6 Y45.67 E11.55062
G1 X24.437 Y44.92 E11.57614
G1 X24.353 Y44.155 E11.60174
G1 X24.341 Y43.73 E11.61588
G1 X24.341 Y39.964 E11.74114
G1 X24.381 Y39.196 E11.76672
G1 X24.5 Y38.436 E11.7923
G1 X24.698 Y37.693 E11.81788
G1 X24.972 Y36.974 E11.84347
G1 X25.319 Y36.288 E11.86904
G1 X25.735 Y35.641 E11.89462
G1 X26.216 Y35.041 E11.9202
G1 X26.508 Y34.731 E11.93437
G1 X26.625 Y34.614 E11.93987
G1 X27.197 Y34.1 E11.96545
G0 F6000 X27.465 Y34.397
G1 F1200 X28.071 Y33.96 E11.9903
G1 X28.721 Y33.589 E12.01519
G1 X29.407 Y33.29 E12.04008
G1 X30.121 Y33.066 E12.06497
G1 X30.854 Y32.919 E12.08983
G1 X31.858 Y32.847 E12.12331
G1 X37.31 Y32.847 E12.30465
G1 X37.854 Y32.738 E12.3231
G1 X38.875 Y32.666 E12.35714
G1 X39.622 Y32.706 E12.38202
G1 X40.36 Y32.825 E12.40689
G1 X41.082 Y33.023 E12.43179
G1 X41.778 Y33.296 E12.45665
G1 X42.292 Y33.565 E12.47595
G1 X47.575 Y33.569 E12.65166
G1 X62.681 Y33.569 E13.15409
G1 X62.762 Y33.441 E13.15913
G1 X63.227 Y32.855 E13.18401
G1 X64.015 Y32.093 E13.22047
G1 X64.124 Y32.003 E13.22517
G1 X64.726 Y31.558 E13.25007
G1 X65.371 Y31.18 E13.27493
G1 X66.053 Y30.873 E13.29981
G1 X66.764 Y30.641 E13.32468
G1 X67.496 Y30.486 E13.34957
G1 X68.581 Y30.401 E13.38577
G1 X78.804 Y30.401 E13.72579
G1 X79.329 Y30.429 E13.74327
G1 X79.721 Y30.401 E13.75634
G1 X81.744 Y30.401 E13.82363
G1 X82.491 Y30.441 E13.84851
G1 X83.229 Y30.56 E13.87337
G1 X83.951 Y30.758 E13.89827
G1 X84.647 Y31.031 E13.92314
G1 X85.31 Y31.378 E13.94803
G1 X85.933 Y31.793 E13.97293
G1 X86.694 Y32.451 E14.00639
G1 X86.811 Y32.568 E14.01189
G1 X87.311 Y33.125 E14.03678
G1 X87.748 Y33.731 E14.06163
G1 X88.119 Y34.381 E14.08653
G1 X88.418 Y35.067 E14.11142
G1 X88.642 Y35.781 E14.13631
G1 X88.789 Y36.514 E14.16117
G1 X88.861 Y37.518 E14.19465
G1 X88.861 Y39.784 E14.27002
G1 X88.821 Y40.531 E14.2949
G1 X88.702 Y41.269 E14.31976
G1 X88.504 Y41.991 E14.34466
G1 X88.231 Y42.687 E14.36953
G1 X87.884 Y43.35 E14.39442
G1 X87.469 Y43.973 E14.41931
G1 X86.811 Y44.734 E14.45277
G1 X86.694 Y44.851 E14.45828
G1 X86.137 Y45.351 E14.48317
G1 X85.72 Y45.651 E14.50026
G1 X85.933 Y45.793 E14.50877
G1 X86.694 Y46.451 E14.54223
G1 X86.811 Y46.568 E14.54774
G1 X87.311 Y47.125 E14.57263
G1 X87.748 Y47.731 E14.59748
G1 X88.119 Y48.381 E14.62237
G1 X88.418 Y49.067 E14.64726
G1 X88.642 Y49.781 E14.67215
G1 X88.789 Y50.514 E14.69702
G1 X88.861 Y51.518 E14.7305
G1 X88.861 Y53.784 E14.80586
G1 X88.821 Y54.531 E14.83075
G1 X88.702 Y55.269 E14.85561
G1 X88.504 Y55.991 E14.88051
G1 X88.231 Y56.687 E14.90538
G1 X87.884 Y57.35 E14.93026
G1 X87.469 Y57.973 E14.95516
G1 X86.811 Y58.734 E14.98862
G1 X86.694 Y58.851 E14.99413
G1 X86.137 Y59.351 E15.01902
G1 X85.531 Y59.788 E15.04387
G1 X84.881 Y60.159 E15.06876
G1 X84.195 Y60.458 E15.09365
G1 X83.481 Y60.682 E15.11854
G1 X82.748 Y60.829 E15.14341
G1 X81.744 Y60.901 E15.17689
G1 X79.722 Y60.901 E15.24414
G1 X79.337 Y60.88 E15.25696
G1 X79.325 Y60.882 E15.25737
G1 X78.805 Y60.901 E15.27467
G1 X68.58 Y60.901 E15.61476
G1 X67.833 Y60.861 E15.63964
G1 X67.095 Y60.742 E15.6645
G1 X66.373 Y60.544 E15.6894
G1 X65.677 Y60.271 E15.71427
G1 X65.014 Y59.924 E15.73916
G1 X64.142 Y59.314 E15.77455
G1 X64.031 Y59.223 E15.77933
G1 X63.479 Y58.719 E15.80419
G1 X62.983 Y58.158 E15.82909
G1 X62.681 Y57.732 E15.84646
G1 X47.574 Y57.732 E16.34892
G1 X42.296 Y57.735 E16.52447
G1 X41.786 Y58.002 E16.54362
G1 X41.09 Y58.276 E16.56849
G1 X40.369 Y58.475 E16.59337
G1 X39.631 Y58.595 E16.61824
G1 X38.858 Y58.636 E16.64399
G1 X38.111 Y58.596 E16.66887
G1 X37.373 Y58.477 E16.69373
G1 X37.293 Y58.455 E16.69649
G1 X31.858 Y58.455 E16.87726
G1 X31.111 Y58.415 E16.90214
G1 X30.373 Y58.296 E16.927
G1 X29.651 Y58.098 E16.9519
G1 X28.955 Y57.825 E16.97677
G1 X28.292 Y57.478 E17.00166
G1 X27.669 Y57.063 E17.02656
G1 X26.908 Y56.405 E17.06002
G1 X26.791 Y56.288 E17.06552
G1 X26.291 Y55.731 E17.09041
G1 X25.854 Y55.125 E17.11526
G1 X25.483 Y54.475 E17.14016
G1 X25.184 Y53.789 E17.16505
G1 X24.96 Y53.075 E17.18994
G1 X24.813 Y52.342 E17.2148
G1 X24.741 Y51.338 E17.24828
G1 X24.741 Y47.572 E17.37354
G1 X24.781 Y46.825 E17.39842
G1 X24.9 Y46.087 E17.42328
G1 X25.019 Y45.654 E17.43822
G1 X24.96 Y45.467 E17.44474
G1 X24.813 Y44.734 E17.4696
G1 X24.741 Y43.73 E17.50308
G1 X24.741 Y39.964 E17.62834
G1 X24.781 Y39.217 E17.65322
G1 X24.9 Y38.479 E17.67808
G1 X25.098 Y37.757 E17.70298
G1 X25.371 Y37.061 E17.72785
G1 X25.718 Y36.398 E17.75274
G1 X26.133 Y35.775 E17.77764
G1 X26.791 Y35.014 E17.8111
G1 X26.908 Y34.897 E17.8166
G1 X27.465 Y34.397 E17.8415
G0 F6000 X27.732 Y34.696
G1 F1200 X28.323 Y34.273 E17.86567
G1 X28.957 Y33.919 E17.88982
G1 X29.626 Y33.636 E17.91398
G1 X30.322 Y33.428 E17.93814
G1 X31.037 Y33.298 E17.96231
G1 X31.858 Y33.247 E17.98967
G1 X37.322 Y33.247 E18.1714
G1 X38.037 Y33.117 E18.19558
G1 X38.875 Y33.066 E18.2235
G1 X39.6 Y33.106 E18.24765
G1 X40.317 Y33.225 E18.27182
G1 X41.016 Y33.423 E18.29599
G1 X41.689 Y33.696 E18.32014
G1 X42.187 Y33.965 E18.33897
G1 X47.575 Y33.969 E18.51817
G1 X62.902 Y33.969 E19.02795
G1 X63.138 Y33.604 E19.04241
G1 X63.597 Y33.042 E19.06654
G1 X64.27 Y32.402 E19.09743
G1 X64.379 Y32.312 E19.10213
G1 X64.963 Y31.881 E19.12627
G1 X65.592 Y31.517 E19.15045
G1 X66.257 Y31.224 E19.17462
G1 X66.95 Y31.006 E19.19878
G1 X67.662 Y30.865 E19.22292
G1 X68.581 Y30.801 E19.25356
G1 X78.804 Y30.801 E19.59358
G1 X79.29 Y30.828 E19.60977
G1 X79.721 Y30.801 E19.62413
G1 X81.744 Y30.801 E19.69142
G1 X82.469 Y30.841 E19.71557
G1 X83.186 Y30.96 E19.73974
G1 X83.885 Y31.158 E19.7639
G1 X84.558 Y31.431 E19.78806
G1 X85.197 Y31.776 E19.81221
G1 X85.794 Y32.19 E19.83638
G1 X86.411 Y32.734 E19.86373
G1 X86.528 Y32.851 E19.86924
G1 X87.012 Y33.392 E19.89338
G1 X87.435 Y33.983 E19.91755
G1 X87.789 Y34.617 E19.94171
G1 X88.072 Y35.286 E19.96587
G1 X88.28 Y35.982 E19.99003
G1 X88.41 Y36.697 E20.0142
G1 X88.461 Y37.518 E20.04156
G1 X88.461 Y39.784 E20.11692
G1 X88.421 Y40.509 E20.14107
G1 X88.302 Y41.226 E20.16525
G1 X88.104 Y41.925 E20.18941
G1 X87.831 Y42.598 E20.21357
G1 X87.486 Y43.237 E20.23772
G1 X87.072 Y43.834 E20.26188
G1 X86.528 Y44.451 E20.28924
G1 X86.411 Y44.568 E20.29475
G1 X85.87 Y45.052 E20.31889
G1 X85.279 Y45.475 E20.34306
G1 X84.965 Y45.651 E20.35503
G1 X85.197 Y45.776 E20.3638
G1 X85.794 Y46.19 E20.38796
G1 X86.411 Y46.734 E20.41532
G1 X86.528 Y46.851 E20.42083
G1 X87.012 Y47.392 E20.44497
G1 X87.435 Y47.983 E20.46914
G1 X87.789 Y48.617 E20.49329
G1 X88.072 Y49.286 E20.51745
G1 X88.28 Y49.982 E20.54161
G1 X88.41 Y50.697 E20.56578
G1 X88.461 Y51.518 E20.59314
G1 X88.461 Y53.784 E20.66851
G1 X88.421 Y54.509 E20.69266
G1 X88.302 Y55.226 E20.71684
G1 X88.104 Y55.925 E20.741
G1 X87.831 Y56.598 E20.76515
G1 X87.486 Y57.237 E20.78931
G1 X87.072 Y57.834 E20.81347
G1 X86.528 Y58.451 E20.84083
G1 X86.411 Y58.568 E20.84633
G1 X85.87 Y59.052 E20.87048
G1 X85.279 Y59.475 E20.89465
G1 X84.645 Y59.829 E20.9188
G1 X83.976 Y60.112 E20.94296
G1 X83.28 Y60.32 E20.96712
G1 X82.565 Y60.45 E20.99129
G1 X81.744 Y60.501 E21.01865
