;FLAVOR:Marlin
;TIME:1211
;Filament used: 0.361319m
;Layer height: 0.2
;MINX:65.573
;MINY:79.965
;MINZ:0.2
;MAXX:106.79
;MAXY:105.565
;MAXZ:13.64
;Generated with Cura_SteamEngine 4.10.0
M140 S50
M105
M190 S50
M104 S195
M105
M109 S195
M82 ;absolute extrusion mode
M201 X500.00 Y500.00 Z100.00 E5000.00 ;Setup machine max acceleration
M203 X500.00 Y500.00 Z10.00 E50.00 ;Setup machine max feedrate
M204 P500.00 R1000.00 T500.00 ;Setup Print/Retract/Travel acceleration
M205 X8.00 Y8.00 Z0.40 E5.00 ;Setup Jerk
M220 S100 ;Reset Feedrate
M221 S100 ;Reset Flowrate

G28 ;Home

G92 E0 ;Reset Extruder
G1 Z2.0 F3000 ;Move Z Axis up
G1 X10.1 Y20 Z0.28 F5000.0 ;Move to start position
G1 X10.1 Y200.0 Z0.28 F1500.0 E15 ;Draw the first line
G1 X10.4 Y200.0 Z0.28 F5000.0 ;Move to side a little
G1 X10.4 Y20 Z0.28 F1500.0 E30 ;Draw the second line
G92 E0 ;Reset Extruder
G1 Z2.0 F3000 ;Move Z Axis up

G92 E0
G92 E0
G1 F2100 E-5
;LAYER_COUNT:86
;LAYER:0
M107
G0 F6000 X68.561 Y85.97 Z0.2
;TYPE:SKIRT
G1 F2100 E0
G1 F1200 X69.197 Y85.503 E0.02624
G1 X69.877 Y85.102 E0.0525
G1 X70.595 Y84.772 E0.07878
G1 X71.342 Y84.517 E0.10504
G1 X72.111 Y84.338 E0.1313
G1 X72.895 Y84.238 E0.15758
G1 X73.49 Y84.215 E0.17739
G1 X78.525 Y84.215 E0.34485
G1 X79.314 Y84.255 E0.37113
G1 X80.094 Y84.374 E0.39737
G1 X80.859 Y84.572 E0.42365
G1 X81.599 Y84.846 E0.4499
G1 X82.308 Y85.194 E0.47617
G1 X82.979 Y85.612 E0.50246
G1 X83.603 Y86.095 E0.52871
G1 X83.736 Y86.219 E0.53476
G1 X83.783 Y86.049 E0.54062
G1 X84.067 Y85.312 E0.56689
G1 X84.424 Y84.608 E0.59315
G1 X84.85 Y83.943 E0.61941
G1 X85.342 Y83.325 E0.64569
G1 X85.893 Y82.76 E0.67193
G1 X86.499 Y82.253 E0.69821
G1 X87.153 Y81.811 E0.72447
G1 X87.849 Y81.436 E0.75076
G1 X88.309 Y81.236 E0.76745
G1 X90.033 Y80.55 E0.82916
G1 X90.781 Y80.295 E0.85544
G1 X91.552 Y80.117 E0.88176
G1 X91.732 Y80.085 E0.88784
G1 X92.515 Y79.987 E0.91409
G1 X93.097 Y79.965 E0.93346
G1 X98.873 Y79.965 E1.12557
G1 X99.662 Y80.005 E1.15185
G1 X100.442 Y80.124 E1.17809
G1 X101.207 Y80.322 E1.20437
G1 X101.947 Y80.596 E1.23062
G1 X102.656 Y80.944 E1.25689
G1 X103.327 Y81.362 E1.28318
G1 X103.951 Y81.845 E1.30943
G1 X104.388 Y82.25 E1.32924
G1 X104.505 Y82.367 E1.33475
G1 X105.035 Y82.953 E1.36103
G1 X105.502 Y83.589 E1.38727
G1 X105.903 Y84.269 E1.41353
G1 X106.233 Y84.987 E1.43981
G1 X106.488 Y85.734 E1.46606
G1 X106.667 Y86.503 E1.49232
G1 X106.767 Y87.287 E1.51861
G1 X106.79 Y87.882 E1.53841
G1 X106.79 Y93.398 E1.72188
G1 X106.75 Y94.187 E1.74815
G1 X106.631 Y94.967 E1.7744
G1 X106.433 Y95.732 E1.80068
G1 X106.159 Y96.472 E1.82692
G1 X105.811 Y97.181 E1.85319
G1 X105.393 Y97.852 E1.87949
G1 X104.91 Y98.476 E1.90573
G1 X104.505 Y98.913 E1.92555
G1 X104.388 Y99.03 E1.93105
G1 X103.802 Y99.56 E1.95733
G1 X103.166 Y100.027 E1.98357
G1 X102.486 Y100.428 E2.00983
G1 X101.768 Y100.758 E2.03611
G1 X101.021 Y101.013 E2.06237
G1 X100.252 Y101.192 E2.08863
G1 X99.468 Y101.292 E2.11491
G1 X98.873 Y101.315 E2.13472
G1 X94.493 Y101.315 E2.2804
G1 X94.163 Y101.447 E2.29222
G1 X93.415 Y101.703 E2.31852
G1 X92.646 Y101.881 E2.34477
G1 X91.863 Y101.981 E2.37102
G1 X91.074 Y102.002 E2.39727
G1 X90.286 Y101.942 E2.42356
G1 X89.509 Y101.803 E2.44981
G1 X88.749 Y101.586 E2.4761
G1 X88.016 Y101.294 E2.50234
G1 X87.316 Y100.929 E2.5286
G1 X86.656 Y100.494 E2.55489
G1 X86.072 Y100.018 E2.57995
G1 X85.811 Y100.722 E2.60492
G1 X85.463 Y101.431 E2.63119
G1 X85.045 Y102.102 E2.65748
G1 X84.562 Y102.726 E2.68373
G1 X84.157 Y103.163 E2.70355
G1 X84.04 Y103.28 E2.70905
G1 X83.454 Y103.81 E2.73533
G1 X82.818 Y104.277 E2.76157
G1 X82.138 Y104.678 E2.78783
G1 X81.42 Y105.008 E2.81411
G1 X80.673 Y105.263 E2.84037
G1 X79.904 Y105.442 E2.86663
G1 X79.12 Y105.542 E2.89291
G1 X78.525 Y105.565 E2.91272
G1 X73.49 Y105.565 E3.08018
G1 X72.701 Y105.525 E3.10646
G1 X71.921 Y105.406 E3.1327
G1 X71.156 Y105.208 E3.15898
G1 X70.416 Y104.934 E3.18523
G1 X69.707 Y104.586 E3.2115
G1 X69.036 Y104.168 E3.23779
G1 X68.412 Y103.685 E3.26404
G1 X67.975 Y103.28 E3.28385
G1 X67.858 Y103.163 E3.28936
G1 X67.328 Y102.577 E3.31564
G1 X66.861 Y101.941 E3.34188
G1 X66.46 Y101.261 E3.36814
G1 X66.13 Y100.543 E3.39442
G1 X65.875 Y99.796 E3.42067
G1 X65.696 Y99.027 E3.44693
G1 X65.596 Y98.243 E3.47322
G1 X65.573 Y97.648 E3.49303
G1 X65.573 Y92.132 E3.67649
G1 X65.613 Y91.343 E3.70276
G1 X65.732 Y90.563 E3.72901
G1 X65.93 Y89.798 E3.75529
G1 X66.204 Y89.058 E3.78154
G1 X66.552 Y88.349 E3.8078
G1 X66.97 Y87.678 E3.8341
G1 X67.453 Y87.054 E3.86034
G1 X67.858 Y86.617 E3.88016
G1 X67.975 Y86.5 E3.88566
G1 X68.561 Y85.97 E3.91194
G0 F6000 X68.829 Y86.268
G1 F1200 X69.451 Y85.815 E3.93754
G1 X70.116 Y85.429 E3.96311
G1 X70.818 Y85.114 E3.9887
G1 X71.549 Y84.874 E4.01429
G1 X72.3 Y84.711 E4.03985
G1 X73.065 Y84.627 E4.06545
G1 X73.49 Y84.615 E4.07959
G1 X78.525 Y84.615 E4.24705
G1 X79.293 Y84.655 E4.27263
G1 X80.053 Y84.774 E4.29822
G1 X80.796 Y84.972 E4.32379
G1 X81.515 Y85.246 E4.34938
G1 X82.201 Y85.593 E4.37495
G1 X82.848 Y86.009 E4.40054
G1 X83.448 Y86.49 E4.42611
G1 X83.758 Y86.782 E4.44028
G1 X83.953 Y86.986 E4.44967
G1 X83.983 Y86.818 E4.45534
G1 X84.194 Y86.079 E4.4809
G1 X84.482 Y85.365 E4.50651
G1 X84.842 Y84.686 E4.53207
G1 X85.27 Y84.047 E4.55765
G1 X85.763 Y83.456 E4.58325
G1 X86.314 Y82.919 E4.60884
G1 X86.918 Y82.443 E4.63442
G1 X87.568 Y82.032 E4.66
G1 X88.457 Y81.607 E4.69277
G1 X90.181 Y80.921 E4.75448
G1 X90.91 Y80.674 E4.78008
G1 X91.622 Y80.511 E4.80438
G1 X91.802 Y80.479 E4.81046
G1 X92.565 Y80.384 E4.83603
G1 X93.097 Y80.365 E4.85374
G1 X98.873 Y80.365 E5.04585
G1 X99.641 Y80.405 E5.07143
G1 X100.401 Y80.524 E5.09701
G1 X101.144 Y80.722 E5.12259
G1 X101.863 Y80.996 E5.14818
G1 X102.549 Y81.343 E5.17375
G1 X103.196 Y81.759 E5.19933
G1 X103.796 Y82.24 E5.22491
G1 X104.106 Y82.532 E5.23907
G1 X104.223 Y82.649 E5.24458
G1 X104.737 Y83.221 E5.27015
G1 X105.19 Y83.843 E5.29575
G1 X105.576 Y84.508 E5.32132
G1 X105.891 Y85.21 E5.34691
G1 X106.131 Y85.941 E5.3725
G1 X106.294 Y86.692 E5.39806
G1 X106.378 Y87.457 E5.42366
G1 X106.39 Y87.882 E5.4378
G1 X106.39 Y93.398 E5.62126
G1 X106.35 Y94.166 E5.64684
G1 X106.231 Y94.926 E5.67243
G1 X106.033 Y95.669 E5.698
G1 X105.759 Y96.388 E5.72359
G1 X105.412 Y97.074 E5.74916
G1 X104.996 Y97.721 E5.77475
G1 X104.515 Y98.321 E5.80032
G1 X104.223 Y98.631 E5.81449
G1 X104.106 Y98.748 E5.81999
G1 X103.534 Y99.262 E5.84557
G1 X102.912 Y99.715 E5.87116
G1 X102.247 Y100.101 E5.89673
G1 X101.545 Y100.416 E5.92233
G1 X100.814 Y100.656 E5.94792
G1 X100.063 Y100.819 E5.97348
G1 X99.298 Y100.903 E5.99907
G1 X98.873 Y100.915 E6.01321
G1 X94.417 Y100.915 E6.16142
G1 X94.014 Y101.076 E6.17586
G1 X93.286 Y101.323 E6.20142
G1 X92.536 Y101.495 E6.22702
G1 X91.773 Y101.587 E6.25258
G1 X91.004 Y101.599 E6.27816
G1 X90.237 Y101.532 E6.30377
G1 X89.482 Y101.385 E6.32935
G1 X88.747 Y101.161 E6.35491
G1 X88.038 Y100.862 E6.3805
G1 X87.364 Y100.491 E6.40609
G1 X86.733 Y100.051 E6.43167
G1 X86.15 Y99.549 E6.45726
G1 X85.864 Y99.246 E6.47112
G1 X85.685 Y99.919 E6.49428
G1 X85.411 Y100.638 E6.51987
G1 X85.064 Y101.324 E6.54544
G1 X84.648 Y101.971 E6.57103
G1 X84.167 Y102.571 E6.5966
G1 X83.875 Y102.881 E6.61077
G1 X83.758 Y102.998 E6.61627
G1 X83.186 Y103.512 E6.64185
G1 X82.564 Y103.965 E6.66744
G1 X81.899 Y104.351 E6.69302
G1 X81.197 Y104.666 E6.71861
G1 X80.466 Y104.906 E6.7442
G1 X79.715 Y105.069 E6.76976
G1 X78.95 Y105.153 E6.79535
G1 X78.525 Y105.165 E6.8095
G1 X73.49 Y105.165 E6.97696
G1 X72.722 Y105.125 E7.00254
G1 X71.962 Y105.006 E7.02812
G1 X71.219 Y104.808 E7.0537
G1 X70.5 Y104.534 E7.07929
G1 X69.814 Y104.187 E7.10486
G1 X69.167 Y103.771 E7.13044
G1 X68.567 Y103.29 E7.15602
G1 X68.257 Y102.998 E7.17018
G1 X68.14 Y102.881 E7.17569
G1 X67.626 Y102.309 E7.20127
G1 X67.173 Y101.687 E7.22686
G1 X66.787 Y101.022 E7.25243
G1 X66.472 Y100.32 E7.27802
G1 X66.232 Y99.589 E7.30361
G1 X66.069 Y98.838 E7.32917
G1 X65.985 Y98.073 E7.35477
G1 X65.973 Y97.648 E7.36891
G1 X65.973 Y92.132 E7.55237
G1 X66.013 Y91.364 E7.57795
G1 X66.132 Y90.604 E7.60354
G1 X66.33 Y89.861 E7.62911
G1 X66.604 Y89.142 E7.65471
G1 X66.951 Y88.456 E7.68027
G1 X67.367 Y87.809 E7.70586
G1 X67.848 Y87.209 E7.73144
G1 X68.14 Y86.899 E7.7456
G1 X68.257 Y86.782 E7.7511
G1 X68.829 Y86.268 E7.77668
G0 F6000 X69.097 Y86.565
G1 F1200 X69.703 Y86.128 E7.80153
G1 X70.353 Y85.757 E7.82642
G1 X71.039 Y85.458 E7.85131
G1 X71.753 Y85.234 E7.8762
G1 X72.486 Y85.087 E7.90107
G1 X73.49 Y85.015 E7.93455
G1 X78.525 Y85.015 E8.10201
G1 X79.272 Y85.055 E8.12689
G1 X80.01 Y85.174 E8.15175
G1 X80.732 Y85.372 E8.17665
G1 X81.428 Y85.645 E8.20152
G1 X82.091 Y85.992 E8.22641
G1 X82.714 Y86.407 E8.25131
G1 X83.475 Y87.065 E8.28477
G1 X83.592 Y87.182 E8.29027
G1 X84.092 Y87.739 E8.31517
G1 X84.225 Y87.924 E8.32274
G1 X84.254 Y87.564 E8.33476
G1 X84.391 Y86.828 E8.35966
G1 X84.607 Y86.112 E8.38453
G1 X84.897 Y85.423 E8.40939
G1 X85.26 Y84.768 E8.4343
G1 X85.69 Y84.156 E8.45918
G1 X86.183 Y83.594 E8.48404
G1 X86.734 Y83.087 E8.50895
G1 X87.335 Y82.642 E8.53382
G1 X87.98 Y82.264 E8.55869
G1 X88.605 Y81.979 E8.58153
G1 X90.329 Y81.293 E8.64325
G1 X91.038 Y81.054 E8.66813
G1 X91.692 Y80.905 E8.69044
G1 X91.872 Y80.873 E8.69652
G1 X92.614 Y80.782 E8.72139
G1 X93.097 Y80.765 E8.73746
G1 X98.873 Y80.765 E8.92957
G1 X99.62 Y80.805 E8.95445
G1 X100.358 Y80.924 E8.97931
G1 X101.08 Y81.122 E9.00422
G1 X101.776 Y81.395 E9.02908
G1 X102.439 Y81.742 E9.05397
G1 X103.062 Y82.157 E9.07887
G1 X103.823 Y82.815 E9.11233
G1 X103.94 Y82.932 E9.11783
G1 X104.44 Y83.489 E9.14273
G1 X104.877 Y84.095 E9.16758
G1 X105.248 Y84.745 E9.19247
G1 X105.547 Y85.431 E9.21736
G1 X105.771 Y86.145 E9.24225
G1 X105.918 Y86.878 E9.26711
G1 X105.99 Y87.882 E9.30059
G1 X105.99 Y93.398 E9.48405
G1 X105.95 Y94.145 E9.50894
G1 X105.831 Y94.883 E9.5338
G1 X105.633 Y95.605 E9.5587
G1 X105.36 Y96.301 E9.58357
G1 X105.013 Y96.964 E9.60845
G1 X104.598 Y97.587 E9.63335
G1 X103.94 Y98.348 E9.66681
G1 X103.823 Y98.465 E9.67232
G1 X103.266 Y98.965 E9.69721
G1 X102.66 Y99.402 E9.72206
G1 X102.01 Y99.773 E9.74695
G1 X101.324 Y100.072 E9.77184
G1 X100.61 Y100.296 E9.79673
G1 X99.877 Y100.443 E9.8216
G1 X98.873 Y100.515 E9.85508
G1 X94.339 Y100.515 E10.00588
G1 X93.866 Y100.704 E10.02282
G1 X93.157 Y100.944 E10.04771
G1 X92.427 Y101.107 E10.07259
G1 X91.684 Y101.192 E10.09747
G1 X90.936 Y101.196 E10.12234
G1 X90.192 Y101.121 E10.14722
G1 X89.46 Y100.966 E10.1721
G1 X88.748 Y100.735 E10.197
G1 X88.066 Y100.429 E10.22186
G1 X87.42 Y100.051 E10.24675
G1 X86.818 Y99.607 E10.27163
G1 X86.267 Y99.102 E10.29649
G1 X85.773 Y98.54 E10.32138
G1 X85.607 Y98.305 E10.33095
G1 X85.602 Y98.395 E10.33395
G1 X85.483 Y99.133 E10.35881
G1 X85.285 Y99.855 E10.38371
G1 X85.012 Y100.551 E10.40858
G1 X84.665 Y101.214 E10.43347
G1 X84.25 Y101.837 E10.45836
G1 X83.592 Y102.598 E10.49182
G1 X83.475 Y102.715 E10.49733
G1 X82.918 Y103.215 E10.52222
G1 X82.312 Y103.652 E10.54707
G1 X81.662 Y104.023 E10.57196
G1 X80.976 Y104.322 E10.59685
G1 X80.262 Y104.546 E10.62174
G1 X79.529 Y104.693 E10.64661
G1 X78.525 Y104.765 E10.68009
G1 X73.49 Y104.765 E10.84755
G1 X72.743 Y104.725 E10.87243
G1 X72.005 Y104.606 E10.8973
G1 X71.283 Y104.408 E10.9222
G1 X70.587 Y104.135 E10.94706
G1 X69.924 Y103.788 E10.97195
G1 X69.301 Y103.373 E10.99685
G1 X68.54 Y102.715 E11.03031
G1 X68.423 Y102.598 E11.03581
G1 X67.923 Y102.041 E11.06071
G1 X67.486 Y101.435 E11.08556
G1 X67.115 Y100.785 E11.11045
G1 X66.816 Y100.099 E11.13534
G1 X66.592 Y99.385 E11.16023
G1 X66.445 Y98.652 E11.18509
G1 X66.373 Y97.648 E11.21857
G1 X66.373 Y92.132 E11.40204
G1 X66.413 Y91.385 E11.42692
G1 X66.532 Y90.647 E11.45178
G1 X66.73 Y89.925 E11.47668
G1 X67.003 Y89.229 E11.50155
G1 X67.35 Y88.566 E11.52644
G1 X67.765 Y87.943 E11.55133
G1 X68.423 Y87.182 E11.58479
G1 X68.54 Y87.065 E11.5903
G1 X69.097 Y86.565 E11.61519
G0 F6000 X69.364 Y86.864
G1 F1200 X69.955 Y86.441 E11.63937
G1 X70.589 Y86.087 E11.66352
G1 X71.258 Y85.804 E11.68768
G1 X71.954 Y85.596 E11.71184
G1 X72.669 Y85.466 E11.73601
G1 X73.49 Y85.415 E11.76337
G1 X78.525 Y85.415 E11.93083
G1 X79.25 Y85.455 E11.95498
G1 X79.967 Y85.574 E11.97916
G1 X80.666 Y85.772 E12.00332
G1 X81.339 Y86.045 E12.02748
G1 X81.978 Y86.39 E12.05163
G1 X82.575 Y86.804 E12.07579
G1 X83.192 Y87.348 E12.10315
G1 X83.309 Y87.465 E12.10865
G1 X83.793 Y88.006 E12.1328
G1 X84.216 Y88.597 E12.15697
G1 X84.57 Y89.231 E12.18112
G1 X84.668 Y89.463 E12.1895
G1 X84.668 Y89.404 E12.19146
G1 X84.614 Y89.003 E12.20492
G1 X84.596 Y88.277 E12.22907
G1 X84.659 Y87.554 E12.25321
G1 X84.8 Y86.841 E12.27738
G1 X85.02 Y86.149 E12.30154
G1 X85.313 Y85.484 E12.32571
G1 X85.679 Y84.856 E12.34988
G1 X86.111 Y84.272 E12.37404
G1 X86.604 Y83.739 E12.39819
G1 X87.153 Y83.264 E12.42234
G1 X87.751 Y82.852 E12.44649
G1 X88.391 Y82.507 E12.47067
G1 X88.753 Y82.351 E12.48378
G1 X90.477 Y81.665 E12.5455
G1 X91.166 Y81.434 E12.56966
G1 X91.762 Y81.299 E12.58999
G1 X91.942 Y81.267 E12.59607
G1 X92.663 Y81.179 E12.62023
G1 X93.097 Y81.165 E12.63467
G1 X98.873 Y81.165 E12.82678
G1 X99.598 Y81.205 E12.85093
G1 X100.315 Y81.324 E12.87511
G1 X101.014 Y81.522 E12.89927
G1 X101.687 Y81.795 E12.92343
G1 X102.326 Y82.14 E12.94758
G1 X102.923 Y82.554 E12.97174
G1 X103.54 Y83.098 E12.9991
G1 X103.657 Y83.215 E13.0046
G1 X104.141 Y83.756 E13.02875
G1 X104.564 Y84.347 E13.05292
G1 X104.918 Y84.981 E13.07707
G1 X105.201 Y85.65 E13.10123
G1 X105.409 Y86.346 E13.12539
G1 X105.539 Y87.061 E13.14956
G1 X105.59 Y87.882 E13.17692
G1 X105.59 Y93.398 E13.36039
G1 X105.55 Y94.123 E13.38454
G1 X105.431 Y94.84 E13.40871
G1 X105.233 Y95.539 E13.43287
G1 X104.96 Y96.212 E13.45703
G1 X104.615 Y96.851 E13.48118
G1 X104.201 Y97.448 E13.50535
G1 X103.657 Y98.065 E13.5327
G1 X103.54 Y98.182 E13.53821
G1 X102.999 Y98.666 E13.56235
G1 X102.408 Y99.089 E13.58652
G1 X101.774 Y99.443 E13.61068
G1 X101.105 Y99.726 E13.63484
G1 X100.409 Y99.934 E13.659
G1 X99.694 Y100.064 E13.68317
G1 X98.873 Y100.115 E13.71053
G1 X94.262 Y100.115 E13.86389
G1 X93.717 Y100.333 E13.88341
G1 X93.029 Y100.565 E13.90756
G1 X92.319 Y100.72 E13.93173
G1 X91.597 Y100.796 E13.95588
G1 X90.871 Y100.792 E13.98003
G1 X90.149 Y100.708 E14.0042
G1 X89.441 Y100.546 E14.02836
G1 X88.755 Y100.307 E14.05252
G1 X88.1 Y99.994 E14.07666
G1 X87.483 Y99.611 E14.10082
G1 X86.912 Y99.162 E14.12498
G1 X86.393 Y98.653 E14.14916
G1 X85.934 Y98.091 E14.17329
G1 X85.539 Y97.481 E14.19746
G1 X85.242 Y96.888 E14.21952
G1 X85.242 Y97.648 E14.2448
G1 X85.202 Y98.373 E14.26895
G1 X85.083 Y99.09 E14.29312
G1 X84.885 Y99.789 E14.31729
G1 X84.612 Y100.462 E14.34144
G1 X84.267 Y101.101 E14.36559
G1 X83.853 Y101.698 E14.38976
G1 X83.309 Y102.315 E14.41712
G1 X83.192 Y102.432 E14.42262
G1 X82.651 Y102.916 E14.44676
G1 X82.06 Y103.339 E14.47094
G1 X81.426 Y103.693 E14.49509
G1 X80.757 Y103.976 E14.51925
G1 X80.061 Y104.184 E14.54341
G1 X79.346 Y104.314 E14.56758
G1 X78.525 Y104.365 E14.59494
G1 X73.49 Y104.365 E14.7624
G1 X72.765 Y104.325 E14.78655
G1 X72.048 Y104.206 E14.81073
G1 X71.349 Y104.008 E14.83489
G1 X70.676 Y103.735 E14.85905
G1 X70.037 Y103.39 E14.8832
G1 X69.44 Y102.976 E14.90736
G1 X68.823 Y102.432 E14.93472
G1 X68.706 Y102.315 E14.94023
G1 X68.222 Y101.774 E14.96437
G1 X67.799 Y101.183 E14.98854
G1 X67.445 Y100.549 E15.01269
G1 X67.162 Y99.88 E15.03685
G1 X66.954 Y99.184 E15.06101
G1 X66.824 Y98.469 E15.08518
G1 X66.773 Y97.648 E15.11254
G1 X66.773 Y92.132 E15.29601
G1 X66.813 Y91.407 E15.32016
G1 X66.932 Y90.69 E15.34433
G1 X67.13 Y89.991 E15.36849
G1 X67.403 Y89.318 E15.39265
G1 X67.748 Y88.679 E15.4168
G1 X68.162 Y88.082 E15.44097
G1 X68.706 Y87.465 E15.46833
G1 X68.823 Y87.348 E15.47383
G1 X69.364 Y86.864 E15.49797
G0 F6000 X69.631 Y87.162
G1 F1200 X70.206 Y86.756 E15.52138
G1 X70.824 Y86.418 E15.54481
G1 X71.475 Y86.151 E15.56821
G1 X72.153 Y85.961 E15.59163
G1 X72.848 Y85.848 E15.61505
G1 X73.49 Y85.815 E15.63643
G1 X78.525 Y85.815 E15.8039
G1 X79.228 Y85.855 E15.82732
G1 X79.922 Y85.974 E15.85074
G1 X80.597 Y86.172 E15.87413
G1 X81.246 Y86.444 E15.89754
G1 X81.86 Y86.789 E15.92096
G1 X82.431 Y87.2 E15.94436
G1 X82.909 Y87.631 E15.96577
G1 X83.026 Y87.748 E15.97127
G1 X83.495 Y88.273 E15.99469
G1 X83.901 Y88.848 E16.0181
