;FLAVOR:Marlin
;TIME:348
;Filament used: 0.191523m
;Layer height: 0.2
;MINX:18.75
;MINY:23.162
;MINZ:0.2
;MAXX:52.09
;MAXY:47.765
;MAXZ:3.56
;Generated with Cura_SteamEngine 4.10.0
M140 S50
M105
M190 S50
M104 S195
M105
M109 S195
M82 ;absolute extrusion mode
M201 X500.00 Y500.00 Z100.00 E5000.00 ;Setup machine max acceleration
M203 X500.00 Y500.00 Z10.00 E50.00 ;Setup machine max feedrate
M204 P500.00 R1000.00 T500.00 ;Setup Print/Retract/Travel acceleration
M205 X8.00 Y8.00 Z0.40 E5.00 ;Setup Jerk
M220 S100 ;Reset Feedrate
M221 S100 ;Reset Flowrate

G28 ;Home

G92 E0 ;Reset Extruder
G1 Z2.0 F3000 ;Move Z Axis up
G1 X10.1 Y20 Z0.28 F5000.0 ;Move to start position
G1 X10.1 Y200.0 Z0.28 F1500.0 E15 ;Draw the first line
G1 X10.4 Y200.0 Z0.28 F5000.0 ;Move to side a little
G1 X10.4 Y20 Z0.28 F1500.0 E30 ;Draw the second line
G92 E0 ;Reset Extruder
G1 Z2.0 F3000 ;Move Z Axis up

G92 E0
G92 E0
G1 F2700 E-5
;LAYER_COUNT:17
;LAYER:0
M107
G0 F6000 X21.632 Y36.569 Z0.2
;TYPE:SKIRT
G1 F2700 E0
G1 F1200 X21.954 Y36.385 E0.01233
G1 X22.516 Y36.122 E0.03297
G1 X22.85 Y35.998 E0.04482
G1 X23.388 Y35.842 E0.06345
G1 X23.71 Y35.774 E0.0744
G1 X24.225 Y35.702 E0.0917
G1 X24.52 Y35.681 E0.10153
G1 X24.79 Y35.671 E0.11052
G1 X28.905 Y35.671 E0.24738
G1 X40.728 Y24.921 E0.77887
G1 X40.924 Y24.755 E0.78741
G1 X41.223 Y24.518 E0.8001
G1 X41.618 Y24.244 E0.81609
G1 X41.954 Y24.041 E0.82914
G1 X42.393 Y23.813 E0.8456
G1 X42.751 Y23.656 E0.8586
G1 X43.236 Y23.482 E0.87574
G1 X43.629 Y23.37 E0.88933
G1 X44.095 Y23.268 E0.90519
G1 X44.428 Y23.217 E0.9164
G1 X44.77 Y23.18 E0.92784
G1 X44.982 Y23.167 E0.9349
G1 X45.338 Y23.162 E0.94675
G1 X45.709 Y23.174 E0.95909
G1 X46.223 Y23.226 E0.97628
G1 X46.635 Y23.296 E0.99018
G1 X47.107 Y23.408 E1.00631
G1 X47.451 Y23.513 E1.01827
G1 X47.929 Y23.694 E1.03527
G1 X48.312 Y23.87 E1.04929
G1 X48.736 Y24.099 E1.06532
G1 X49.055 Y24.298 E1.07782
G1 X49.455 Y24.585 E1.0942
G1 X49.751 Y24.828 E1.10694
G1 X50.104 Y25.157 E1.12299
G1 X50.371 Y25.44 E1.13593
G1 X50.694 Y25.832 E1.15282
G1 X50.923 Y26.151 E1.16588
G1 X51.171 Y26.545 E1.18137
G1 X51.342 Y26.858 E1.19323
G1 X51.544 Y27.292 E1.20915
G1 X51.69 Y27.664 E1.22244
G1 X51.834 Y28.108 E1.23797
G1 X51.922 Y28.451 E1.24974
G1 X52.015 Y28.949 E1.26659
G1 X52.064 Y29.364 E1.28049
G1 X52.09 Y29.842 E1.29641
G1 X52.087 Y30.202 E1.30839
G1 X52.053 Y30.678 E1.32426
G1 X52.002 Y31.056 E1.33695
G1 X51.9 Y31.554 E1.35385
G1 X51.788 Y31.962 E1.36793
G1 X51.632 Y32.417 E1.38392
G1 X51.5 Y32.734 E1.39535
G1 X51.286 Y33.168 E1.41144
G1 X51.087 Y33.514 E1.42472
G1 X50.817 Y33.92 E1.44093
G1 X50.585 Y34.225 E1.45368
G1 X50.253 Y34.606 E1.47049
G1 X49.964 Y34.896 E1.4841
G1 X49.605 Y35.214 E1.50006
G1 X49.326 Y35.431 E1.51181
G1 X49.141 Y35.565 E1.51941
G1 X34.926 Y45.309 E2.09261
G1 X34.451 Y45.587 E2.11092
G1 X34.077 Y45.746 E2.12444
G1 X34.033 Y45.762 E2.12599
G1 X33.322 Y45.945 E2.15041
G1 X28.123 Y46.759 E2.32544
G1 X27.852 Y46.936 E2.3362
G1 X27.558 Y47.097 E2.34735
G1 X27.076 Y47.319 E2.365
G1 X26.769 Y47.435 E2.37592
G1 X26.204 Y47.6 E2.3955
G1 X25.855 Y47.673 E2.40735
G1 X25.249 Y47.749 E2.42767
G1 X24.895 Y47.765 E2.43945
G1 X24.36 Y47.752 E2.45725
G1 X24.058 Y47.723 E2.46734
G1 X23.507 Y47.628 E2.48594
G1 X23.168 Y47.544 E2.49756
G1 X22.62 Y47.364 E2.51674
G1 X22.32 Y47.239 E2.52755
G1 X21.824 Y46.987 E2.54606
G1 X21.538 Y46.815 E2.55716
G1 X21.076 Y46.488 E2.57598
G1 X20.817 Y46.274 E2.58716
G1 X20.386 Y45.857 E2.6071
G1 X20.142 Y45.58 E2.61938
G1 X19.81 Y45.143 E2.63763
G1 X19.647 Y44.893 E2.64756
G1 X19.385 Y44.421 E2.66552
G1 X19.244 Y44.118 E2.67663
G1 X19.04 Y43.575 E2.69592
G1 X18.945 Y43.248 E2.70725
G1 X18.829 Y42.706 E2.72568
G1 X18.785 Y42.386 E2.73643
G1 X18.75 Y41.856 E2.75409
G1 X18.751 Y41.528 E2.765
G1 X18.794 Y40.973 E2.78352
G1 X18.842 Y40.655 E2.79421
G1 X18.98 Y40.062 E2.81447
G1 X19.096 Y39.7 E2.82711
G1 X19.309 Y39.175 E2.84595
G1 X19.446 Y38.898 E2.85623
G1 X19.722 Y38.429 E2.87433
G1 X19.903 Y38.166 E2.88495
G1 X20.251 Y37.731 E2.90348
G1 X20.492 Y37.472 E2.91524
G1 X20.911 Y37.085 E2.93421
G1 X21.154 Y36.892 E2.94454
G1 X21.632 Y36.569 E2.96372
G0 F6000 X21.83 Y36.916
G1 F1200 X22.152 Y36.732 E2.97606
G1 X22.656 Y36.497 E2.99455
G1 X22.99 Y36.373 E3.0064
G1 X23.47 Y36.233 E3.02303
G1 X23.792 Y36.165 E3.03398
G1 X24.254 Y36.101 E3.04949
G1 X24.549 Y36.08 E3.05933
G1 X24.79 Y36.071 E3.06735
G1 X29.059 Y36.071 E3.20934
G1 X40.997 Y25.217 E3.74598
G1 X41.172 Y25.069 E3.7536
G1 X41.471 Y24.832 E3.76629
G1 X41.825 Y24.586 E3.78063
G1 X42.161 Y24.383 E3.79369
G1 X42.553 Y24.179 E3.80838
G1 X42.911 Y24.022 E3.82138
G1 X43.345 Y23.866 E3.83672
G1 X43.738 Y23.754 E3.85032
G1 X44.155 Y23.663 E3.86451
G1 X44.488 Y23.612 E3.87572
G1 X44.795 Y23.579 E3.88599
G1 X45.007 Y23.566 E3.89305
G1 X45.325 Y23.562 E3.90363
G1 X45.696 Y23.574 E3.91597
G1 X46.156 Y23.62 E3.93135
G1 X46.568 Y23.69 E3.94525
G1 X46.991 Y23.79 E3.95971
G1 X47.335 Y23.895 E3.97167
G1 X47.762 Y24.058 E3.98687
G1 X48.145 Y24.234 E4.00089
G1 X48.525 Y24.438 E4.01523
G1 X48.844 Y24.637 E4.02774
G1 X49.201 Y24.894 E4.04237
G1 X49.497 Y25.137 E4.05511
G1 X49.813 Y25.432 E4.06949
G1 X50.08 Y25.715 E4.08243
G1 X50.369 Y26.065 E4.09752
G1 X50.598 Y26.384 E4.11058
G1 X50.82 Y26.737 E4.12445
G1 X50.991 Y27.05 E4.13632
G1 X51.172 Y27.438 E4.15056
G1 X51.318 Y27.81 E4.16385
G1 X51.446 Y28.207 E4.17772
G1 X51.534 Y28.55 E4.1895
G1 X51.618 Y28.996 E4.20459
G1 X51.667 Y29.411 E4.21849
G1 X51.69 Y29.838 E4.23272
G1 X51.687 Y30.198 E4.24469
G1 X51.656 Y30.625 E4.25893
G1 X51.605 Y31.003 E4.27162
G1 X51.515 Y31.448 E4.28672
G1 X51.403 Y31.856 E4.30079
G1 X51.263 Y32.263 E4.3151
G1 X51.131 Y32.58 E4.32652
G1 X50.939 Y32.968 E4.34092
G1 X50.74 Y33.314 E4.3542
G1 X50.499 Y33.677 E4.36869
G1 X50.267 Y33.982 E4.38144
G1 X49.969 Y34.324 E4.39652
G1 X49.68 Y34.614 E4.41014
G1 X49.359 Y34.898 E4.4244
G1 X49.08 Y35.115 E4.43615
G1 X48.915 Y35.235 E4.44294
G1 X34.7 Y44.979 E5.01614
G1 X34.249 Y45.24 E5.03348
G1 X33.94 Y45.37 E5.04463
G1 X33.896 Y45.386 E5.04618
G1 X33.26 Y45.55 E5.06803
G1 X27.979 Y46.377 E5.24582
G1 X27.66 Y46.585 E5.25848
G1 X27.366 Y46.746 E5.26963
G1 X26.935 Y46.945 E5.28542
G1 X26.628 Y47.061 E5.29633
G1 X26.122 Y47.208 E5.31386
G1 X25.773 Y47.281 E5.32572
G1 X25.231 Y47.35 E5.34389
G1 X24.877 Y47.366 E5.35568
G1 X24.398 Y47.353 E5.37162
G1 X24.096 Y47.324 E5.38171
G1 X23.603 Y47.24 E5.39834
G1 X23.264 Y47.156 E5.40996
G1 X22.774 Y46.994 E5.42712
G1 X22.474 Y46.869 E5.43793
G1 X22.03 Y46.645 E5.45447
G1 X21.744 Y46.473 E5.46557
G1 X21.33 Y46.18 E5.48244
G1 X21.071 Y45.966 E5.49361
G1 X20.686 Y45.592 E5.51147
G1 X20.442 Y45.315 E5.52374
G1 X20.145 Y44.925 E5.54005
G1 X19.982 Y44.675 E5.54998
G1 X19.747 Y44.252 E5.56607
G1 X19.606 Y43.949 E5.57719
G1 X19.424 Y43.464 E5.59442
G1 X19.329 Y43.137 E5.60574
G1 X19.226 Y42.651 E5.62226
G1 X19.182 Y42.331 E5.63301
G1 X19.15 Y41.858 E5.64878
G1 X19.151 Y41.53 E5.65969
G1 X19.189 Y41.033 E5.67626
G1 X19.237 Y40.715 E5.68696
G1 X19.361 Y40.184 E5.7051
G1 X19.477 Y39.822 E5.71774
G1 X19.667 Y39.353 E5.73457
G1 X19.804 Y39.076 E5.74485
G1 X20.051 Y38.655 E5.76108
G1 X20.232 Y38.392 E5.7717
G1 X20.544 Y38.004 E5.78826
G1 X20.785 Y37.745 E5.80003
G1 X21.159 Y37.399 E5.81697
G1 X21.402 Y37.206 E5.8273
G1 X21.83 Y36.916 E5.84449
G0 F6000 X22.029 Y37.263
G1 F1200 X22.351 Y37.079 E5.85683
G1 X22.795 Y36.872 E5.87312
G1 X23.129 Y36.748 E5.88497
G1 X23.553 Y36.625 E5.89965
G1 X23.875 Y36.557 E5.9106
G1 X24.282 Y36.5 E5.92427
G1 X24.577 Y36.479 E5.9341
G1 X24.79 Y36.471 E5.94119
G1 X29.214 Y36.471 E6.08834
G1 X41.266 Y25.513 E6.63011
G1 X41.42 Y25.382 E6.63683
G1 X41.719 Y25.145 E6.64952
G1 X42.032 Y24.928 E6.66219
G1 X42.368 Y24.725 E6.67525
G1 X42.714 Y24.546 E6.6882
G1 X43.072 Y24.389 E6.70121
G1 X43.455 Y24.251 E6.71475
G1 X43.848 Y24.139 E6.72834
G1 X44.216 Y24.059 E6.74086
G1 X44.549 Y24.008 E6.75207
G1 X44.819 Y23.979 E6.7611
G1 X45.031 Y23.966 E6.76816
G1 X45.312 Y23.962 E6.77751
G1 X45.683 Y23.974 E6.78986
G1 X46.089 Y24.014 E6.80343
G1 X46.501 Y24.084 E6.81733
G1 X46.874 Y24.173 E6.83008
G1 X47.218 Y24.278 E6.84204
G1 X47.595 Y24.421 E6.85545
G1 X47.978 Y24.597 E6.86947
G1 X48.313 Y24.778 E6.88214
G1 X48.632 Y24.977 E6.89464
G1 X48.948 Y25.203 E6.90756
G1 X49.244 Y25.446 E6.9203
G1 X49.522 Y25.706 E6.93296
G1 X49.789 Y25.989 E6.9459
G1 X50.044 Y26.299 E6.95925
G1 X50.273 Y26.618 E6.97231
G1 X50.469 Y26.929 E6.98454
G1 X50.64 Y27.242 E6.9964
G1 X50.8 Y27.584 E7.00896
G1 X50.946 Y27.956 E7.02225
G1 X51.059 Y28.306 E7.03449
G1 X51.147 Y28.649 E7.04626
G1 X51.22 Y29.043 E7.05959
G1 X51.269 Y29.458 E7.07349
G1 X51.29 Y29.835 E7.08605
G1 X51.287 Y30.195 E7.09802
G1 X51.26 Y30.571 E7.11056
G1 X51.209 Y30.949 E7.12325
G1 X51.129 Y31.342 E7.13659
G1 X51.017 Y31.75 E7.15066
G1 X50.893 Y32.109 E7.16329
G1 X50.761 Y32.426 E7.17471
G1 X50.593 Y32.769 E7.18741
G1 X50.394 Y33.115 E7.20069
G1 X50.181 Y33.435 E7.21348
G1 X49.949 Y33.74 E7.22622
G1 X49.686 Y34.042 E7.23954
G1 X49.397 Y34.332 E7.25316
G1 X49.114 Y34.582 E7.26572
G1 X48.835 Y34.799 E7.27747
G1 X48.689 Y34.905 E7.28347
G1 X34.474 Y44.649 E7.85668
G1 X34.049 Y44.892 E7.87296
G1 X33.803 Y44.994 E7.88182
G1 X33.759 Y45.01 E7.88338
G1 X33.198 Y45.155 E7.90265
G1 X27.833 Y45.995 E8.08326
G1 X27.468 Y46.234 E8.09778
G1 X27.174 Y46.395 E8.10892
G1 X26.793 Y46.57 E8.12287
G1 X26.486 Y46.686 E8.13378
G1 X26.04 Y46.816 E8.14924
G1 X25.691 Y46.889 E8.1611
G1 X25.212 Y46.95 E8.17716
G1 X24.858 Y46.966 E8.18894
G1 X24.436 Y46.955 E8.20298
G1 X24.134 Y46.926 E8.21307
G1 X23.699 Y46.852 E8.22775
G1 X23.36 Y46.768 E8.23936
G1 X22.928 Y46.625 E8.2545
G1 X22.628 Y46.5 E8.26531
G1 X22.236 Y46.302 E8.27992
G1 X21.95 Y46.13 E8.29102
G1 X21.585 Y45.872 E8.30588
G1 X21.326 Y45.658 E8.31706
G1 X20.986 Y45.328 E8.33282
G1 X20.742 Y45.051 E8.34509
G1 X20.48 Y44.706 E8.3595
G1 X20.317 Y44.456 E8.36943
G1 X20.11 Y44.084 E8.38359
G1 X19.969 Y43.781 E8.3947
G1 X19.808 Y43.352 E8.40994
G1 X19.713 Y43.025 E8.42127
G1 X19.622 Y42.597 E8.43582
G1 X19.578 Y42.277 E8.44657
G1 X19.55 Y41.859 E8.4605
G1 X19.551 Y41.531 E8.47141
G1 X19.585 Y41.092 E8.48606
G1 X19.633 Y40.774 E8.49675
G1 X19.742 Y40.307 E8.5127
G1 X19.858 Y39.945 E8.52534
G1 X20.026 Y39.53 E8.54024
G1 X20.163 Y39.253 E8.55051
G1 X20.381 Y38.882 E8.56483
G1 X20.562 Y38.619 E8.57545
G1 X20.837 Y38.276 E8.59007
G1 X21.078 Y38.017 E8.60183
G1 X21.408 Y37.712 E8.61678
G1 X21.651 Y37.519 E8.6271
G1 X22.029 Y37.263 E8.64229
G0 F6000 X22.227 Y37.611
G1 F1200 X22.549 Y37.427 E8.65462
G1 X22.934 Y37.247 E8.66876
G1 X23.268 Y37.123 E8.68061
G1 X23.636 Y37.016 E8.69335
G1 X23.958 Y36.948 E8.7043
G1 X24.31 Y36.899 E8.71612
G1 X24.605 Y36.878 E8.72596
G1 X24.79 Y36.871 E8.73211
G1 X29.368 Y36.871 E8.88438
G1 X41.535 Y25.809 E9.43131
G1 X41.669 Y25.695 E9.43716
G1 X41.968 Y25.458 E9.44985
G1 X42.238 Y25.271 E9.46077
G1 X42.574 Y25.068 E9.47383
G1 X42.875 Y24.912 E9.4851
G1 X43.233 Y24.755 E9.49811
G1 X43.564 Y24.636 E9.5098
G1 X43.957 Y24.524 E9.5234
G1 X44.276 Y24.454 E9.53426
G1 X44.609 Y24.403 E9.54546
G1 X45.056 Y24.365 E9.56038
G1 X45.299 Y24.361 E9.56847
G1 X45.67 Y24.373 E9.58081
G1 X46.022 Y24.409 E9.59258
G1 X46.434 Y24.479 E9.60648
G1 X46.757 Y24.555 E9.61752
G1 X47.101 Y24.66 E9.62948
G1 X47.428 Y24.785 E9.64112
G1 X47.811 Y24.961 E9.65514
G1 X48.101 Y25.117 E9.6661
G1 X48.42 Y25.316 E9.6786
G1 X48.694 Y25.512 E9.68981
G1 X48.99 Y25.755 E9.70254
G1 X49.231 Y25.981 E9.71353
G1 X49.498 Y26.264 E9.72647
G1 X49.719 Y26.532 E9.73803
G1 X49.948 Y26.851 E9.75109
G1 X50.118 Y27.12 E9.76167
G1 X50.289 Y27.433 E9.77353
G1 X50.427 Y27.73 E9.78443
G1 X50.573 Y28.102 E9.79772
G1 X50.671 Y28.406 E9.80834
G1 X50.759 Y28.749 E9.82012
G1 X50.823 Y29.09 E9.83166
G1 X50.872 Y29.505 E9.84556
G1 X50.89 Y29.832 E9.85645
G1 X50.887 Y30.192 E9.86842
G1 X50.864 Y30.518 E9.87929
G1 X50.813 Y30.896 E9.89198
G1 X50.743 Y31.236 E9.90353
G1 X50.631 Y31.644 E9.9176
G1 X50.524 Y31.955 E9.92854
G1 X50.392 Y32.272 E9.93996
G1 X50.246 Y32.569 E9.95097
G1 X50.047 Y32.915 E9.96424
G1 X49.862 Y33.193 E9.97535
G1 X49.63 Y33.498 E9.98809
G1 X49.403 Y33.759 E9.9996
G1 X49.114 Y34.049 E10.01322
G1 X48.868 Y34.266 E10.02413
G1 X48.589 Y34.483 E10.03588
G1 X48.463 Y34.576 E10.04109
G1 X34.248 Y44.32 E10.6143
G1 X33.667 Y44.618 E10.63601
G1 X33.623 Y44.634 E10.63757
G1 X33.136 Y44.76 E10.6543
G1 X27.676 Y45.615 E10.83812
G1 X27.62 Y45.658 E10.84046
G1 X27.276 Y45.883 E10.85414
G1 X26.982 Y46.044 E10.86528
G1 X26.652 Y46.196 E10.87737
G1 X26.345 Y46.312 E10.88828
G1 X25.958 Y46.425 E10.90169
G1 X25.609 Y46.498 E10.91355
G1 X25.194 Y46.55 E10.92746
G1 X24.84 Y46.566 E10.93925
G1 X24.474 Y46.557 E10.95143
G1 X24.172 Y46.528 E10.96152
G1 X23.796 Y46.464 E10.9742
G1 X23.457 Y46.38 E10.98582
G1 X23.082 Y46.256 E10.99896
G1 X22.782 Y46.131 E11.00977
G1 X22.442 Y45.959 E11.02244
G1 X22.156 Y45.787 E11.03354
G1 X21.84 Y45.563 E11.04642
G1 X21.581 Y45.349 E11.0576
G1 X21.286 Y45.064 E11.07124
G1 X21.042 Y44.787 E11.08352
G1 X20.815 Y44.488 E11.096
G1 X20.652 Y44.238 E11.10593
G1 X20.473 Y43.915 E11.11821
G1 X20.332 Y43.612 E11.12933
G1 X20.192 Y43.24 E11.14255
G1 X20.097 Y42.913 E11.15387
G1 X20.018 Y42.542 E11.16649
G1 X19.974 Y42.222 E11.17723
G1 X19.95 Y41.86 E11.1893
G1 X19.951 Y41.532 E11.20021
G1 X19.98 Y41.152 E11.21288
G1 X20.028 Y40.834 E11.22358
G1 X20.123 Y40.429 E11.23742
G1 X20.239 Y40.067 E11.25006
G1 X20.384 Y39.707 E11.26297
G1 X20.521 Y39.43 E11.27325
G1 X20.71 Y39.109 E11.28564
G1 X20.891 Y38.846 E11.29625
G1 X21.13 Y38.549 E11.30893
G1 X21.371 Y38.29 E11.3207
G1 X21.657 Y38.025 E11.33367
G1 X21.9 Y37.832 E11.34399
G1 X22.227 Y37.611 E11.35712
G0 F6000 X22.425 Y37.958
G1 F1200 X22.747 Y37.774 E11.36945
G1 X23.073 Y37.622 E11.38142
G1 X23.407 Y37.498 E11.39327
G1 X23.718 Y37.407 E11.40404
G1 X24.04 Y37.339 E11.41499
G1 X24.339 Y37.298 E11.42503
G1 X24.634 Y37.277 E11.43486
G1 X24.79 Y37.271 E11.44006
G1 X29.523 Y37.271 E11.59748
G1 X41.804 Y26.105 E12.14954
G1 X41.917 Y26.009 E12.15447
G1 X42.216 Y25.772 E12.16716
G1 X42.445 Y25.613 E12.17643
G1 X42.781 Y25.41 E12.18949
G1 X43.035 Y25.278 E12.19901
G1 X43.393 Y25.121 E12.21201
G1 X43.674 Y25.02 E12.22194
G1 X44.067 Y24.908 E12.23553
G1 X44.337 Y24.849 E12.24473
G1 X44.67 Y24.798 E12.25593
G1 X45.08 Y24.764 E12.26961
G1 X45.286 Y24.761 E12.27647
G1 X45.657 Y24.773 E12.28881
G1 X45.955 Y24.803 E12.29877
G1 X46.367 Y24.873 E12.31267
G1 X46.64 Y24.938 E12.32201
G1 X46.984 Y25.043 E12.33397
G1 X47.261 Y25.148 E12.34382
G1 X47.644 Y25.324 E12.35784
G1 X47.889 Y25.456 E12.3671
G1 X48.208 Y25.655 E12.3796
G1 X48.44 Y25.822 E12.38911
G1 X48.736 Y26.065 E12.40185
G1 X48.94 Y26.255 E12.41112
G1 X49.207 Y26.538 E12.42406
G1 X49.394 Y26.765 E12.43384
G1 X49.623 Y27.084 E12.4469
G1 X49.767 Y27.312 E12.45587
G1 X49.938 Y27.625 E12.46774
G1 X50.055 Y27.876 E12.47695
G1 X50.201 Y28.248 E12.49024
G1 X50.284 Y28.505 E12.49922
G1 X50.372 Y28.848 E12.511
G1 X50.426 Y29.137 E12.52078
G1 X50.475 Y29.552 E12.53468
G1 X50.49 Y29.828 E12.54387
G1 X50.487 Y30.188 E12.55584
G1 X50.467 Y30.464 E12.56505
G1 X50.416 Y30.842 E12.57773
G1 X50.358 Y31.13 E12.5875
G1 X50.246 Y31.538 E12.60158
G1 X50.155 Y31.802 E12.61086
G1 X50.023 Y32.119 E12.62228
G1 X49.899 Y32.37 E12.6316
G1 X49.7 Y32.716 E12.64487
G1 X49.544 Y32.951 E12.65425
G1 X49.312 Y33.256 E12.667
G1 X49.119 Y33.477 E12.67676
G1 X48.83 Y33.767 E12.69038
G1 X48.623 Y33.951 E12.69959
G1 X48.344 Y34.168 E12.71134
G1 X48.237 Y34.246 E12.71575
G1 X34.022 Y43.99 E13.28895
G1 X33.53 Y44.243 E13.30735
G1 X33.486 Y44.259 E13.30891
G1 X33.074 Y44.365 E13.32306
G1 X27.512 Y45.236 E13.51031
G1 X27.375 Y45.342 E13.51607
G1 X27.084 Y45.533 E13.52765
G1 X26.79 Y45.694 E13.53879
G1 X26.511 Y45.822 E13.549
G1 X26.204 Y45.938 E13.55992
G1 X25.876 Y46.033 E13.57128
G1 X25.527 Y46.106 E13.58314
G1 X25.176 Y46.151 E13.59491
G1 X24.822 Y46.167 E13.60669
G1 X24.513 Y46.159 E13.61697
G1 X24.211 Y46.13 E13.62706
G1 X23.892 Y46.075 E13.63783
G1 X23.553 Y45.991 E13.64945
G1 X23.236 Y45.887 E13.66054
G1 X22.936 Y45.762 E13.67135
G1 X22.648 Y45.616 E13.68209
G1 X22.362 Y45.444 E13.69319
G1 X22.095 Y45.255 E13.70407
G1 X21.836 Y45.041 E13.71525
