;FLAVOR:Marlin
;TIME:1200
;Filament used: 0.629579m
;Layer height: 0.2
;MINX:31.634
;MINY:32.315
;MINZ:0.2
;MAXX:82.061
;MAXY:64.915
;MAXZ:11.6
;Generated with Cura_SteamEngine 4.10.0
M140 S50
M105
M190 S50
M104 S195
M105
M109 S195
M82 ;absolute extrusion mode
M201 X500.00 Y500.00 Z100.00 E5000.00 ;Setup machine max acceleration
M203 X500.00 Y500.00 Z10.00 E50.00 ;Setup machine max feedrate
M204 P500.00 R1000.00 T500.00 ;Setup Print/Retract/Travel acceleration
M205 X8.00 Y8.00 Z0.40 E5.00 ;Setup Jerk
M220 S100 ;Reset Feedrate
M221 S100 ;Reset Flowrate

G28 ;Home

G92 E0 ;Reset Extruder
G1 Z2.0 F3000 ;Move Z Axis up
G1 X10.1 Y20 Z0.28 F5000.0 ;Move to start position
G1 X10.1 Y200.0 Z0.28 F1500.0 E15 ;Draw the first line
G1 X10.4 Y200.0 Z0.28 F5000.0 ;Move to side a little
G1 X10.4 Y20 Z0.28 F1500.0 E30 ;Draw the second line
G92 E0 ;Reset Extruder
G1 Z2.0 F3000 ;Move Z Axis up

G92 E0
G92 E0
G1 F3000 E-8
;LAYER_COUNT:58
;LAYER:0
M107
G0 F6000 X34.058 Y34.464 Z0.2
;TYPE:SKIRT
G1 F3000 E0
G1 F1200 X34.657 Y33.949 E0.02627
G1 X35.305 Y33.498 E0.05253
G1 X35.996 Y33.114 E0.07883
G1 X36.721 Y32.802 E0.10508
G1 X37.474 Y32.565 E0.13133
G1 X38.248 Y32.406 E0.15761
G1 X39.033 Y32.325 E0.18386
G1 X39.435 Y32.315 E0.19724
G1 X70.762 Y32.315 E1.23918
G1 X71.551 Y32.355 E1.26545
G1 X72.331 Y32.474 E1.2917
G1 X73.096 Y32.672 E1.31798
G1 X73.836 Y32.946 E1.34422
G1 X74.545 Y33.294 E1.37049
G1 X75.216 Y33.712 E1.39679
G1 X75.84 Y34.195 E1.42303
G1 X76.413 Y34.738 E1.44929
G1 X76.928 Y35.337 E1.47556
G1 X77.379 Y35.985 E1.50182
G1 X77.763 Y36.676 E1.52811
G1 X78.075 Y37.401 E1.55437
G1 X78.312 Y38.154 E1.58062
G1 X78.471 Y38.928 E1.6069
G1 X78.552 Y39.713 E1.63315
G1 X78.562 Y40.119 E1.64666
G1 X78.561 Y42.119 E1.71318
G1 X78.521 Y42.908 E1.73945
G1 X78.401 Y43.688 E1.7657
G1 X78.203 Y44.452 E1.79195
G1 X77.928 Y45.193 E1.81824
G1 X77.58 Y45.902 E1.84451
G1 X77.162 Y46.572 E1.87078
G1 X76.679 Y47.196 E1.89702
G1 X76.3 Y47.596 E1.91535
G1 X76.595 Y47.672 E1.92548
G1 X77.335 Y47.946 E1.95173
G1 X78.044 Y48.294 E1.97799
G1 X78.715 Y48.712 E2.00429
G1 X79.339 Y49.195 E2.03053
G1 X79.912 Y49.738 E2.05679
G1 X80.427 Y50.337 E2.08306
G1 X80.878 Y50.985 E2.10932
G1 X81.262 Y51.676 E2.13562
G1 X81.574 Y52.401 E2.16187
G1 X81.811 Y53.154 E2.18812
G1 X81.97 Y53.928 E2.2144
G1 X82.051 Y54.713 E2.24065
G1 X82.061 Y55.115 E2.25403
G1 X82.061 Y57.115 E2.32055
G1 X82.021 Y57.904 E2.34682
G1 X81.902 Y58.684 E2.37307
G1 X81.704 Y59.449 E2.39935
G1 X81.43 Y60.189 E2.42559
G1 X81.082 Y60.898 E2.45186
G1 X80.664 Y61.569 E2.47816
G1 X80.181 Y62.193 E2.5044
G1 X79.638 Y62.766 E2.53066
G1 X79.039 Y63.281 E2.55693
G1 X78.391 Y63.732 E2.58319
G1 X77.7 Y64.116 E2.60948
G1 X76.975 Y64.428 E2.63574
G1 X76.222 Y64.665 E2.66199
G1 X75.448 Y64.824 E2.68827
G1 X74.663 Y64.905 E2.71452
G1 X74.261 Y64.915 E2.7279
G1 X39.434 Y64.915 E3.88625
G1 X38.645 Y64.875 E3.91252
G1 X37.865 Y64.756 E3.93877
G1 X37.1 Y64.558 E3.96505
G1 X36.36 Y64.284 E3.99129
G1 X35.651 Y63.936 E4.01756
G1 X34.98 Y63.518 E4.04386
G1 X34.356 Y63.035 E4.0701
G1 X33.783 Y62.492 E4.09636
G1 X33.268 Y61.893 E4.12263
G1 X32.817 Y61.245 E4.14889
G1 X32.433 Y60.554 E4.17518
G1 X32.121 Y59.829 E4.20143
G1 X31.884 Y59.076 E4.22769
G1 X31.725 Y58.302 E4.25397
G1 X31.644 Y57.517 E4.28022
G1 X31.634 Y57.115 E4.29359
G1 X31.634 Y55.115 E4.36011
G1 X31.674 Y54.326 E4.38639
G1 X31.793 Y53.546 E4.41263
G1 X31.991 Y52.781 E4.43892
G1 X32.265 Y52.041 E4.46516
G1 X32.613 Y51.332 E4.49143
G1 X33.031 Y50.661 E4.51772
G1 X33.514 Y50.037 E4.54397
G1 X34.057 Y49.464 E4.57023
G1 X34.656 Y48.949 E4.5965
G1 X35.136 Y48.615 E4.61595
G1 X34.981 Y48.518 E4.62203
G1 X34.357 Y48.035 E4.64828
G1 X33.784 Y47.492 E4.67453
G1 X33.269 Y46.893 E4.70081
G1 X32.818 Y46.245 E4.72706
G1 X32.434 Y45.554 E4.75336
G1 X32.122 Y44.829 E4.77961
G1 X31.885 Y44.076 E4.80587
G1 X31.726 Y43.302 E4.83215
G1 X31.645 Y42.517 E4.85839
G1 X31.635 Y42.115 E4.87177
G1 X31.635 Y40.115 E4.93829
G1 X31.675 Y39.326 E4.96456
G1 X31.794 Y38.546 E4.99081
G1 X31.992 Y37.781 E5.01709
G1 X32.266 Y37.041 E5.04334
G1 X32.614 Y36.332 E5.0696
G1 X33.032 Y35.661 E5.0959
G1 X33.515 Y35.037 E5.12214
G1 X34.058 Y34.464 E5.1484
G0 F6000 X34.451 Y34.645
G1 F1200 X35.046 Y34.157 E5.17399
G1 X35.688 Y33.734 E5.19957
G1 X36.371 Y33.379 E5.22517
G1 X37.086 Y33.098 E5.25072
G1 X37.828 Y32.892 E5.27633
G1 X38.586 Y32.764 E5.3019
G1 X39.435 Y32.715 E5.33018
G1 X70.762 Y32.715 E6.37213
G1 X71.53 Y32.755 E6.3977
G1 X72.29 Y32.874 E6.42329
G1 X73.033 Y33.072 E6.44886
G1 X73.752 Y33.346 E6.47446
G1 X74.438 Y33.693 E6.50002
G1 X75.085 Y34.109 E6.52561
G1 X75.685 Y34.59 E6.55119
G1 X76.232 Y35.131 E6.57677
G1 X76.72 Y35.726 E6.60237
G1 X77.143 Y36.368 E6.62794
G1 X77.498 Y37.051 E6.65354
G1 X77.779 Y37.766 E6.67909
G1 X77.985 Y38.508 E6.70471
G1 X78.113 Y39.266 E6.73027
G1 X78.162 Y40.119 E6.75869
G1 X78.161 Y42.119 E6.82521
G1 X78.121 Y42.887 E6.85079
G1 X78.001 Y43.647 E6.87638
G1 X77.803 Y44.39 E6.90196
G1 X77.529 Y45.108 E6.92752
G1 X77.181 Y45.795 E6.95313
G1 X76.765 Y46.441 E6.97869
G1 X76.283 Y47.041 E7.00428
G1 X75.742 Y47.588 E7.02987
G1 X75.456 Y47.822 E7.04216
G1 X75.789 Y47.874 E7.05337
G1 X76.532 Y48.072 E7.07895
G1 X77.251 Y48.346 E7.10454
G1 X77.937 Y48.693 E7.13011
G1 X78.584 Y49.109 E7.15569
G1 X79.184 Y49.59 E7.18127
G1 X79.731 Y50.131 E7.20686
G1 X80.219 Y50.726 E7.23245
G1 X80.642 Y51.368 E7.25802
G1 X80.997 Y52.051 E7.28363
G1 X81.278 Y52.766 E7.30918
G1 X81.484 Y53.508 E7.33479
G1 X81.612 Y54.266 E7.36036
G1 X81.661 Y55.115 E7.38864
G1 X81.661 Y57.115 E7.45516
G1 X81.621 Y57.883 E7.48074
G1 X81.502 Y58.643 E7.50633
G1 X81.304 Y59.386 E7.5319
G1 X81.03 Y60.105 E7.55749
G1 X80.683 Y60.791 E7.58306
G1 X80.267 Y61.438 E7.60865
G1 X79.786 Y62.038 E7.63422
G1 X79.245 Y62.585 E7.65981
G1 X78.65 Y63.073 E7.68541
G1 X78.008 Y63.496 E7.71098
G1 X77.325 Y63.851 E7.73658
G1 X76.61 Y64.132 E7.76213
G1 X75.868 Y64.338 E7.78774
G1 X75.11 Y64.466 E7.81331
G1 X74.261 Y64.515 E7.8416
G1 X39.434 Y64.515 E8.99995
G1 X38.666 Y64.475 E9.02553
G1 X37.906 Y64.356 E9.05111
G1 X37.163 Y64.158 E9.07669
G1 X36.444 Y63.884 E9.10228
G1 X35.758 Y63.537 E9.12785
G1 X35.111 Y63.121 E9.15343
G1 X34.511 Y62.64 E9.17901
G1 X33.964 Y62.099 E9.2046
G1 X33.476 Y61.504 E9.23019
G1 X33.053 Y60.862 E9.25576
G1 X32.698 Y60.179 E9.28136
G1 X32.417 Y59.464 E9.30692
G1 X32.211 Y58.722 E9.33253
G1 X32.083 Y57.964 E9.3581
G1 X32.034 Y57.115 E9.38638
G1 X32.034 Y55.115 E9.4529
G1 X32.074 Y54.347 E9.47848
G1 X32.193 Y53.587 E9.50407
G1 X32.391 Y52.844 E9.52964
G1 X32.665 Y52.125 E9.55523
G1 X33.012 Y51.439 E9.5808
G1 X33.428 Y50.792 E9.60638
G1 X33.909 Y50.192 E9.63196
G1 X34.45 Y49.645 E9.65755
G1 X35.045 Y49.157 E9.68314
G1 X35.687 Y48.734 E9.70872
G1 X35.915 Y48.616 E9.71725
G1 X35.759 Y48.537 E9.72307
G1 X35.112 Y48.121 E9.74865
G1 X34.512 Y47.64 E9.77423
G1 X33.965 Y47.099 E9.79982
G1 X33.477 Y46.504 E9.82541
G1 X33.054 Y45.862 E9.85099
G1 X32.699 Y45.179 E9.87659
G1 X32.418 Y44.464 E9.90214
G1 X32.212 Y43.722 E9.92775
G1 X32.084 Y42.964 E9.95332
G1 X32.035 Y42.115 E9.9816
G1 X32.035 Y40.115 E10.04812
G1 X32.075 Y39.347 E10.0737
G1 X32.194 Y38.587 E10.09929
G1 X32.392 Y37.844 E10.12486
G1 X32.666 Y37.125 E10.15046
G1 X33.013 Y36.439 E10.17602
G1 X33.429 Y35.792 E10.20161
G1 X33.91 Y35.192 E10.22719
G1 X34.451 Y34.645 E10.25277
G0 F6000 X34.843 Y34.831
G1 F1200 X35.433 Y34.372 E10.27764
G1 X36.069 Y33.977 E10.30254
G1 X36.743 Y33.653 E10.32741
G1 X37.448 Y33.403 E10.35229
G1 X38.176 Y33.229 E10.37718
G1 X38.918 Y33.134 E10.40207
G1 X39.435 Y33.115 E10.41927
G1 X70.762 Y33.115 E11.46121
G1 X71.509 Y33.155 E11.48609
G1 X72.247 Y33.274 E11.51096
G1 X72.969 Y33.472 E11.53586
G1 X73.665 Y33.745 E11.56072
G1 X74.328 Y34.092 E11.58561
G1 X74.951 Y34.507 E11.61051
G1 X75.525 Y34.986 E11.63538
G1 X76.046 Y35.523 E11.66026
G1 X76.505 Y36.113 E11.68512
G1 X76.9 Y36.749 E11.71002
G1 X77.224 Y37.423 E11.7349
G1 X77.474 Y38.128 E11.75978
G1 X77.648 Y38.856 E11.78467
G1 X77.743 Y39.598 E11.80955
G1 X77.762 Y40.118 E11.82686
G1 X77.761 Y42.118 E11.89338
G1 X77.721 Y42.865 E11.91826
G1 X77.601 Y43.604 E11.94316
G1 X77.403 Y44.325 E11.96803
G1 X77.129 Y45.021 E11.99291
G1 X76.783 Y45.684 E12.01778
G1 X76.367 Y46.307 E12.0427
G1 X75.888 Y46.881 E12.06756
G1 X75.35 Y47.401 E12.09245
G1 X74.76 Y47.86 E12.11731
G1 X74.341 Y48.119 E12.1337
G1 X75.008 Y48.155 E12.15591
G1 X75.746 Y48.274 E12.18078
G1 X76.468 Y48.472 E12.20568
G1 X77.164 Y48.745 E12.23054
G1 X77.827 Y49.092 E12.25543
G1 X78.45 Y49.507 E12.28033
G1 X79.024 Y49.986 E12.30519
G1 X79.545 Y50.523 E12.33008
G1 X80.004 Y51.113 E12.35494
G1 X80.399 Y51.749 E12.37984
G1 X80.723 Y52.423 E12.40472
G1 X80.973 Y53.128 E12.4296
G1 X81.147 Y53.856 E12.45449
G1 X81.242 Y54.598 E12.47937
G1 X81.261 Y55.115 E12.49658
G1 X81.261 Y57.115 E12.5631
G1 X81.221 Y57.862 E12.58798
G1 X81.102 Y58.6 E12.61284
G1 X80.904 Y59.322 E12.63774
G1 X80.631 Y60.018 E12.66261
G1 X80.284 Y60.681 E12.6875
G1 X79.869 Y61.304 E12.7124
G1 X79.39 Y61.878 E12.73726
G1 X78.853 Y62.399 E12.76215
G1 X78.263 Y62.858 E12.78701
G1 X77.627 Y63.253 E12.81191
G1 X76.953 Y63.577 E12.83678
G1 X76.248 Y63.827 E12.86166
G1 X75.52 Y64.001 E12.88656
G1 X74.778 Y64.096 E12.91144
G1 X74.261 Y64.115 E12.92864
G1 X39.434 Y64.115 E14.087
G1 X38.687 Y64.075 E14.11188
G1 X37.949 Y63.956 E14.13674
G1 X37.227 Y63.758 E14.16164
G1 X36.531 Y63.485 E14.18651
G1 X35.868 Y63.138 E14.2114
G1 X35.245 Y62.723 E14.23629
G1 X34.671 Y62.244 E14.26116
G1 X34.15 Y61.707 E14.28604
G1 X33.691 Y61.117 E14.31091
G1 X33.296 Y60.481 E14.33581
G1 X32.972 Y59.807 E14.36068
G1 X32.722 Y59.102 E14.38556
G1 X32.548 Y58.374 E14.41045
G1 X32.453 Y57.632 E14.43534
G1 X32.434 Y57.115 E14.45254
G1 X32.434 Y55.115 E14.51906
G1 X32.474 Y54.368 E14.54394
G1 X32.593 Y53.63 E14.56881
G1 X32.791 Y52.908 E14.59371
G1 X33.064 Y52.212 E14.61857
G1 X33.411 Y51.549 E14.64346
G1 X33.826 Y50.926 E14.66836
G1 X34.305 Y50.352 E14.69323
G1 X34.842 Y49.831 E14.71811
G1 X35.432 Y49.372 E14.74297
G1 X36.068 Y48.977 E14.76787
G1 X36.742 Y48.653 E14.79275
G1 X36.857 Y48.612 E14.79681
G1 X36.532 Y48.485 E14.80841
G1 X35.869 Y48.138 E14.8333
G1 X35.246 Y47.723 E14.8582
G1 X34.672 Y47.244 E14.88307
G1 X34.151 Y46.707 E14.90795
G1 X33.692 Y46.117 E14.93281
G1 X33.297 Y45.481 E14.95771
G1 X32.973 Y44.807 E14.98259
G1 X32.723 Y44.102 E15.00747
G1 X32.549 Y43.374 E15.03236
G1 X32.454 Y42.632 E15.05724
G1 X32.435 Y42.115 E15.07445
G1 X32.435 Y40.115 E15.14097
G1 X32.475 Y39.368 E15.16585
G1 X32.594 Y38.63 E15.19071
G1 X32.792 Y37.908 E15.21561
G1 X33.065 Y37.212 E15.24048
G1 X33.412 Y36.549 E15.26537
G1 X33.827 Y35.926 E15.29027
G1 X34.306 Y35.352 E15.31513
G1 X34.843 Y34.831 E15.34002
G0 F6000 X34.7 Y35.517
G1 F1200 X35.234 Y35.024 E15.36419
G1 X35.819 Y34.594 E15.38834
G1 X36.448 Y34.23 E15.41251
G1 X37.113 Y33.937 E15.43668
G1 X37.806 Y33.719 E15.46084
G1 X38.518 Y33.579 E15.48498
G1 X39.435 Y33.515 E15.51555
G1 X70.762 Y33.515 E16.55749
G1 X71.487 Y33.555 E16.58164
G1 X72.204 Y33.674 E16.60582
G1 X72.903 Y33.872 E16.62998
G1 X73.576 Y34.145 E16.65413
G1 X74.215 Y34.49 E16.67829
G1 X74.812 Y34.904 E16.70245
G1 X75.36 Y35.38 E16.72659
G1 X75.853 Y35.914 E16.75077
G1 X76.283 Y36.499 E16.77491
G1 X76.647 Y37.128 E16.79909
G1 X76.94 Y37.793 E16.82325
G1 X77.158 Y38.486 E16.84742
G1 X77.298 Y39.198 E16.87155
G1 X77.362 Y40.118 E16.90223
G1 X77.361 Y42.118 E16.96875
G1 X77.321 Y42.844 E16.99293
G1 X77.201 Y43.56 E17.01708
G1 X77.003 Y44.259 E17.04124
G1 X76.73 Y44.932 E17.06539
G1 X76.384 Y45.571 E17.08956
G1 X75.97 Y46.168 E17.11373
G1 X75.493 Y46.716 E17.13789
G1 X74.959 Y47.208 E17.16204
G1 X74.374 Y47.638 E17.18619
G1 X73.745 Y48.002 E17.21036
G1 X73.08 Y48.294 E17.23452
G1 X72.387 Y48.511 E17.25867
G1 X72.367 Y48.515 E17.25935
G1 X74.261 Y48.515 E17.32234
G1 X74.986 Y48.555 E17.34649
G1 X75.703 Y48.674 E17.37067
G1 X76.402 Y48.872 E17.39483
G1 X77.075 Y49.145 E17.41899
G1 X77.714 Y49.49 E17.44314
G1 X78.311 Y49.904 E17.4673
G1 X78.859 Y50.38 E17.49145
G1 X79.352 Y50.914 E17.51562
G1 X79.782 Y51.499 E17.53977
G1 X80.146 Y52.128 E17.56394
G1 X80.439 Y52.793 E17.58811
G1 X80.657 Y53.486 E17.61227
G1 X80.797 Y54.198 E17.6364
G1 X80.861 Y55.115 E17.66698
G1 X80.861 Y57.115 E17.7335
G1 X80.821 Y57.84 E17.75765
G1 X80.702 Y58.557 E17.78182
G1 X80.504 Y59.256 E17.80599
G1 X80.231 Y59.929 E17.83014
G1 X79.886 Y60.568 E17.85429
G1 X79.472 Y61.165 E17.87846
G1 X78.996 Y61.713 E17.9026
G1 X78.462 Y62.206 E17.92677
G1 X77.877 Y62.636 E17.95092
G1 X77.248 Y63 E17.97509
G1 X76.583 Y63.293 E17.99926
G1 X75.89 Y63.511 E18.02342
G1 X75.178 Y63.651 E18.04756
G1 X74.261 Y63.715 E18.07813
G1 X39.434 Y63.715 E19.23648
G1 X38.709 Y63.675 E19.26063
G1 X37.992 Y63.556 E19.28481
G1 X37.293 Y63.358 E19.30897
G1 X36.62 Y63.085 E19.33313
G1 X35.981 Y62.74 E19.35728
G1 X35.384 Y62.326 E19.38144
G1 X34.836 Y61.85 E19.40559
G1 X34.343 Y61.316 E19.42976
G1 X33.913 Y60.731 E19.45391
G1 X33.549 Y60.102 E19.47808
G1 X33.256 Y59.437 E19.50225
G1 X33.038 Y58.744 E19.52641
G1 X32.898 Y58.032 E19.55054
G1 X32.834 Y57.115 E19.58112
G1 X32.834 Y55.115 E19.64764
G1 X32.874 Y54.39 E19.67179
G1 X32.993 Y53.673 E19.69596
G1 X33.191 Y52.974 E19.72013
G1 X33.464 Y52.301 E19.74428
G1 X33.809 Y51.662 E19.76844
G1 X34.223 Y51.065 E19.7926
G1 X34.699 Y50.517 E19.81674
G1 X35.233 Y50.024 E19.84091
G1 X35.818 Y49.594 E19.86506
G1 X36.447 Y49.23 E19.88923
G1 X37.112 Y48.937 E19.9134
G1 X37.805 Y48.719 E19.93757
G1 X38.32 Y48.618 E19.95502
G1 X38.325 Y48.611 E19.95531
G1 X37.993 Y48.556 E19.9665
G1 X37.294 Y48.358 E19.99066
G1 X36.621 Y48.085 E20.01482
G1 X35.982 Y47.74 E20.03897
G1 X35.385 Y47.326 E20.06314
G1 X34.837 Y46.85 E20.08728
G1 X34.344 Y46.316 E20.11145
G1 X33.914 Y45.731 E20.1356
G1 X33.55 Y45.102 E20.15977
G1 X33.257 Y44.437 E20.18394
G1 X33.039 Y43.744 E20.2081
G1 X32.899 Y43.032 E20.23224
G1 X32.835 Y42.115 E20.26281
G1 X32.835 Y40.115 E20.32933
G1 X32.875 Y39.39 E20.35348
G1 X32.994 Y38.673 E20.37765
G1 X33.192 Y37.974 E20.40182
G1 X33.465 Y37.301 E20.42597
G1 X33.81 Y36.662 E20.45013
G1 X34.224 Y36.065 E20.47429
G1 X34.7 Y35.517 E20.49843
G0 F6000 X35.094 Y35.688
G1 F1200 X35.624 Y35.224 E20.52186
G1 X36.203 Y34.824 E20.54527
G1 X36.824 Y34.492 E20.56869
G1 X37.478 Y34.232 E20.5921
G1 X38.158 Y34.048 E20.61553
G1 X38.854 Y33.942 E20.63894
G1 X39.435 Y33.915 E20.65829
G1 X70.762 Y33.915 E21.70023
G1 X71.465 Y33.955 E21.72365
G1 X72.159 Y34.074 E21.74707
G1 X72.834 Y34.272 E21.77046
G1 X73.483 Y34.544 E21.79387
G1 X74.097 Y34.889 E21.81729
G1 X74.668 Y35.3 E21.84069
G1 X75.189 Y35.774 E21.86412
G1 X75.653 Y36.304 E21.88755
G1 X76.053 Y36.883 E21.91096
G1 X76.385 Y37.504 E21.93438
G1 X76.645 Y38.158 E21.95778
G1 X76.829 Y38.838 E21.98122
G1 X76.935 Y39.534 E22.00463
G1 X76.962 Y40.118 E22.02408
G1 X76.961 Y42.118 E22.0906
G1 X76.921 Y42.821 E22.11402
G1 X76.801 Y43.515 E22.13744
G1 X76.603 Y44.19 E22.16084
G1 X76.33 Y44.839 E22.18426
G1 X75.986 Y45.453 E22.20766
G1 X75.574 Y46.024 E22.23108
G1 X75.099 Y46.544 E22.25451
G1 X74.569 Y47.007 E22.27791
G1 X73.99 Y47.408 E22.30134
G1 X73.369 Y47.74 E22.32476
G1 X72.715 Y47.999 E22.34816
G1 X72.035 Y48.183 E22.37159
G1 X71.339 Y48.288 E22.395
G1 X70.761 Y48.315 E22.41424
G1 X70.268 Y48.315 E22.43064
G1 X70.268 Y48.915 E22.4506
G1 X74.261 Y48.915 E22.5834
G1 X74.964 Y48.955 E22.60682
G1 X75.658 Y49.074 E22.63024
G1 X76.333 Y49.272 E22.65364
G1 X76.982 Y49.544 E22.67704
G1 X77.596 Y49.889 E22.70047
G1 X78.167 Y50.3 E22.72387
G1 X78.688 Y50.774 E22.7473
G1 X79.152 Y51.304 E22.77072
G1 X79.552 Y51.883 E22.79413
G1 X79.884 Y52.504 E22.81755
G1 X80.144 Y53.158 E22.84096
G1 X80.328 Y53.838 E22.86439
G1 X80.434 Y54.534 E22.88781
G1 X80.461 Y55.115 E22.90715
G1 X80.461 Y57.115 E22.97367
G1 X80.421 Y57.818 E22.99709
G1 X80.302 Y58.512 E23.02051
G1 X80.104 Y59.187 E23.04391
G1 X79.832 Y59.836 E23.06731
G1 X79.487 Y60.45 E23.09074
G1 X79.076 Y61.021 E23.11414
G1 X78.602 Y61.542 E23.13756
G1 X78.072 Y62.006 E23.16099
G1 X77.493 Y62.406 E23.1844
G1 X76.872 Y62.738 E23.20782
G1 X76.218 Y62.998 E23.23123
G1 X75.538 Y63.182 E23.25466
G1 X74.842 Y63.288 E23.27807
