;FLAVOR:Marlin
;TIME:573
;Filament used: 0.295955m
;Layer height: 0.2
;MINX:22.17
;MINY:24.382
;MINZ:0.2
;MAXX:64.73
;MAXY:73.637
;MAXZ:4.8
;Generated with Cura_SteamEngine 4.10.0
M140 S50
M105
M190 S50
M104 S195
M105
M109 S195
M82 ;absolute extrusion mode
M201 X500.00 Y500.00 Z100.00 E5000.00 ;Setup machine max acceleration
M203 X500.00 Y500.00 Z10.00 E50.00 ;Setup machine max feedrate
M204 P500.00 R1000.00 T500.00 ;Setup Print/Retract/Travel acceleration
M205 X8.00 Y8.00 Z0.40 E5.00 ;Setup Jerk
M220 S100 ;Reset Feedrate
M221 S100 ;Reset Flowrate

G28 ;Home

G92 E0 ;Reset Extruder
G1 Z2.0 F3000 ;Move Z Axis up
G1 X10.1 Y20 Z0.28 F5000.0 ;Move to start position
G1 X10.1 Y200.0 Z0.28 F1500.0 E15 ;Draw the first line
G1 X10.4 Y200.0 Z0.28 F5000.0 ;Move to side a little
G1 X10.4 Y20 Z0.28 F1500.0 E30 ;Draw the second line
G92 E0 ;Reset Extruder
G1 Z2.0 F3000 ;Move Z Axis up

G92 E0
G92 E0
G1 F3000 E-8
;LAYER_COUNT:24
;LAYER:0
M107
G0 F6000 X25.268 Y27.026 Z0.2
;TYPE:SKIRT
G1 F3000 E0
G1 F1200 X25.731 Y26.626 E0.02035
G1 X26.001 Y26.411 E0.03183
G1 X26.548 Y26.013 E0.05433
G1 X27.263 Y25.59 E0.08196
G1 X27.596 Y25.416 E0.09446
G1 X28.313 Y25.086 E0.12071
G1 X28.91 Y24.875 E0.14177
G1 X29.257 Y24.768 E0.15385
G1 X30.022 Y24.574 E0.1801
G1 X30.663 Y24.473 E0.20168
G1 X31.019 Y24.432 E0.2136
G1 X31.807 Y24.382 E0.23986
G1 X32.407 Y24.397 E0.25982
G1 X32.768 Y24.42 E0.27185
G1 X33.449 Y24.493 E0.29463
G1 X34.264 Y24.66 E0.3223
G1 X34.616 Y24.752 E0.3344
G1 X35.369 Y24.991 E0.36068
G1 X35.923 Y25.222 E0.38064
G1 X36.236 Y25.367 E0.39212
G1 X36.855 Y25.688 E0.41531
G1 X42.03 Y28.674 E0.61403
G1 X42.693 Y29.103 E0.64029
G1 X43.31 Y29.596 E0.66656
G1 X43.83 Y30.104 E0.69074
G1 X43.873 Y30.15 E0.69283
G1 X44.382 Y30.753 E0.71908
G1 X44.828 Y31.405 E0.74535
G1 X45.118 Y31.922 E0.76507
G1 X56.395 Y53.951 E1.58818
G1 X60.793 Y56.49 E1.75708
G1 X61.456 Y56.918 E1.78333
G1 X62.073 Y57.412 E1.80962
G1 X62.636 Y57.966 E1.83589
G1 X63.14 Y58.573 E1.86213
G1 X63.581 Y59.229 E1.88842
G1 X63.952 Y59.925 E1.91466
G1 X64.252 Y60.656 E1.94094
G1 X64.427 Y61.221 E1.96061
G1 X64.47 Y61.381 E1.96612
G1 X64.636 Y62.153 E1.99238
G1 X64.723 Y62.937 E2.01862
G1 X64.73 Y63.727 E2.0449
G1 X64.658 Y64.513 E2.07115
G1 X64.506 Y65.288 E2.09742
G1 X64.277 Y66.044 E2.12369
G1 X63.972 Y66.773 E2.14997
G1 X63.692 Y67.304 E2.16994
G1 X62.309 Y69.7 E2.26195
G1 X61.881 Y70.363 E2.2882
G1 X61.387 Y70.98 E2.31449
G1 X60.833 Y71.543 E2.34076
G1 X60.226 Y72.047 E2.367
G1 X59.57 Y72.488 E2.39329
G1 X58.873 Y72.859 E2.41955
G1 X58.143 Y73.159 E2.4458
G1 X57.578 Y73.334 E2.46548
G1 X57.418 Y73.377 E2.47099
G1 X56.646 Y73.543 E2.49725
G1 X55.862 Y73.63 E2.52349
G1 X55.072 Y73.637 E2.54976
G1 X54.286 Y73.565 E2.57601
G1 X53.511 Y73.413 E2.60228
G1 X52.755 Y73.184 E2.62855
G1 X52.026 Y72.879 E2.65484
G1 X51.495 Y72.599 E2.6748
G1 X45.125 Y68.922 E2.91943
G1 X44.462 Y68.493 E2.9457
G1 X43.845 Y68 E2.97197
G1 X43.434 Y67.606 E2.9909
G1 X43.398 Y67.569 E2.99262
G1 X42.876 Y66.976 E3.0189
G1 X42.418 Y66.333 E3.04515
G1 X42.161 Y65.902 E3.06184
G1 X30.382 Y44.582 E3.87198
G1 X27.048 Y42.658 E4.00001
G1 X26.382 Y42.226 E4.02641
G1 X26.08 Y42.008 E4.0388
G1 X25.464 Y41.514 E4.06506
G1 X25.009 Y41.076 E4.08607
G1 X24.766 Y40.822 E4.09776
G1 X24.25 Y40.225 E4.124
G1 X23.889 Y39.722 E4.1446
G1 X23.69 Y39.42 E4.15663
G1 X23.47 Y39.066 E4.17049
G1 X22.98 Y38.079 E4.20714
G1 X22.843 Y37.746 E4.21911
G1 X22.58 Y37.001 E4.24539
G1 X22.435 Y36.438 E4.26473
G1 X22.357 Y36.08 E4.27692
G1 X22.229 Y35.314 E4.30275
G1 X22.177 Y34.551 E4.32818
G1 X22.17 Y34.183 E4.34042
G1 X22.195 Y33.394 E4.36668
G1 X22.271 Y32.777 E4.38736
G1 X22.329 Y32.422 E4.39932
G1 X22.496 Y31.65 E4.42559
G1 X22.697 Y31.014 E4.44778
G1 X22.829 Y30.651 E4.46062
G1 X23.136 Y29.924 E4.48687
G1 X23.441 Y29.354 E4.50837
G1 X23.615 Y29.059 E4.51976
G1 X24.054 Y28.394 E4.54627
G1 X24.464 Y27.882 E4.56808
G1 X24.695 Y27.617 E4.57977
G1 X25.268 Y27.026 E4.60715
G0 F6000 X25.541 Y27.318
G1 F1200 X25.98 Y26.939 E4.62644
G1 X26.25 Y26.724 E4.63792
G1 X26.77 Y26.346 E4.6593
G1 X27.448 Y25.944 E4.68552
G1 X27.781 Y25.77 E4.69802
G1 X28.48 Y25.45 E4.72359
G1 X29.027 Y25.258 E4.74287
G1 X29.374 Y25.151 E4.75495
G1 X30.12 Y24.962 E4.78054
G1 X30.708 Y24.871 E4.80033
G1 X31.064 Y24.83 E4.81225
G1 X31.832 Y24.781 E4.83785
G1 X32.382 Y24.796 E4.85615
G1 X32.743 Y24.819 E4.86818
G1 X33.39 Y24.889 E4.88982
G1 X34.163 Y25.047 E4.91606
G1 X34.515 Y25.139 E4.92816
G1 X35.248 Y25.372 E4.95375
G1 X35.755 Y25.585 E4.97204
G1 X36.068 Y25.73 E4.98351
G1 X36.655 Y26.034 E5.0055
G1 X41.83 Y29.02 E5.20422
G1 X42.476 Y29.439 E5.22983
G1 X43.074 Y29.922 E5.25539
G1 X43.538 Y30.377 E5.27701
G1 X43.581 Y30.423 E5.2791
G1 X44.076 Y31.011 E5.30467
G1 X44.508 Y31.648 E5.33026
G1 X44.762 Y32.104 E5.34763
G1 X56.093 Y54.238 E6.17466
G1 X60.593 Y56.836 E6.34749
G1 X61.239 Y57.255 E6.3731
G1 X61.837 Y57.738 E6.39866
G1 X62.382 Y58.281 E6.42425
G1 X62.867 Y58.877 E6.44981
G1 X63.289 Y59.521 E6.47542
G1 X63.641 Y60.205 E6.501
G1 X63.92 Y60.921 E6.52656
G1 X64.04 Y61.324 E6.54055
G1 X64.083 Y61.484 E6.54606
G1 X64.244 Y62.237 E6.57167
G1 X64.326 Y63.001 E6.59723
G1 X64.328 Y63.771 E6.62284
G1 X64.25 Y64.536 E6.64841
G1 X64.093 Y65.289 E6.674
G1 X63.859 Y66.021 E6.69956
G1 X63.55 Y66.726 E6.72516
G1 X63.346 Y67.104 E6.73944
G1 X61.963 Y69.5 E6.83146
G1 X61.544 Y70.146 E6.85707
G1 X61.061 Y70.744 E6.88263
G1 X60.518 Y71.289 E6.90822
G1 X59.922 Y71.774 E6.93378
G1 X59.278 Y72.196 E6.95939
G1 X58.594 Y72.548 E6.98497
G1 X57.878 Y72.827 E7.01053
G1 X57.475 Y72.947 E7.02452
G1 X57.315 Y72.99 E7.03003
G1 X56.562 Y73.151 E7.05564
G1 X55.798 Y73.233 E7.0812
G1 X55.028 Y73.235 E7.10681
G1 X54.263 Y73.157 E7.13238
G1 X53.51 Y73 E7.15797
G1 X52.778 Y72.766 E7.18353
G1 X52.073 Y72.457 E7.20913
G1 X51.695 Y72.253 E7.22341
G1 X45.325 Y68.576 E7.46804
G1 X44.679 Y68.157 E7.49365
G1 X44.081 Y67.674 E7.51922
G1 X43.72 Y67.327 E7.53588
G1 X43.684 Y67.29 E7.53759
G1 X43.177 Y66.712 E7.56317
G1 X42.733 Y66.084 E7.58875
G1 X42.511 Y65.709 E7.60324
G1 X30.677 Y44.29 E8.41714
G1 X27.248 Y42.311 E8.54882
G1 X26.616 Y41.902 E8.57386
G1 X26.314 Y41.684 E8.58625
G1 X25.714 Y41.202 E8.61184
G1 X25.298 Y40.8 E8.63109
G1 X25.055 Y40.546 E8.64278
G1 X24.553 Y39.963 E8.66837
G1 X24.223 Y39.502 E8.68722
G1 X24.024 Y39.2 E8.69925
G1 X23.815 Y38.863 E8.71244
G1 X23.35 Y37.926 E8.74723
G1 X23.213 Y37.593 E8.75921
G1 X22.957 Y36.868 E8.78478
G1 X22.826 Y36.353 E8.80246
G1 X22.748 Y35.995 E8.81464
G1 X22.627 Y35.268 E8.83915
G1 X22.577 Y34.544 E8.86329
G1 X22.57 Y34.176 E8.87553
G1 X22.596 Y33.407 E8.90113
G1 X22.666 Y32.842 E8.92006
G1 X22.724 Y32.487 E8.93203
G1 X22.887 Y31.735 E8.95762
G1 X23.073 Y31.151 E8.978
G1 X23.205 Y30.788 E8.99085
G1 X23.505 Y30.08 E9.01642
G1 X23.785 Y29.557 E9.03616
G1 X23.959 Y29.262 E9.04755
G1 X24.377 Y28.631 E9.07272
G1 X24.766 Y28.145 E9.09343
G1 X24.997 Y27.88 E9.10512
G1 X25.541 Y27.318 E9.13113
G0 F6000 X25.814 Y27.611
G1 F1200 X26.23 Y27.252 E9.14941
G1 X26.5 Y27.037 E9.16089
G1 X26.992 Y26.679 E9.18113
G1 X27.633 Y26.299 E9.20591
G1 X27.966 Y26.125 E9.21841
G1 X28.647 Y25.814 E9.24331
G1 X29.145 Y25.64 E9.26085
G1 X29.492 Y25.533 E9.27293
G1 X30.218 Y25.351 E9.29783
G1 X30.754 Y25.268 E9.31587
G1 X31.11 Y25.227 E9.32778
G1 X31.857 Y25.181 E9.35268
G1 X32.356 Y25.195 E9.36928
G1 X32.717 Y25.218 E9.38131
G1 X33.33 Y25.284 E9.40182
G1 X34.062 Y25.434 E9.42667
G1 X34.414 Y25.526 E9.43877
G1 X35.127 Y25.754 E9.46367
G1 X35.586 Y25.947 E9.48023
G1 X35.899 Y26.092 E9.4917
G1 X36.455 Y26.381 E9.51254
G1 X41.63 Y29.367 E9.71126
G1 X42.257 Y29.775 E9.73614
G1 X42.837 Y30.247 E9.76101
G1 X43.246 Y30.65 E9.78011
G1 X43.289 Y30.696 E9.78221
G1 X43.77 Y31.269 E9.80709
G1 X44.187 Y31.89 E9.83197
G1 X44.406 Y32.286 E9.84702
G1 X55.79 Y54.525 E10.67797
G1 X60.393 Y57.182 E10.85474
G1 X61.02 Y57.59 E10.87962
G1 X61.6 Y58.063 E10.90451
G1 X62.126 Y58.595 E10.9294
G1 X62.593 Y59.18 E10.95429
G1 X62.994 Y59.811 E10.97916
G1 X63.325 Y60.482 E11.00405
G1 X63.654 Y61.428 E11.03736
G1 X63.697 Y61.588 E11.04287
G1 X63.852 Y62.32 E11.06775
G1 X63.929 Y63.064 E11.09263
G1 X63.925 Y63.812 E11.11751
G1 X63.842 Y64.556 E11.14241
G1 X63.68 Y65.286 E11.16728
G1 X63.44 Y65.995 E11.19218
G1 X63 Y66.904 E11.22577
G1 X61.617 Y69.3 E11.31778
G1 X61.208 Y69.927 E11.34268
G1 X60.736 Y70.507 E11.36755
G1 X60.204 Y71.033 E11.39243
G1 X59.619 Y71.5 E11.41733
G1 X58.988 Y71.901 E11.4422
G1 X58.317 Y72.233 E11.4671
G1 X57.371 Y72.561 E11.5004
G1 X57.211 Y72.604 E11.50591
G1 X56.479 Y72.759 E11.53079
G1 X55.735 Y72.836 E11.55567
G1 X54.987 Y72.832 E11.58055
G1 X54.243 Y72.749 E11.60545
G1 X53.513 Y72.587 E11.63032
G1 X52.804 Y72.347 E11.65522
G1 X51.895 Y71.906 E11.68882
G1 X45.525 Y68.229 E11.93345
G1 X44.898 Y67.821 E11.95833
G1 X44.318 Y67.349 E11.9832
G1 X43.971 Y67.011 E11.99931
G1 X43.479 Y66.448 E12.02418
G1 X42.861 Y65.515 E12.0614
G1 X30.974 Y44 E12.87895
G1 X27.448 Y41.965 E13.01436
G1 X26.85 Y41.578 E13.03805
G1 X26.548 Y41.36 E13.05044
G1 X25.966 Y40.89 E13.07532
G1 X25.587 Y40.523 E13.09287
G1 X25.344 Y40.269 E13.10456
G1 X24.856 Y39.702 E13.12944
G1 X24.557 Y39.282 E13.14659
G1 X24.358 Y38.98 E13.15861
G1 X24.159 Y38.66 E13.17115
G1 X23.719 Y37.774 E13.20405
G1 X23.582 Y37.441 E13.21603
G1 X23.335 Y36.735 E13.2409
G1 X23.216 Y36.268 E13.25693
G1 X23.138 Y35.91 E13.26912
G1 X23.024 Y35.221 E13.29235
G1 X22.977 Y34.536 E13.31518
G1 X22.97 Y34.168 E13.32743
G1 X22.996 Y33.421 E13.35229
G1 X23.061 Y32.906 E13.36955
G1 X23.119 Y32.551 E13.38151
G1 X23.278 Y31.821 E13.40636
G1 X23.448 Y31.288 E13.42497
G1 X23.58 Y30.925 E13.43782
G1 X23.873 Y30.236 E13.46272
G1 X24.13 Y29.761 E13.48068
G1 X24.304 Y29.466 E13.49207
G1 X24.699 Y28.867 E13.51594
G1 X25.067 Y28.407 E13.53553
G1 X25.298 Y28.142 E13.54723
G1 X25.814 Y27.611 E13.57185
G0 F6000 X26.087 Y27.903
G1 F1200 X26.479 Y27.565 E13.58907
G1 X26.749 Y27.35 E13.60055
G1 X27.214 Y27.011 E13.61969
G1 X27.818 Y26.653 E13.64304
G1 X28.151 Y26.479 E13.65554
G1 X28.813 Y26.179 E13.67971
G1 X29.263 Y26.022 E13.69556
G1 X29.61 Y25.915 E13.70764
G1 X30.315 Y25.74 E13.7318
G1 X30.8 Y25.665 E13.74812
G1 X31.156 Y25.624 E13.76004
G1 X31.881 Y25.581 E13.7842
G1 X32.331 Y25.594 E13.79917
G1 X32.692 Y25.617 E13.8112
G1 X33.271 Y25.68 E13.83057
G1 X33.961 Y25.821 E13.854
G1 X34.313 Y25.913 E13.8661
G1 X35.005 Y26.136 E13.89028
G1 X35.418 Y26.31 E13.90518
G1 X35.731 Y26.455 E13.91666
G1 X36.256 Y26.727 E13.93632
G1 X41.431 Y29.713 E14.13504
G1 X42.039 Y30.11 E14.15919
G1 X42.6 Y30.572 E14.18336
G1 X42.953 Y30.923 E14.19992
G1 X42.996 Y30.969 E14.20202
G1 X43.463 Y31.526 E14.22619
G1 X43.865 Y32.131 E14.25035
G1 X44.05 Y32.469 E14.26317
G1 X55.488 Y54.813 E15.09804
G1 X60.193 Y57.529 E15.27874
G1 X60.801 Y57.926 E15.30289
G1 X61.362 Y58.388 E15.32706
G1 X61.869 Y58.908 E15.35121
G1 X62.315 Y59.481 E15.37536
G1 X62.696 Y60.1 E15.39954
G1 X63.007 Y60.756 E15.42369
G1 X63.268 Y61.532 E15.45092
G1 X63.311 Y61.692 E15.45643
G1 X63.46 Y62.403 E15.48059
G1 X63.531 Y63.126 E15.50475
G1 X63.522 Y63.852 E15.5289
G1 X63.433 Y64.573 E15.55306
G1 X63.265 Y65.28 E15.57723
G1 X63.021 Y65.964 E15.60139
G1 X62.653 Y66.704 E15.62887
G1 X61.27 Y69.1 E15.72089
G1 X60.873 Y69.709 E15.74507
G1 X60.411 Y70.269 E15.76921
G1 X59.891 Y70.776 E15.79337
G1 X59.318 Y71.223 E15.81754
G1 X58.699 Y71.603 E15.8417
G1 X58.043 Y71.914 E15.86585
G1 X57.267 Y72.175 E15.89308
G1 X57.107 Y72.218 E15.89859
G1 X56.396 Y72.367 E15.92275
G1 X55.673 Y72.438 E15.94691
G1 X54.947 Y72.429 E15.97106
G1 X54.226 Y72.34 E15.99522
G1 X53.519 Y72.172 E16.01939
G1 X52.835 Y71.928 E16.04355
G1 X52.094 Y71.56 E16.07106
G1 X45.724 Y67.883 E16.31569
G1 X45.116 Y67.486 E16.33985
G1 X44.556 Y67.024 E16.36399
G1 X44.258 Y66.733 E16.37785
G1 X43.78 Y66.185 E16.40203
G1 X43.211 Y65.322 E16.43641
G1 X31.269 Y43.708 E17.25773
G1 X27.648 Y41.618 E17.39678
G1 X27.084 Y41.253 E17.41913
G1 X26.782 Y41.035 E17.43152
G1 X26.217 Y40.579 E17.45566
G1 X25.876 Y40.246 E17.47152
G1 X25.633 Y39.992 E17.48321
G1 X25.16 Y39.441 E17.50736
G1 X24.891 Y39.061 E17.52285
G1 X24.692 Y38.759 E17.53488
G1 X24.504 Y38.457 E17.54671
G1 X24.089 Y37.622 E17.57772
G1 X23.952 Y37.289 E17.5897
G1 X23.713 Y36.603 E17.61386
G1 X23.607 Y36.183 E17.62827
G1 X23.529 Y35.825 E17.64045
G1 X23.421 Y35.174 E17.6624
G1 X23.377 Y34.529 E17.6839
G1 X23.37 Y34.161 E17.69614
G1 X23.396 Y33.435 E17.72031
G1 X23.455 Y32.971 E17.73586
G1 X23.513 Y32.616 E17.74783
G1 X23.67 Y31.906 E17.77201
G1 X23.824 Y31.424 E17.78884
G1 X23.956 Y31.061 E17.80169
G1 X24.242 Y30.394 E17.82583
G1 X24.474 Y29.964 E17.84208
G1 X24.648 Y29.669 E17.85347
G1 X25.022 Y29.104 E17.87601
G1 X25.369 Y28.67 E17.89449
G1 X25.6 Y28.405 E17.90618
G1 X26.087 Y27.903 E17.92944
G0 F6000 X26.36 Y28.195
G1 F1200 X26.728 Y27.878 E17.9456
G1 X26.998 Y27.663 E17.95708
G1 X27.436 Y27.344 E17.9751
G1 X28.004 Y27.008 E17.99705
G1 X28.337 Y26.834 E18.00954
G1 X28.978 Y26.544 E18.03294
G1 X29.381 Y26.404 E18.04713
G1 X29.728 Y26.297 E18.05921
G1 X30.411 Y26.128 E18.08261
G1 X30.846 Y26.063 E18.09724
G1 X31.202 Y26.022 E18.10916
G1 X31.904 Y25.981 E18.13255
G1 X32.305 Y25.994 E18.14589
G1 X32.666 Y26.017 E18.15793
G1 X33.212 Y26.076 E18.17619
G1 X33.86 Y26.208 E18.19819
G1 X34.212 Y26.3 E18.21029
G1 X34.882 Y26.517 E18.23371
G1 X35.25 Y26.673 E18.24701
G1 X35.563 Y26.818 E18.25848
G1 X36.056 Y27.074 E18.27695
G1 X41.231 Y30.06 E18.47567
G1 X41.819 Y30.446 E18.49907
G1 X42.361 Y30.896 E18.5225
G1 X42.661 Y31.196 E18.53661
G1 X42.704 Y31.242 E18.5387
G1 X43.155 Y31.783 E18.56213
G1 X43.694 Y32.651 E18.59611
G1 X55.186 Y55.1 E19.43492
G1 X59.993 Y57.875 E19.61953
G1 X60.582 Y58.261 E19.64295
G1 X61.123 Y58.711 E19.66635
G1 X61.61 Y59.22 E19.68978
G1 X62.036 Y59.781 E19.71321
G1 X62.395 Y60.386 E19.73661
G1 X62.684 Y61.028 E19.76003
G1 X62.882 Y61.636 E19.7813
G1 X62.925 Y61.796 E19.78681
G1 X63.068 Y62.485 E19.81021
G1 X63.133 Y63.186 E19.83363
G1 X63.118 Y63.89 E19.85705
G1 X63.023 Y64.587 E19.88044
G1 X62.85 Y65.27 E19.90388
G1 X62.6 Y65.928 E19.92729
G1 X62.307 Y66.504 E19.94878
G1 X60.924 Y68.9 E20.0408
G1 X60.538 Y69.489 E20.06422
G1 X60.087 Y70.03 E20.08765
G1 X59.579 Y70.517 E20.11105
G1 X59.018 Y70.943 E20.13448
G1 X58.413 Y71.302 E20.15788
G1 X57.771 Y71.591 E20.1813
G1 X57.163 Y71.789 E20.20256
G1 X57.003 Y71.832 E20.20807
G1 X56.314 Y71.975 E20.23148
G1 X55.613 Y72.04 E20.25489
G1 X54.909 Y72.025 E20.27831
G1 X54.212 Y71.93 E20.30171
G1 X53.529 Y71.757 E20.32514
G1 X52.871 Y71.507 E20.34856
G1 X52.294 Y71.214 E20.37008
G1 X45.924 Y67.537 E20.61471
G1 X45.336 Y67.151 E20.63811
G1 X44.58 Y66.491 E20.67148
G1 X44.544 Y66.454 E20.6732
G1 X44.083 Y65.922 E20.69661
G1 X43.561 Y65.128 E20.72822
G1 X31.566 Y43.418 E21.55318
G1 X27.848 Y41.272 E21.69596
G1 X27.318 Y40.929 E21.71696
G1 X27.016 Y40.711 E21.72935
G1 X26.47 Y40.267 E21.75275
G1 X26.165 Y39.97 E21.76691
G1 X25.922 Y39.716 E21.7786
G1 X25.465 Y39.18 E21.80203
G1 X25.225 Y38.841 E21.81585
G1 X25.026 Y38.539 E21.82788
G1 X24.849 Y38.255 E21.83901
G1 X24.459 Y37.47 E21.86816
G1 X24.322 Y37.137 E21.88014
G1 X24.092 Y36.472 E21.90354
G1 X23.998 Y36.098 E21.91637
G1 X23.92 Y35.74 E21.92855
G1 X23.818 Y35.127 E21.94922
G1 X23.777 Y34.521 E21.96942
G1 X23.77 Y34.153 E21.98167
G1 X23.797 Y33.449 E22.0051
G1 X23.85 Y33.035 E22.01898
G1 X23.908 Y32.68 E22.03094
G1 X24.061 Y31.993 E22.05435
G1 X24.2 Y31.561 E22.06945
G1 X24.332 Y31.198 E22.08229
G1 X24.61 Y30.551 E22.10572
G1 X24.819 Y30.167 E22.12026
G1 X24.993 Y29.872 E22.13165
G1 X25.344 Y29.341 E22.15282
G1 X25.67 Y28.933 E22.17019
G1 X25.901 Y28.668 E22.18188
G1 X26.36 Y28.195 E22.2038
G0 F6000 X26.633 Y28.488
G1 F1200 X26.977 Y28.191 E22.21892
G1 X27.247 Y27.976 E22.2304
G1 X27.658 Y27.677 E22.2473
G1 X28.189 Y27.362 E22.26784
G1 X28.522 Y27.188 E22.28033
G1 X29.143 Y26.909 E22.30298
G1 X29.499 Y26.787 E22.31549
G1 X29.846 Y26.68 E22.32757
G1 X30.507 Y26.517 E22.35022
G1 X30.891 Y26.46 E22.36313
G1 X31.247 Y26.419 E22.37505
G1 X31.927 Y26.381 E22.3977
G1 X32.28 Y26.393 E22.40945
G1 X32.641 Y26.416 E22.42148
G1 X33.152 Y26.471 E22.43857
G1 X33.759 Y26.595 E22.45918
G1 X34.111 Y26.687 E22.47128
