;FLAVOR:Marlin
;TIME:2228
;Filament used: 1.34282m
;Layer height: 0.2
;MINX:30.205
;MINY:40.046
;MINZ:0.2
;MAXX:80.26
;MAXY:72.146
;MAXZ:26.4
;Generated with Cura_SteamEngine 4.10.0
M140 S50
M105
M190 S50
M104 S195
M105
M109 S195
M82 ;absolute extrusion mode
M201 X500.00 Y500.00 Z100.00 E5000.00 ;Setup machine max acceleration
M203 X500.00 Y500.00 Z10.00 E50.00 ;Setup machine max feedrate
M204 P500.00 R1000.00 T500.00 ;Setup Print/Retract/Travel acceleration
M205 X8.00 Y8.00 Z0.40 E5.00 ;Setup Jerk
M220 S100 ;Reset Feedrate
M221 S100 ;Reset Flowrate

G28 ;Home

G92 E0 ;Reset Extruder
G1 Z2.0 F3000 ;Move Z Axis up
G1 X10.1 Y20 Z0.28 F5000.0 ;Move to start position
G1 X10.1 Y200.0 Z0.28 F1500.0 E15 ;Draw the first line
G1 X10.4 Y200.0 Z0.28 F5000.0 ;Move to side a little
G1 X10.4 Y20 Z0.28 F1500.0 E30 ;Draw the second line
G92 E0 ;Reset Extruder
G1 Z2.0 F3000 ;Move Z Axis up

G92 E0
G92 E0
G1 F3000 E-8
;LAYER_COUNT:132
;LAYER:0
M107
G0 F6000 X33.227 Y41.68 Z0.2
;TYPE:SKIRT
G1 F3000 E0
G1 F1200 X33.875 Y41.229 E0.02626
G1 X34.566 Y40.845 E0.05255
G1 X35.291 Y40.533 E0.0788
G1 X36.044 Y40.296 E0.10506
G1 X36.818 Y40.137 E0.13134
G1 X37.603 Y40.056 E0.15759
G1 X38.005 Y40.046 E0.17096
G1 X72.405 Y40.046 E1.31511
G1 X73.194 Y40.086 E1.34139
G1 X73.974 Y40.205 E1.36763
G1 X74.739 Y40.403 E1.39391
G1 X75.479 Y40.677 E1.42016
G1 X76.188 Y41.025 E1.44643
G1 X76.859 Y41.443 E1.47272
G1 X77.483 Y41.926 E1.49897
G1 X78.056 Y42.469 E1.52522
G1 X78.571 Y43.068 E1.5515
G1 X79.022 Y43.716 E1.57776
G1 X79.406 Y44.407 E1.60405
G1 X79.718 Y45.132 E1.6303
G1 X79.955 Y45.885 E1.65656
G1 X80.114 Y46.659 E1.68284
G1 X80.195 Y47.444 E1.70909
G1 X80.205 Y47.846 E1.72246
G1 X80.205 Y64.346 E2.27125
G1 X80.165 Y65.135 E2.29753
G1 X80.046 Y65.915 E2.32377
G1 X79.848 Y66.68 E2.35005
G1 X79.574 Y67.42 E2.3763
G1 X79.226 Y68.129 E2.40257
G1 X78.808 Y68.8 E2.42886
G1 X78.325 Y69.424 E2.45511
G1 X77.782 Y69.997 E2.48136
G1 X77.183 Y70.512 E2.50764
G1 X76.535 Y70.963 E2.5339
G1 X75.844 Y71.347 E2.56019
G1 X75.119 Y71.659 E2.58644
G1 X74.366 Y71.896 E2.6127
G1 X73.592 Y72.055 E2.63898
G1 X72.807 Y72.136 E2.66523
G1 X72.405 Y72.146 E2.6786
G1 X38.005 Y72.146 E3.82275
G1 X37.216 Y72.106 E3.84902
G1 X36.436 Y71.987 E3.87527
G1 X35.671 Y71.789 E3.90155
G1 X34.931 Y71.515 E3.9278
G1 X34.222 Y71.167 E3.95406
G1 X33.551 Y70.749 E3.98036
G1 X32.927 Y70.266 E4.0066
G1 X32.354 Y69.723 E4.03286
G1 X31.839 Y69.124 E4.05913
G1 X31.388 Y68.476 E4.08539
G1 X31.004 Y67.785 E4.11169
G1 X30.692 Y67.06 E4.13794
G1 X30.455 Y66.307 E4.16419
G1 X30.296 Y65.533 E4.19047
G1 X30.215 Y64.748 E4.21672
G1 X30.205 Y64.346 E4.2301
G1 X30.205 Y47.846 E4.77889
G1 X30.245 Y47.057 E4.80516
G1 X30.364 Y46.277 E4.83141
G1 X30.562 Y45.512 E4.85769
G1 X30.836 Y44.772 E4.88394
G1 X31.184 Y44.063 E4.9102
G1 X31.602 Y43.392 E4.9365
G1 X32.085 Y42.768 E4.96274
G1 X32.628 Y42.195 E4.989
G1 X33.227 Y41.68 E5.01527
G0 F6000 X33.616 Y41.888
G1 F1200 X34.258 Y41.465 E5.04085
G1 X34.941 Y41.11 E5.06645
G1 X35.656 Y40.829 E5.092
G1 X36.398 Y40.623 E5.11761
G1 X37.156 Y40.495 E5.14318
G1 X38.005 Y40.446 E5.17146
G1 X72.405 Y40.446 E6.31561
G1 X73.173 Y40.486 E6.34119
G1 X73.933 Y40.605 E6.36678
G1 X74.676 Y40.803 E6.39235
G1 X75.395 Y41.077 E6.41794
G1 X76.081 Y41.424 E6.44351
G1 X76.728 Y41.84 E6.4691
G1 X77.328 Y42.321 E6.49467
G1 X77.875 Y42.862 E6.52026
G1 X78.363 Y43.457 E6.54586
G1 X78.786 Y44.099 E6.57143
G1 X79.141 Y44.782 E6.59703
G1 X79.422 Y45.497 E6.62258
G1 X79.628 Y46.239 E6.64819
G1 X79.756 Y46.997 E6.67376
G1 X79.805 Y47.846 E6.70205
G1 X79.805 Y64.346 E7.25084
G1 X79.765 Y65.114 E7.27642
G1 X79.646 Y65.874 E7.302
G1 X79.448 Y66.617 E7.32758
G1 X79.174 Y67.336 E7.35317
G1 X78.827 Y68.022 E7.37874
G1 X78.411 Y68.669 E7.40432
G1 X77.93 Y69.269 E7.4299
G1 X77.389 Y69.816 E7.45549
G1 X76.794 Y70.304 E7.48108
G1 X76.152 Y70.727 E7.50665
G1 X75.469 Y71.082 E7.53226
G1 X74.754 Y71.363 E7.55781
G1 X74.012 Y71.569 E7.58342
G1 X73.254 Y71.697 E7.60899
G1 X72.405 Y71.746 E7.63727
G1 X38.005 Y71.746 E8.78142
G1 X37.237 Y71.706 E8.807
G1 X36.477 Y71.587 E8.83259
G1 X35.734 Y71.389 E8.85816
G1 X35.015 Y71.115 E8.88375
G1 X34.329 Y70.768 E8.90932
G1 X33.682 Y70.352 E8.9349
G1 X33.082 Y69.871 E8.96048
G1 X32.535 Y69.33 E8.98607
G1 X32.047 Y68.735 E9.01166
G1 X31.624 Y68.093 E9.03724
G1 X31.269 Y67.41 E9.06284
G1 X30.988 Y66.695 E9.08839
G1 X30.782 Y65.953 E9.114
G1 X30.654 Y65.195 E9.13957
G1 X30.605 Y64.346 E9.16785
G1 X30.605 Y47.846 E9.71665
G1 X30.645 Y47.078 E9.74223
G1 X30.764 Y46.318 E9.76781
G1 X30.962 Y45.575 E9.79339
G1 X31.236 Y44.856 E9.81898
G1 X31.583 Y44.17 E9.84455
G1 X31.999 Y43.523 E9.87013
G1 X32.48 Y42.923 E9.89571
G1 X33.021 Y42.376 E9.9213
G1 X33.616 Y41.888 E9.94689
G0 F6000 X34.003 Y42.103
G1 F1200 X34.639 Y41.708 E9.97179
G1 X35.313 Y41.384 E9.99666
G1 X36.018 Y41.134 E10.02154
G1 X36.746 Y40.96 E10.04644
G1 X37.488 Y40.865 E10.07132
G1 X38.005 Y40.846 E10.08853
G1 X72.405 Y40.846 E11.23268
G1 X73.152 Y40.886 E11.25756
G1 X73.89 Y41.005 E11.28242
G1 X74.612 Y41.203 E11.30732
G1 X75.308 Y41.476 E11.33219
G1 X75.971 Y41.823 E11.35707
G1 X76.594 Y42.238 E11.38197
G1 X77.168 Y42.717 E11.40684
G1 X77.689 Y43.254 E11.43172
G1 X78.148 Y43.844 E11.45659
G1 X78.543 Y44.48 E11.48149
G1 X78.867 Y45.154 E11.50636
G1 X79.117 Y45.859 E11.53124
G1 X79.291 Y46.587 E11.55613
G1 X79.386 Y47.329 E11.58101
G1 X79.405 Y47.846 E11.59822
G1 X79.405 Y64.346 E12.14701
G1 X79.365 Y65.093 E12.1719
G1 X79.246 Y65.831 E12.19676
G1 X79.048 Y66.553 E12.22166
G1 X78.775 Y67.249 E12.24652
G1 X78.428 Y67.912 E12.27141
G1 X78.013 Y68.535 E12.29631
G1 X77.534 Y69.109 E12.32118
G1 X76.997 Y69.63 E12.34606
G1 X76.407 Y70.089 E12.37092
G1 X75.771 Y70.484 E12.39583
G1 X75.097 Y70.808 E12.4207
G1 X74.392 Y71.058 E12.44558
G1 X73.664 Y71.232 E12.47047
G1 X72.922 Y71.327 E12.49535
G1 X72.405 Y71.346 E12.51256
G1 X38.005 Y71.346 E13.65671
G1 X37.258 Y71.306 E13.68159
G1 X36.52 Y71.187 E13.70645
G1 X35.798 Y70.989 E13.73135
G1 X35.102 Y70.716 E13.75622
G1 X34.439 Y70.369 E13.78111
G1 X33.816 Y69.954 E13.80601
G1 X33.242 Y69.475 E13.83087
G1 X32.721 Y68.938 E13.85576
G1 X32.262 Y68.348 E13.88062
G1 X31.867 Y67.712 E13.90552
G1 X31.543 Y67.038 E13.93039
G1 X31.293 Y66.333 E13.95527
G1 X31.119 Y65.605 E13.98017
G1 X31.024 Y64.863 E14.00505
G1 X31.005 Y64.346 E14.02226
G1 X31.005 Y47.846 E14.57105
G1 X31.045 Y47.099 E14.59593
G1 X31.164 Y46.361 E14.62079
G1 X31.362 Y45.639 E14.64569
G1 X31.635 Y44.943 E14.67056
G1 X31.982 Y44.28 E14.69545
G1 X32.397 Y43.657 E14.72035
G1 X32.876 Y43.083 E14.74521
G1 X33.413 Y42.562 E14.7701
G1 X34.003 Y42.103 E14.79496
G0 F6000 X33.804 Y42.755
G1 F1200 X34.389 Y42.325 E14.81911
G1 X35.018 Y41.961 E14.84328
G1 X35.683 Y41.668 E14.86745
G1 X36.376 Y41.45 E14.89161
G1 X37.088 Y41.31 E14.91575
G1 X38.005 Y41.246 E14.94632
G1 X72.405 Y41.246 E16.09047
G1 X73.13 Y41.286 E16.11462
G1 X73.847 Y41.405 E16.13879
G1 X74.546 Y41.603 E16.16296
G1 X75.219 Y41.876 E16.18711
G1 X75.858 Y42.221 E16.21126
G1 X76.455 Y42.635 E16.23543
G1 X77.003 Y43.111 E16.25957
G1 X77.496 Y43.645 E16.28374
G1 X77.926 Y44.23 E16.30789
G1 X78.29 Y44.859 E16.33206
G1 X78.583 Y45.524 E16.35623
G1 X78.801 Y46.217 E16.38039
G1 X78.941 Y46.929 E16.40453
G1 X79.005 Y47.846 E16.4351
G1 X79.005 Y64.346 E16.98389
G1 X78.965 Y65.071 E17.00805
G1 X78.846 Y65.788 E17.03222
G1 X78.648 Y66.487 E17.05638
G1 X78.375 Y67.16 E17.08054
G1 X78.03 Y67.799 E17.10469
G1 X77.616 Y68.396 E17.12885
G1 X77.14 Y68.944 E17.153
G1 X76.606 Y69.437 E17.17717
G1 X76.021 Y69.867 E17.20132
G1 X75.392 Y70.231 E17.22549
G1 X74.727 Y70.524 E17.24966
G1 X74.034 Y70.742 E17.27382
G1 X73.322 Y70.882 E17.29796
G1 X72.405 Y70.946 E17.32853
G1 X38.005 Y70.946 E18.47268
G1 X37.28 Y70.906 E18.49683
G1 X36.563 Y70.787 E18.521
G1 X35.864 Y70.589 E18.54517
G1 X35.191 Y70.316 E18.56932
G1 X34.552 Y69.971 E18.59347
G1 X33.955 Y69.557 E18.61764
G1 X33.407 Y69.081 E18.64178
G1 X32.914 Y68.547 E18.66595
G1 X32.484 Y67.962 E18.6901
G1 X32.12 Y67.333 E18.71427
G1 X31.827 Y66.668 E18.73844
G1 X31.609 Y65.975 E18.7626
G1 X31.469 Y65.263 E18.78674
G1 X31.405 Y64.346 E18.81731
G1 X31.405 Y47.846 E19.36611
G1 X31.445 Y47.121 E19.39026
G1 X31.564 Y46.404 E19.41443
G1 X31.762 Y45.705 E19.43859
G1 X32.035 Y45.032 E19.46275
G1 X32.38 Y44.393 E19.4869
G1 X32.794 Y43.796 E19.51107
G1 X33.27 Y43.248 E19.53521
G1 X33.804 Y42.755 E19.55938
G0 F6000 X34.194 Y42.955
G1 F1200 X34.773 Y42.555 E19.58279
G1 X35.394 Y42.223 E19.60621
G1 X36.048 Y41.963 E19.62962
G1 X36.728 Y41.779 E19.65305
G1 X37.424 Y41.673 E19.67646
G1 X38.005 Y41.646 E19.69581
G1 X72.405 Y41.646 E20.83996
G1 X73.108 Y41.686 E20.86338
G1 X73.802 Y41.805 E20.88679
G1 X74.477 Y42.003 E20.91019
G1 X75.126 Y42.275 E20.9336
G1 X75.74 Y42.62 E20.95702
G1 X76.311 Y43.031 E20.98042
G1 X76.832 Y43.505 E21.00385
G1 X77.296 Y44.035 E21.02728
G1 X77.696 Y44.614 E21.05068
G1 X78.028 Y45.235 E21.0741
G1 X78.288 Y45.889 E21.09751
G1 X78.472 Y46.569 E21.12094
G1 X78.578 Y47.265 E21.14436
G1 X78.605 Y47.846 E21.1637
G1 X78.605 Y64.346 E21.7125
G1 X78.565 Y65.049 E21.73591
G1 X78.446 Y65.743 E21.75933
G1 X78.248 Y66.418 E21.78273
G1 X77.976 Y67.067 E21.80614
G1 X77.631 Y67.681 E21.82956
G1 X77.22 Y68.252 E21.85296
G1 X76.746 Y68.773 E21.87639
G1 X76.216 Y69.237 E21.89982
G1 X75.637 Y69.637 E21.92322
G1 X75.016 Y69.969 E21.94664
G1 X74.362 Y70.229 E21.97005
G1 X73.682 Y70.413 E21.99348
G1 X72.986 Y70.519 E22.0169
G1 X72.405 Y70.546 E22.03624
G1 X38.005 Y70.546 E23.18039
G1 X37.302 Y70.506 E23.20381
G1 X36.608 Y70.387 E23.22723
G1 X35.933 Y70.189 E23.25063
G1 X35.284 Y69.917 E23.27403
G1 X34.67 Y69.572 E23.29746
G1 X34.099 Y69.161 E23.32086
G1 X33.578 Y68.687 E23.34428
G1 X33.114 Y68.157 E23.36771
G1 X32.714 Y67.578 E23.39112
G1 X32.382 Y66.957 E23.41454
G1 X32.122 Y66.303 E23.43795
G1 X31.938 Y65.623 E23.46138
G1 X31.832 Y64.927 E23.48479
G1 X31.805 Y64.346 E23.50414
G1 X31.805 Y47.846 E24.05293
G1 X31.845 Y47.143 E24.07635
G1 X31.964 Y46.449 E24.09977
G1 X32.162 Y45.774 E24.12317
G1 X32.434 Y45.125 E24.14657
G1 X32.779 Y44.511 E24.17
G1 X33.19 Y43.94 E24.1934
G1 X33.664 Y43.419 E24.21682
G1 X34.194 Y42.955 E24.24025
G0 F6000 X34.583 Y43.163
G1 F1200 X35.155 Y42.794 E24.26289
G1 X35.767 Y42.495 E24.28555
G1 X36.409 Y42.27 E24.30817
G1 X37.074 Y42.121 E24.33084
G1 X38.005 Y42.046 E24.3619
G1 X72.405 Y42.046 E25.50605
G1 X73.085 Y42.086 E25.52871
G1 X73.755 Y42.205 E25.55134
G1 X74.407 Y42.402 E25.574
G1 X75.031 Y42.674 E25.59664
G1 X75.619 Y43.018 E25.61929
G1 X76.163 Y43.428 E25.64195
G1 X76.654 Y43.899 E25.66458
G1 X77.088 Y44.424 E25.68724
G1 X77.457 Y44.996 E25.70988
G1 X77.756 Y45.608 E25.73253
G1 X77.981 Y46.25 E25.75516
G1 X78.13 Y46.915 E25.77782
G1 X78.205 Y47.846 E25.80889
G1 X78.205 Y64.346 E26.35768
G1 X78.165 Y65.026 E26.38034
G1 X78.046 Y65.696 E26.40297
G1 X77.849 Y66.348 E26.42562
G1 X77.577 Y66.972 E26.44826
G1 X77.233 Y67.56 E26.47092
G1 X76.823 Y68.104 E26.49358
G1 X76.352 Y68.595 E26.51621
G1 X75.827 Y69.029 E26.53886
G1 X75.255 Y69.398 E26.5615
G1 X74.643 Y69.697 E26.58416
G1 X74.001 Y69.922 E26.60679
G1 X73.336 Y70.071 E26.62945
G1 X72.405 Y70.146 E26.66052
G1 X38.005 Y70.146 E27.80467
G1 X37.325 Y70.106 E27.82732
G1 X36.655 Y69.987 E27.84996
G1 X36.003 Y69.79 E27.87261
G1 X35.379 Y69.518 E27.89525
G1 X34.791 Y69.174 E27.91791
G1 X34.247 Y68.764 E27.94056
G1 X33.756 Y68.293 E27.96319
G1 X33.322 Y67.768 E27.98585
G1 X32.953 Y67.196 E28.00849
G1 X32.654 Y66.584 E28.03114
G1 X32.429 Y65.942 E28.05377
G1 X32.28 Y65.277 E28.07644
G1 X32.205 Y64.346 E28.1075
G1 X32.205 Y47.846 E28.65629
G1 X32.245 Y47.166 E28.67895
G1 X32.364 Y46.496 E28.70158
G1 X32.561 Y45.844 E28.72424
G1 X32.833 Y45.22 E28.74688
G1 X33.177 Y44.632 E28.76954
G1 X33.587 Y44.088 E28.79219
G1 X34.058 Y43.597 E28.81482
G1 X34.583 Y43.163 E28.83748
G0 F6000 X34.45 Y43.781
G1 F1200 X34.97 Y43.38 E28.85932
G1 X35.534 Y43.044 E28.88115
G1 X36.136 Y42.78 E28.90302
G1 X36.765 Y42.59 E28.92487
G1 X37.412 Y42.479 E28.9467
G1 X38.005 Y42.446 E28.96646
G1 X72.405 Y42.446 E30.11061
G1 X73.061 Y42.486 E30.13247
G1 X73.707 Y42.605 E30.15431
G1 X74.334 Y42.802 E30.17617
G1 X74.932 Y43.074 E30.19802
G1 X75.493 Y43.416 E30.21988
G1 X76.008 Y43.824 E30.24173
G1 X76.47 Y44.291 E30.26358
G1 X76.871 Y44.811 E30.28542
G1 X77.207 Y45.375 E30.30725
G1 X77.471 Y45.977 E30.32912
G1 X77.661 Y46.606 E30.35097
G1 X77.772 Y47.253 E30.37281
G1 X77.805 Y47.846 E30.39256
G1 X77.805 Y64.346 E30.94135
G1 X77.765 Y65.002 E30.96321
G1 X77.646 Y65.648 E30.98506
G1 X77.449 Y66.275 E31.00692
G1 X77.177 Y66.873 E31.02877
G1 X76.835 Y67.434 E31.05062
G1 X76.427 Y67.949 E31.07247
G1 X75.96 Y68.411 E31.09432
G1 X75.44 Y68.812 E31.11616
G1 X74.876 Y69.148 E31.138
G1 X74.274 Y69.412 E31.15986
G1 X73.645 Y69.602 E31.18172
G1 X72.998 Y69.713 E31.20355
G1 X72.405 Y69.746 E31.2233
G1 X38.005 Y69.746 E32.36745
G1 X37.349 Y69.706 E32.38931
G1 X36.703 Y69.587 E32.41116
G1 X36.076 Y69.39 E32.43302
G1 X35.478 Y69.118 E32.45487
G1 X34.917 Y68.776 E32.47672
G1 X34.402 Y68.368 E32.49857
G1 X33.94 Y67.901 E32.52042
G1 X33.539 Y67.381 E32.54226
G1 X33.203 Y66.817 E32.5641
G1 X32.939 Y66.215 E32.58596
G1 X32.749 Y65.586 E32.60782
G1 X32.638 Y64.939 E32.62965
G1 X32.605 Y64.346 E32.6494
G1 X32.605 Y47.846 E33.1982
G1 X32.645 Y47.19 E33.22006
G1 X32.764 Y46.544 E33.2419
G1 X32.961 Y45.917 E33.26376
G1 X33.233 Y45.319 E33.28561
G1 X33.575 Y44.758 E33.30747
G1 X33.983 Y44.243 E33.32932
G1 X34.45 Y43.781 E33.35117
G0 F6000 X34.841 Y43.975
G1 F1200 X35.355 Y43.606 E33.37221
G1 X35.911 Y43.306 E33.39322
G1 X36.5 Y43.078 E33.41423
G1 X37.114 Y42.926 E33.43527
G1 X38.005 Y42.846 E33.46502
G1 X72.405 Y42.846 E34.60917
G1 X73.036 Y42.886 E34.6302
G1 X73.657 Y43.005 E34.65123
G1 X74.257 Y43.202 E34.67224
G1 X74.829 Y43.473 E34.69329
G1 X75.361 Y43.813 E34.71429
G1 X75.846 Y44.219 E34.73532
G1 X76.276 Y44.682 E34.75634
G1 X76.645 Y45.196 E34.77739
G1 X76.945 Y45.752 E34.7984
G1 X77.173 Y46.341 E34.81941
G1 X77.325 Y46.955 E34.84044
G1 X77.405 Y47.846 E34.8702
G1 X77.405 Y64.346 E35.41899
G1 X77.365 Y64.977 E35.44002
G1 X77.246 Y65.598 E35.46105
G1 X77.049 Y66.198 E35.48205
G1 X76.778 Y66.77 E35.50311
G1 X76.438 Y67.302 E35.52411
G1 X76.032 Y67.787 E35.54514
G1 X75.569 Y68.217 E35.56616
G1 X75.055 Y68.586 E35.5872
G1 X74.499 Y68.886 E35.60822
G1 X73.91 Y69.114 E35.62922
G1 X73.296 Y69.266 E35.65026
G1 X72.405 Y69.346 E35.68002
G1 X38.005 Y69.346 E36.82416
G1 X37.374 Y69.306 E36.84519
G1 X36.753 Y69.187 E36.86622
G1 X36.153 Y68.99 E36.88723
G1 X35.581 Y68.719 E36.90828
G1 X35.049 Y68.379 E36.92928
G1 X34.564 Y67.973 E36.95032
G1 X34.134 Y67.51 E36.97133
G1 X33.765 Y66.996 E36.99238
G1 X33.465 Y66.44 E37.01339
G1 X33.237 Y65.851 E37.0344
G1 X33.085 Y65.237 E37.05544
G1 X33.005 Y64.346 E37.08519
G1 X33.005 Y47.846 E37.63398
G1 X33.045 Y47.215 E37.65501
G1 X33.164 Y46.594 E37.67604
G1 X33.361 Y45.994 E37.69705
G1 X33.632 Y45.422 E37.7181
G1 X33.972 Y44.89 E37.7391
G1 X34.378 Y44.405 E37.76013
G1 X34.841 Y43.975 E37.78115
G0 F6000 X35.23 Y44.177
G1 F1200 X35.737 Y43.844 E37.80133
G1 X36.283 Y43.58 E37.8215
G1 X36.859 Y43.391 E37.84166
G1 X37.455 Y43.279 E37.86183
G1 X38.005 Y43.246 E37.88016
G1 X72.405 Y43.246 E39.0243
G1 X73.01 Y43.286 E39.04447
G1 X73.604 Y43.405 E39.06462
G1 X74.178 Y43.601 E39.08479
G1 X74.721 Y43.872 E39.10498
G1 X75.224 Y44.211 E39.12515
G1 X75.677 Y44.613 E39.1453
G1 X76.074 Y45.071 E39.16546
G1 X76.407 Y45.578 E39.18563
G1 X76.671 Y46.124 E39.2058
G1 X76.86 Y46.7 E39.22596
G1 X76.972 Y47.296 E39.24613
G1 X77.005 Y47.846 E39.26446
G1 X77.005 Y64.346 E39.81325
G1 X76.965 Y64.951 E39.83342
G1 X76.846 Y65.545 E39.85357
G1 X76.65 Y66.119 E39.87374
G1 X76.379 Y66.662 E39.89393
G1 X76.04 Y67.165 E39.9141
G1 X75.638 Y67.618 E39.93425
G1 X75.18 Y68.015 E39.9544
G1 X74.673 Y68.348 E39.97458
G1 X74.127 Y68.612 E39.99475
G1 X73.551 Y68.801 E40.01491
G1 X72.955 Y68.913 E40.03508
G1 X72.405 Y68.946 E40.05341
G1 X38.005 Y68.946 E41.19756
G1 X37.4 Y68.906 E41.21772
G1 X36.806 Y68.787 E41.23787
G1 X36.232 Y68.591 E41.25805
G1 X35.689 Y68.32 E41.27823
G1 X35.186 Y67.981 E41.29841
G1 X34.733 Y67.579 E41.31855
