;FLAVOR:Marlin
;TIME:2239
;Filament used: 1.22904m
;Layer height: 0.2
;MINX:16.194
;MINY:26.603
;MINZ:0.2
;MAXX:82.137
;MAXY:57.721
;MAXZ:15
;Generated with Cura_SteamEngine 4.10.0
M140 S50
M105
M190 S50
M104 S195
M105
M109 S195
M82 ;absolute extrusion mode
M201 X500.00 Y500.00 Z100.00 E5000.00 ;Setup machine max acceleration
M203 X500.00 Y500.00 Z10.00 E50.00 ;Setup machine max feedrate
M204 P500.00 R1000.00 T500.00 ;Setup Print/Retract/Travel acceleration
M205 X8.00 Y8.00 Z0.40 E5.00 ;Setup Jerk
M220 S100 ;Reset Feedrate
M221 S100 ;Reset Flowrate

G28 ;Home

G92 E0 ;Reset Extruder
G1 Z2.0 F3000 ;Move Z Axis up
G1 X10.1 Y20 Z0.28 F5000.0 ;Move to start position
G1 X10.1 Y200.0 Z0.28 F1500.0 E15 ;Draw the first line
G1 X10.4 Y200.0 Z0.28 F5000.0 ;Move to side a little
G1 X10.4 Y20 Z0.28 F1500.0 E30 ;Draw the second line
G92 E0 ;Reset Extruder
G1 Z2.0 F3000 ;Move Z Axis up

G92 E0
G92 E0
G1 F3000 E-8
;LAYER_COUNT:75
;LAYER:0
M107
G0 F6000 X21.495 Y28.538 Z0.2
;TYPE:SKIRT
G1 F3000 E0
G1 F1200 X22.142 Y28.085 E0.02627
G1 X22.86 Y27.686 E0.05359
G1 X23.216 Y27.512 E0.06677
G1 X23.885 Y27.223 E0.09101
G1 X24.689 Y26.966 E0.11908
G1 X25.06 Y26.869 E0.13184
G1 X26.001 Y26.684 E0.16373
G1 X26.668 Y26.622 E0.18601
G1 X27.05 Y26.603 E0.19873
G1 X27.866 Y26.605 E0.22587
G1 X28.633 Y26.683 E0.25152
G1 X29.013 Y26.741 E0.2643
G1 X29.942 Y26.942 E0.29592
G1 X30.577 Y27.148 E0.31812
G1 X30.942 Y27.284 E0.33107
G1 X31.725 Y27.625 E0.35948
G1 X32.323 Y27.958 E0.38225
G1 X32.645 Y28.156 E0.39482
G1 X33.258 Y28.59 E0.4198
G1 X74.223 Y28.59 E1.7823
G1 X75.012 Y28.63 E1.80858
G1 X75.792 Y28.749 E1.83482
G1 X76.557 Y28.947 E1.8611
G1 X77.297 Y29.221 E1.88735
G1 X78.006 Y29.569 E1.91362
G1 X78.677 Y29.987 E1.93991
G1 X79.301 Y30.47 E1.96616
G1 X79.83 Y30.967 E1.9903
G1 X79.948 Y31.089 E1.99594
G1 X80.467 Y31.684 E2.0222
G1 X80.924 Y32.328 E2.04847
G1 X81.313 Y33.015 E2.07473
G1 X81.631 Y33.738 E2.101
G1 X81.874 Y34.489 E2.12725
G1 X82.04 Y35.261 E2.15351
G1 X82.127 Y36.046 E2.17978
G1 X82.137 Y36.76 E2.20353
G1 X81.793 Y47.557 E2.56282
G1 X81.728 Y48.344 E2.58909
G1 X81.584 Y49.121 E2.61537
G1 X81.362 Y49.879 E2.64164
G1 X81.064 Y50.61 E2.6679
G1 X80.694 Y51.308 E2.69417
G1 X80.255 Y51.964 E2.72043
G1 X79.753 Y52.573 E2.74668
G1 X79.415 Y52.92 E2.76279
G1 X79.299 Y53.032 E2.76815
G1 X78.704 Y53.551 E2.79441
G1 X78.059 Y54.008 E2.8207
G1 X77.372 Y54.396 E2.84695
G1 X76.649 Y54.714 E2.87322
G1 X75.897 Y54.956 E2.89949
G1 X75.125 Y55.121 E2.92575
G1 X74.34 Y55.207 E2.95201
G1 X73.881 Y55.221 E2.96729
G1 X33.201 Y55.221 E4.32031
G1 X32.855 Y55.512 E4.33535
G1 X32.514 Y55.769 E4.34955
G1 X31.86 Y56.212 E4.37582
G1 X31.314 Y56.513 E4.39656
G1 X30.895 Y56.723 E4.41215
G1 X30.452 Y56.928 E4.42838
G1 X29.471 Y57.273 E4.46297
G1 X29.04 Y57.393 E4.47785
G1 X28.27 Y57.566 E4.5041
G1 X27.662 Y57.646 E4.52449
G1 X27.205 Y57.688 E4.53976
G1 X26.416 Y57.721 E4.56602
G1 X25.804 Y57.691 E4.5864
G1 X25.374 Y57.653 E4.60076
G1 X24.937 Y57.602 E4.61539
G1 X23.926 Y57.388 E4.64976
G1 X23.482 Y57.263 E4.66511
G1 X22.734 Y57.011 E4.69136
G1 X22.101 Y56.728 E4.71442
G1 X21.682 Y56.518 E4.73001
G1 X20.923 Y56.083 E4.75911
G1 X20.434 Y55.739 E4.77899
G1 X20.09 Y55.477 E4.79337
G1 X19.494 Y54.975 E4.81929
G1 X19.037 Y54.513 E4.8409
G1 X18.729 Y54.175 E4.85611
G1 X18.227 Y53.565 E4.88239
G1 X17.849 Y53.006 E4.90483
G1 X17.616 Y52.627 E4.91963
G1 X17.237 Y51.934 E4.9459
G1 X17.012 Y51.421 E4.96453
G1 X16.844 Y50.998 E4.97967
G1 X16.643 Y50.43 E4.99971
G1 X16.414 Y49.501 E5.03154
G1 X16.332 Y49.051 E5.04675
G1 X16.217 Y48.072 E5.07953
G1 X16.205 Y47.849 E5.08696
G1 X16.194 Y47.426 E5.10104
G1 X16.195 Y45.413 E5.16799
G1 X16.28 Y44.265 E5.20628
G1 X17.609 Y35.365 E5.50557
G1 X17.63 Y35.162 E5.51236
G1 X17.753 Y34.382 E5.53862
G1 X17.941 Y33.658 E5.5635
G1 X18.053 Y33.299 E5.57601
G1 X18.326 Y32.558 E5.60228
G1 X18.658 Y31.875 E5.62753
G1 X18.859 Y31.508 E5.64145
G1 X19.148 Y31.023 E5.66023
G1 X19.791 Y30.16 E5.69602
G1 X20.04 Y29.87 E5.70874
G1 X20.639 Y29.246 E5.73751
G1 X21.184 Y28.78 E5.76136
G1 X21.495 Y28.538 E5.77446
G0 F6000 X21.741 Y28.854
G1 F1200 X22.371 Y28.414 E5.80002
G1 X23.036 Y28.046 E5.8253
G1 X23.392 Y27.872 E5.83848
G1 X24.028 Y27.597 E5.86153
G1 X24.79 Y27.353 E5.88814
G1 X25.161 Y27.256 E5.90089
G1 X26.055 Y27.08 E5.9312
G1 X26.687 Y27.021 E5.95231
G1 X27.069 Y27.002 E5.96503
G1 X27.845 Y27.004 E5.99084
G1 X28.573 Y27.079 E6.01518
G1 X28.953 Y27.137 E6.02797
G1 X29.835 Y27.327 E6.05797
G1 X30.438 Y27.523 E6.07906
G1 X30.803 Y27.659 E6.09202
G1 X31.546 Y27.983 E6.11898
G1 X32.113 Y28.298 E6.14055
G1 X32.435 Y28.496 E6.15312
G1 X33.131 Y28.99 E6.18151
G1 X74.223 Y28.99 E7.54824
G1 X74.991 Y29.03 E7.57382
G1 X75.751 Y29.149 E7.5994
G1 X76.494 Y29.347 E7.62498
G1 X77.213 Y29.621 E7.65057
G1 X77.899 Y29.968 E7.67614
G1 X78.546 Y30.384 E7.70172
G1 X79.146 Y30.865 E7.7273
G1 X79.542 Y31.245 E7.74555
G1 X79.66 Y31.367 E7.7512
G1 X80.165 Y31.947 E7.77678
G1 X80.608 Y32.576 E7.80236
G1 X80.982 Y33.248 E7.82794
G1 X81.285 Y33.955 E7.85353
G1 X81.513 Y34.69 E7.87912
G1 X81.664 Y35.444 E7.9047
G1 X81.735 Y36.21 E7.93028
G1 X81.737 Y36.748 E7.94818
G1 X81.393 Y47.545 E8.30747
G1 X81.329 Y48.311 E8.33304
G1 X81.185 Y49.067 E8.35863
G1 X80.964 Y49.803 E8.38419
G1 X80.667 Y50.513 E8.40979
G1 X80.299 Y51.188 E8.43536
G1 X79.862 Y51.821 E8.46094
G1 X79.137 Y52.633 E8.49715
G1 X79.021 Y52.745 E8.50251
G1 X78.441 Y53.249 E8.52807
G1 X77.811 Y53.691 E8.55367
G1 X77.139 Y54.065 E8.57924
G1 X76.432 Y54.368 E8.60483
G1 X75.697 Y54.595 E8.63041
G1 X74.942 Y54.744 E8.65601
G1 X73.881 Y54.821 E8.69139
G1 X33.057 Y54.821 E10.0492
G1 X32.614 Y55.193 E10.06844
G1 X32.273 Y55.45 E10.08265
G1 X31.635 Y55.88 E10.10824
G1 X31.135 Y56.156 E10.12723
G1 X30.716 Y56.366 E10.14282
G1 X30.294 Y56.561 E10.15828
G1 X29.364 Y56.888 E10.19107
G1 X28.933 Y57.008 E10.20595
G1 X28.182 Y57.175 E10.23154
G1 X27.625 Y57.248 E10.25022
G1 X27.168 Y57.29 E10.26549
G1 X26.4 Y57.32 E10.29105
G1 X25.84 Y57.292 E10.3097
G1 X25.41 Y57.254 E10.32406
G1 X24.993 Y57.206 E10.33802
G1 X24.035 Y57.003 E10.37059
G1 X23.591 Y56.878 E10.38593
G1 X22.862 Y56.631 E10.41153
G1 X22.28 Y56.371 E10.43273
G1 X21.861 Y56.161 E10.44832
G1 X21.14 Y55.747 E10.47597
G1 X20.676 Y55.421 E10.49483
G1 X20.332 Y55.159 E10.50922
G1 X19.767 Y54.682 E10.53381
G1 X19.332 Y54.243 E10.55436
G1 X19.024 Y53.905 E10.56957
G1 X18.536 Y53.311 E10.59514
G1 X18.19 Y52.797 E10.61575
G1 X17.957 Y52.418 E10.63055
G1 X17.589 Y51.742 E10.65615
G1 X17.384 Y51.273 E10.67317
G1 X17.216 Y50.85 E10.68831
G1 X17.025 Y50.31 E10.70736
G1 X16.808 Y49.43 E10.73751
G1 X16.726 Y48.98 E10.75272
G1 X16.617 Y48.051 E10.78383
G1 X16.605 Y47.828 E10.79126
G1 X16.594 Y47.426 E10.80463
G1 X16.595 Y45.413 E10.87159
G1 X16.676 Y44.324 E10.90791
G1 X18.005 Y35.419 E11.20737
G1 X18.028 Y35.204 E11.21456
G1 X18.148 Y34.445 E11.24012
G1 X18.323 Y33.777 E11.26309
G1 X18.435 Y33.418 E11.27559
G1 X18.702 Y32.697 E11.30117
G1 X19.009 Y32.067 E11.32447
G1 X19.21 Y31.7 E11.33839
G1 X19.484 Y31.239 E11.35623
G1 X20.095 Y30.42 E11.39021
G1 X20.344 Y30.13 E11.40293
G1 X20.913 Y29.537 E11.43026
G1 X21.43 Y29.096 E11.45286
G1 X21.741 Y28.854 E11.46597
G0 F6000 X21.986 Y29.169
G1 F1200 X22.6 Y28.742 E11.49084
G1 X23.211 Y28.405 E11.51405
G1 X23.567 Y28.231 E11.52723
G1 X24.17 Y27.971 E11.54907
G1 X24.891 Y27.74 E11.57425
G1 X25.262 Y27.643 E11.58701
G1 X26.109 Y27.476 E11.61572
G1 X26.707 Y27.421 E11.63569
G1 X27.089 Y27.402 E11.64842
G1 X27.824 Y27.404 E11.67286
G1 X28.512 Y27.474 E11.69586
G1 X28.892 Y27.532 E11.70865
G1 X29.728 Y27.712 E11.73709
G1 X30.298 Y27.898 E11.75703
G1 X30.663 Y28.034 E11.76999
G1 X31.367 Y28.341 E11.79553
G1 X31.904 Y28.639 E11.81596
G1 X32.226 Y28.837 E11.82853
G1 X32.989 Y29.38 E11.85968
G1 X33 Y29.39 E11.86017
G1 X74.223 Y29.39 E13.23126
G1 X74.97 Y29.43 E13.25614
G1 X75.708 Y29.549 E13.281
G1 X76.43 Y29.747 E13.3059
G1 X77.126 Y30.02 E13.33077
G1 X77.789 Y30.367 E13.35566
G1 X78.412 Y30.782 E13.38055
G1 X78.986 Y31.261 E13.40542
G1 X79.255 Y31.523 E13.41791
G1 X79.373 Y31.645 E13.42355
G1 X79.863 Y32.21 E13.44843
G1 X80.291 Y32.824 E13.47332
G1 X80.65 Y33.48 E13.49819
G1 X80.938 Y34.171 E13.52309
G1 X81.15 Y34.888 E13.54796
G1 X81.284 Y35.624 E13.57284
G1 X81.337 Y36.735 E13.60984
G1 X80.993 Y47.532 E13.96913
G1 X80.93 Y48.277 E13.994
G1 X80.787 Y49.012 E14.0189
G1 X80.566 Y49.726 E14.04376
G1 X80.271 Y50.414 E14.06866
G1 X79.904 Y51.065 E14.09351
G1 X79.469 Y51.674 E14.11841
G1 X78.859 Y52.345 E14.14857
G1 X78.743 Y52.457 E14.15393
G1 X78.178 Y52.947 E14.17881
G1 X77.564 Y53.374 E14.20368
G1 X76.907 Y53.733 E14.22858
G1 X76.217 Y54.02 E14.25344
G1 X75.499 Y54.231 E14.27833
G1 X74.763 Y54.365 E14.30321
G1 X73.881 Y54.421 E14.3326
G1 X32.911 Y54.421 E15.69527
G1 X32.373 Y54.873 E15.71864
G1 X32.032 Y55.13 E15.73285
G1 X31.412 Y55.548 E15.75772
G1 X30.955 Y55.798 E15.77504
G1 X30.536 Y56.008 E15.79063
G1 X30.136 Y56.193 E15.80529
G1 X29.257 Y56.503 E15.83629
G1 X28.826 Y56.623 E15.85117
G1 X28.095 Y56.784 E15.87606
G1 X27.589 Y56.85 E15.89304
G1 X27.132 Y56.892 E15.9083
G1 X26.384 Y56.92 E15.9332
G1 X25.875 Y56.894 E15.95015
G1 X25.445 Y56.856 E15.96451
G1 X25.05 Y56.81 E15.97773
G1 X24.143 Y56.618 E16.00857
G1 X23.699 Y56.493 E16.02391
G1 X22.991 Y56.252 E16.04878
G1 X22.46 Y56.013 E16.06815
G1 X22.041 Y55.803 E16.08374
G1 X21.357 Y55.411 E16.10996
G1 X20.919 Y55.103 E16.12777
G1 X20.575 Y54.841 E16.14215
G1 X20.039 Y54.389 E16.16547
G1 X19.628 Y53.974 E16.1849
G1 X19.32 Y53.636 E16.20011
G1 X18.846 Y53.057 E16.225
G1 X18.531 Y52.587 E16.24381
G1 X18.298 Y52.208 E16.25861
G1 X17.941 Y51.551 E16.28348
G1 X17.755 Y51.126 E16.29891
G1 X17.587 Y50.703 E16.31405
G1 X17.407 Y50.191 E16.3321
G1 X17.201 Y49.358 E16.36064
G1 X17.119 Y48.908 E16.37585
G1 X17.016 Y48.029 E16.40529
G1 X17.004 Y47.806 E16.41272
G1 X16.994 Y47.427 E16.42533
G1 X16.995 Y45.414 E16.49228
G1 X17.072 Y44.384 E16.52663
G1 X18.402 Y35.477 E16.82617
G1 X18.426 Y35.246 E16.83389
G1 X18.544 Y34.508 E16.85875
G1 X18.705 Y33.896 E16.8798
G1 X18.817 Y33.537 E16.8923
G1 X19.077 Y32.836 E16.91717
G1 X19.359 Y32.259 E16.93853
G1 X19.56 Y31.892 E16.95245
G1 X19.821 Y31.456 E16.96935
G1 X20.398 Y30.681 E17.00149
G1 X20.647 Y30.391 E17.0142
G1 X21.186 Y29.829 E17.0401
G1 X21.675 Y29.411 E17.0615
G1 X21.986 Y29.169 E17.0746
G0 F6000 X22.232 Y29.485
G1 F1200 X22.829 Y29.071 E17.09877
G1 X23.387 Y28.764 E17.11995
G1 X23.743 Y28.59 E17.13313
G1 X24.312 Y28.344 E17.15375
G1 X24.993 Y28.127 E17.17752
G1 X25.364 Y28.03 E17.19027
G1 X26.163 Y27.873 E17.21735
G1 X26.727 Y27.82 E17.2362
G1 X27.109 Y27.801 E17.24892
G1 X27.803 Y27.803 E17.272
G1 X28.452 Y27.87 E17.2937
G1 X28.832 Y27.928 E17.30649
G1 X29.62 Y28.098 E17.3333
G1 X30.158 Y28.272 E17.3521
G1 X30.523 Y28.408 E17.36506
G1 X31.189 Y28.699 E17.38923
G1 X31.694 Y28.98 E17.40845
G1 X32.016 Y29.178 E17.42103
G1 X32.737 Y29.691 E17.45046
G1 X32.85 Y29.79 E17.45545
G1 X74.223 Y29.79 E18.83153
G1 X74.948 Y29.83 E18.85568
G1 X75.665 Y29.949 E18.87985
G1 X76.364 Y30.147 E18.90401
G1 X77.037 Y30.42 E18.92817
G1 X77.676 Y30.765 E18.95232
G1 X78.273 Y31.179 E18.97649
G1 X78.967 Y31.802 E19.00751
G1 X79.085 Y31.924 E19.01315
G1 X79.561 Y32.473 E19.03732
G1 X79.973 Y33.071 E19.06147
G1 X80.317 Y33.71 E19.08561
G1 X80.589 Y34.384 E19.10978
G1 X80.785 Y35.083 E19.13393
G1 X80.902 Y35.8 E19.15809
G1 X80.938 Y36.722 E19.18878
G1 X80.594 Y47.519 E19.54807
G1 X80.531 Y48.243 E19.57224
G1 X80.388 Y48.955 E19.5964
G1 X80.169 Y49.647 E19.62054
G1 X79.874 Y50.312 E19.64473
G1 X79.509 Y50.939 E19.66887
G1 X79.077 Y51.523 E19.69303
G1 X78.581 Y52.057 E19.71727
G1 X78.465 Y52.169 E19.72263
G1 X77.916 Y52.644 E19.74678
G1 X77.317 Y53.056 E19.77096
G1 X76.677 Y53.399 E19.79511
G1 X76.004 Y53.67 E19.81924
G1 X75.304 Y53.866 E19.84341
G1 X74.587 Y53.983 E19.86758
G1 X73.881 Y54.021 E19.89109
G1 X32.75 Y54.021 E21.25912
G1 X32.663 Y54.108 E21.26321
G1 X32.132 Y54.554 E21.28627
G1 X31.791 Y54.811 E21.30047
G1 X31.188 Y55.215 E21.32462
G1 X30.776 Y55.44 E21.34023
G1 X30.357 Y55.65 E21.35582
G1 X29.979 Y55.825 E21.36967
G1 X29.149 Y56.117 E21.39894
G1 X28.718 Y56.237 E21.41382
G1 X28.009 Y56.393 E21.43796
G1 X27.552 Y56.451 E21.45328
G1 X27.095 Y56.493 E21.46855
G1 X26.369 Y56.52 E21.49271
G1 X25.91 Y56.495 E21.508
G1 X25.48 Y56.457 E21.52236
G1 X25.107 Y56.414 E21.53485
G1 X24.251 Y56.233 E21.56395
G1 X23.807 Y56.108 E21.57929
G1 X23.12 Y55.873 E21.60344
G1 X22.639 Y55.655 E21.621
G1 X22.22 Y55.445 E21.63659
G1 X21.575 Y55.075 E21.66132
G1 X21.161 Y54.785 E21.67813
G1 X20.817 Y54.523 E21.69252
G1 X20.311 Y54.095 E21.71456
G1 X19.924 Y53.704 E21.73286
G1 X19.616 Y53.366 E21.74807
G1 X19.157 Y52.803 E21.77223
G1 X18.872 Y52.378 E21.78925
G1 X18.639 Y51.999 E21.80404
G1 X18.293 Y51.36 E21.82821
G1 X18.127 Y50.978 E21.84206
G1 X17.959 Y50.555 E21.8572
G1 X17.788 Y50.072 E21.87424
G1 X17.595 Y49.286 E21.90116
G1 X17.513 Y48.836 E21.91638
G1 X17.416 Y48.008 E21.9441
G1 X17.404 Y47.785 E21.95153
G1 X17.394 Y47.427 E21.96344
G1 X17.395 Y45.414 E22.0304
G1 X17.467 Y44.443 E22.06278
G1 X18.797 Y35.531 E22.36248
G1 X18.823 Y35.288 E22.37061
G1 X18.939 Y34.571 E22.39476
G1 X19.086 Y34.015 E22.41389
G1 X19.198 Y33.656 E22.4264
G1 X19.453 Y32.976 E22.45055
G1 X19.71 Y32.452 E22.46997
G1 X19.911 Y32.085 E22.48388
G1 X20.157 Y31.672 E22.49987
G1 X20.702 Y30.942 E22.53017
G1 X20.951 Y30.652 E22.54289
G1 X21.46 Y30.121 E22.56735
G1 X21.921 Y29.727 E22.58752
G1 X22.232 Y29.485 E22.60063
G0 F6000 X22.477 Y29.801
G1 F1200 X23.057 Y29.401 E22.62406
G1 X23.562 Y29.124 E22.64322
G1 X23.918 Y28.95 E22.6564
G1 X24.455 Y28.718 E22.67585
G1 X25.094 Y28.514 E22.69816
G1 X25.465 Y28.417 E22.71092
G1 X26.217 Y28.269 E22.73641
G1 X26.747 Y28.22 E22.75411
G1 X27.129 Y28.201 E22.76683
G1 X27.782 Y28.203 E22.78855
G1 X28.391 Y28.265 E22.80891
G1 X28.771 Y28.323 E22.8217
G1 X29.513 Y28.483 E22.84694
G1 X30.019 Y28.647 E22.86464
G1 X30.384 Y28.783 E22.87759
G1 X31.01 Y29.057 E22.90032
G1 X31.485 Y29.321 E22.91839
G1 X31.807 Y29.519 E22.93097
G1 X32.485 Y30.001 E22.95863
G1 X32.7 Y30.19 E22.96815
G1 X74.223 Y30.19 E24.34922
G1 X74.926 Y30.23 E24.37264
G1 X75.62 Y30.349 E24.39605
G1 X76.295 Y30.547 E24.41945
G1 X76.944 Y30.819 E24.44286
G1 X77.558 Y31.164 E24.46628
G1 X78.129 Y31.575 E24.48968
G1 X78.68 Y32.08 E24.51454
G1 X78.798 Y32.202 E24.52018
G1 X79.257 Y32.735 E24.54358
G1 X79.654 Y33.316 E24.56698
G1 X79.982 Y33.939 E24.5904
G1 X80.237 Y34.595 E24.61381
G1 X80.417 Y35.276 E24.63724
G1 X80.518 Y35.973 E24.66066
G1 X80.538 Y36.709 E24.68515
G1 X80.194 Y47.506 E25.04444
G1 X80.132 Y48.208 E25.06788
G1 X79.99 Y48.897 E25.09128
G1 X79.771 Y49.566 E25.11469
G1 X79.478 Y50.207 E25.13814
G1 X79.114 Y50.809 E25.16153
G1 X78.685 Y51.367 E25.18494
G1 X78.303 Y51.769 E25.20339
G1 X78.187 Y51.881 E25.20875
G1 X77.654 Y52.341 E25.23217
G1 X77.072 Y52.737 E25.25558
G1 X76.449 Y53.064 E25.27898
G1 X75.793 Y53.319 E25.30239
G1 X75.112 Y53.498 E25.32581
G1 X74.415 Y53.598 E25.34923
G1 X73.881 Y53.621 E25.36701
G1 X32.584 Y53.621 E26.74055
G1 X32.39 Y53.816 E26.7497
G1 X31.892 Y54.234 E26.77133
G1 X31.551 Y54.491 E26.78553
G1 X30.965 Y54.882 E26.80896
G1 X30.597 Y55.083 E26.82291
G1 X30.178 Y55.293 E26.83849
G1 X29.821 Y55.458 E26.85158
G1 X29.042 Y55.732 E26.87904
G1 X28.611 Y55.852 E26.89392
G1 X27.923 Y56.002 E26.91734
G1 X27.515 Y56.053 E26.93102
G1 X27.058 Y56.095 E26.94628
G1 X26.355 Y56.12 E26.96968
G1 X25.945 Y56.097 E26.98334
G1 X25.515 Y56.059 E26.99769
G1 X25.163 Y56.018 E27.00948
G1 X24.36 Y55.848 E27.03678
G1 X23.916 Y55.723 E27.05212
G1 X23.25 Y55.494 E27.07555
G1 X22.818 Y55.298 E27.09132
G1 X22.399 Y55.088 E27.10691
G1 X21.792 Y54.739 E27.1302
G1 X21.403 Y54.466 E27.14601
G1 X21.059 Y54.204 E27.16039
G1 X20.583 Y53.802 E27.18111
G1 X20.219 Y53.435 E27.1983
G1 X19.911 Y53.097 E27.21351
G1 X19.467 Y52.551 E27.23692
G1 X19.212 Y52.168 E27.25222
G1 X18.979 Y51.789 E27.26702
G1 X18.645 Y51.169 E27.29044
G1 X18.499 Y50.831 E27.30269
G1 X18.331 Y50.408 E27.31783
G1 X18.17 Y49.952 E27.33391
G1 X17.988 Y49.214 E27.35919
G1 X17.906 Y48.764 E27.37441
G1 X17.815 Y47.986 E27.40046
