;FLAVOR:Marlin
;TIME:1146
;Filament used: 0.744935m
;Layer height: 0.2
;MINX:20.954
;MINY:20.269
;MINZ:0.2
;MAXX:65.406
;MAXY:47.377
;MAXZ:13
;Generated with Cura_SteamEngine 4.10.0
M140 S50
M105
M190 S50
M104 S195
M105
M109 S195
M82 ;absolute extrusion mode
M201 X500.00 Y500.00 Z100.00 E5000.00 ;Setup machine max acceleration
M203 X500.00 Y500.00 Z10.00 E50.00 ;Setup machine max feedrate
M204 P500.00 R1000.00 T500.00 ;Setup Print/Retract/Travel acceleration
M205 X8.00 Y8.00 Z0.40 E5.00 ;Setup Jerk
M220 S100 ;Reset Feedrate
M221 S100 ;Reset Flowrate

G28 ;Home

G92 E0 ;Reset Extruder
G1 Z2.0 F3000 ;Move Z Axis up
G1 X10.1 Y20 Z0.28 F5000.0 ;Move to start position
G1 X10.1 Y200.0 Z0.28 F1500.0 E15 ;Draw the first line
G1 X10.4 Y200.0 Z0.28 F5000.0 ;Move to side a little
G1 X10.4 Y20 Z0.28 F1500.0 E30 ;Draw the second line
G92 E0 ;Reset Extruder
G1 Z2.0 F3000 ;Move Z Axis up

G92 E0
G92 E0
G1 F3000 E-8
;LAYER_COUNT:65
;LAYER:0
M107
G0 F6000 X25.947 Y25.902 Z0.2
;TYPE:SKIRT
G1 F3000 E0
G1 F1200 X26.142 Y25.707 E0.00917
G1 X26.42 Y25.438 E0.02204
G1 X26.61 Y25.26 E0.0307
G1 X26.884 Y25.012 E0.04299
G1 X27.074 Y24.845 E0.0514
G1 X27.363 Y24.6 E0.064
G1 X27.591 Y24.415 E0.07377
G1 X27.884 Y24.185 E0.08616
G1 X28.079 Y24.036 E0.09432
G1 X28.389 Y23.808 E0.10712
G1 X28.596 Y23.661 E0.11557
G1 X28.899 Y23.453 E0.12779
G1 X29.144 Y23.292 E0.13754
G1 X29.465 Y23.089 E0.15017
G1 X29.701 Y22.945 E0.15937
G1 X30.023 Y22.757 E0.17177
G1 X30.232 Y22.639 E0.17975
G1 X30.567 Y22.457 E0.19243
G1 X30.794 Y22.339 E0.20094
G1 X31.125 Y22.173 E0.21326
G1 X31.376 Y22.053 E0.22251
G1 X31.719 Y21.896 E0.23506
G1 X31.984 Y21.78 E0.24468
G1 X32.337 Y21.634 E0.25738
G1 X32.55 Y21.55 E0.265
G1 X32.903 Y21.416 E0.27756
G1 X33.166 Y21.321 E0.28686
G1 X33.514 Y21.203 E0.29908
G1 X33.761 Y21.124 E0.3077
G1 X34.128 Y21.013 E0.32046
G1 X34.415 Y20.932 E0.33038
G1 X34.771 Y20.839 E0.34261
G1 X35.024 Y20.778 E0.35127
G1 X35.396 Y20.694 E0.36395
G1 X35.661 Y20.638 E0.37296
G1 X36.025 Y20.569 E0.38529
G1 X36.255 Y20.529 E0.39305
G1 X36.633 Y20.469 E0.40578
G1 X36.904 Y20.431 E0.41488
G1 X37.27 Y20.386 E0.42715
G1 X37.545 Y20.357 E0.43634
G1 X37.924 Y20.324 E0.449
G1 X38.191 Y20.306 E0.4579
G1 X38.571 Y20.286 E0.47055
G1 X38.835 Y20.276 E0.47934
G1 X39.209 Y20.269 E0.49178
G1 X39.481 Y20.269 E0.50083
G1 X39.852 Y20.275 E0.51317
G1 X40.116 Y20.284 E0.52196
G1 X40.496 Y20.303 E0.53461
G1 X40.759 Y20.32 E0.54338
G1 X41.128 Y20.351 E0.55569
G1 X41.417 Y20.381 E0.56536
G1 X41.795 Y20.427 E0.57802
G1 X42.011 Y20.456 E0.58527
G1 X42.384 Y20.512 E0.59781
G1 X42.69 Y20.565 E0.60814
G1 X43.051 Y20.634 E0.62037
G1 X43.272 Y20.679 E0.62787
G1 X43.593 Y20.75 E0.6388
G1 X44.354 Y20.959 E0.66505
G1 X45.09 Y21.245 E0.69132
G1 X45.794 Y21.603 E0.71758
G1 X46.632 Y22.16 E0.75105
G1 X46.699 Y22.211 E0.75385
G1 X47.303 Y22.72 E0.78012
G1 X47.64 Y23.069 E0.79626
G1 X48.176 Y23.163 E0.81436
G1 X48.936 Y23.377 E0.84062
G1 X49.671 Y23.667 E0.8669
G1 X50.102 Y23.88 E0.88289
G1 X55.931 Y26.976 E1.10241
G1 X56.39 Y27.005 E1.11771
G1 X56.698 Y27.034 E1.128
G1 X57.48 Y27.148 E1.15428
G1 X58.015 Y27.274 E1.17256
G1 X58.331 Y27.36 E1.18346
G1 X59.082 Y27.605 E1.20973
G1 X59.488 Y27.775 E1.22437
G1 X59.772 Y27.903 E1.23473
G1 X60.475 Y28.263 E1.261
G1 X60.953 Y28.564 E1.27979
G1 X61.253 Y28.768 E1.29185
G1 X61.883 Y29.245 E1.31814
G1 X62.184 Y29.511 E1.3315
G1 X62.418 Y29.729 E1.34213
G1 X62.968 Y30.296 E1.36841
G1 X63.291 Y30.69 E1.38535
G1 X63.475 Y30.93 E1.39541
G1 X63.923 Y31.58 E1.42167
G1 X64.197 Y32.061 E1.44008
G1 X64.368 Y32.388 E1.45235
G1 X64.833 Y33.47 E1.49152
G1 X64.925 Y33.738 E1.50095
G1 X65.144 Y34.497 E1.52722
G1 X65.238 Y34.966 E1.54313
G1 X65.294 Y35.296 E1.55426
G1 X65.387 Y36.08 E1.58052
G1 X65.404 Y36.553 E1.59626
G1 X65.406 Y36.878 E1.60707
G1 X65.371 Y37.667 E1.63334
G1 X65.296 Y38.231 E1.65227
G1 X65.241 Y38.555 E1.6632
G1 X64.969 Y39.66 E1.70105
G1 X64.867 Y39.974 E1.71203
G1 X64.586 Y40.712 E1.73829
G1 X64.333 Y41.232 E1.75753
G1 X64.203 Y41.476 E1.76672
G1 X63.891 Y42.01 E1.78729
G1 X63.852 Y42.071 E1.7897
G1 X63.458 Y42.63 E1.81245
G1 X63.253 Y42.896 E1.82362
G1 X62.74 Y43.497 E1.8499
G1 X62.417 Y43.819 E1.86507
G1 X62.201 Y44.022 E1.87493
G1 X61.599 Y44.533 E1.90119
G1 X61.11 Y44.878 E1.92109
G1 X60.83 Y45.06 E1.9322
G1 X60.156 Y45.451 E1.95812
G1 X59.769 Y45.642 E1.97247
G1 X59.551 Y45.742 E1.98045
G1 X58.818 Y46.034 E2.00669
G1 X58.279 Y46.196 E2.02541
G1 X57.978 Y46.275 E2.03576
G1 X57.09 Y46.454 E2.06589
G1 X56.991 Y46.468 E2.06922
G1 X56.661 Y46.508 E2.08027
G1 X56.396 Y46.534 E2.08913
G1 X55.607 Y46.571 E2.1154
G1 X55.08 Y46.551 E2.13294
G1 X54.757 Y46.528 E2.14371
G1 X53.973 Y46.432 E2.16998
G1 X53.518 Y46.339 E2.18543
G1 X53.209 Y46.266 E2.19599
G1 X52.45 Y46.046 E2.22227
G1 X52.073 Y45.904 E2.23567
G1 X51.987 Y45.869 E2.23876
G1 X51.792 Y45.997 E2.24652
G1 X51.42 Y46.202 E2.26064
G1 X51.124 Y46.354 E2.27171
G1 X50.404 Y46.678 E2.29797
G1 X49.999 Y46.824 E2.31229
G1 X49.689 Y46.926 E2.32314
G1 X48.927 Y47.135 E2.34942
G1 X48.456 Y47.223 E2.36536
G1 X48.117 Y47.276 E2.37677
G1 X47.253 Y47.363 E2.40566
G1 X47.093 Y47.37 E2.41098
G1 X46.752 Y47.377 E2.42233
G1 X43.688 Y47.377 E2.52424
G1 X42.987 Y47.371 E2.54755
G1 X42.143 Y47.349 E2.57563
G1 X41.299 Y47.312 E2.60373
G1 X40.465 Y47.261 E2.63152
G1 X39.631 Y47.195 E2.65935
G1 X38.796 Y47.113 E2.68725
G1 X38.646 Y47.097 E2.69227
G1 X37.825 Y46.999 E2.71977
G1 X37.139 Y46.907 E2.74279
G1 X36.285 Y46.776 E2.77153
G1 X35.481 Y46.64 E2.79865
G1 X35.313 Y46.61 E2.80433
G1 X34.507 Y46.453 E2.83164
G1 X33.673 Y46.277 E2.85999
G1 X32.887 Y46.096 E2.88681
G1 X32.04 Y45.888 E2.91582
G1 X31.239 Y45.673 E2.94341
G1 X30.566 Y45.481 E2.96668
G1 X29.764 Y45.237 E2.99457
G1 X28.965 Y44.979 E3.02249
G1 X28.16 Y44.702 E3.05081
G1 X27.375 Y44.417 E3.07858
G1 X26.593 Y44.117 E3.10644
G1 X25.88 Y43.828 E3.13203
G1 X25.165 Y43.493 E3.15829
G1 X24.487 Y43.088 E3.18456
G1 X23.853 Y42.617 E3.21083
G1 X23.271 Y42.083 E3.2371
G1 X22.745 Y41.494 E3.26336
G1 X22.352 Y40.96 E3.28542
G1 X22.284 Y40.859 E3.28947
G1 X21.876 Y40.183 E3.31573
G1 X21.54 Y39.468 E3.342
G1 X21.277 Y38.724 E3.36825
G1 X21.091 Y37.956 E3.39453
G1 X20.983 Y37.174 E3.42079
G1 X20.954 Y36.503 E3.44313
G1 X20.954 Y35.567 E3.47426
G1 X20.977 Y34.973 E3.49403
G1 X21.006 Y34.593 E3.5067
G1 X21.173 Y33.477 E3.54424
G1 X21.255 Y33.112 E3.55668
G1 X21.574 Y32.05 E3.59356
G1 X21.701 Y31.716 E3.60544
G1 X22.145 Y30.751 E3.64078
G1 X22.324 Y30.423 E3.6532
G1 X22.926 Y29.487 E3.69022
G1 X23.143 Y29.197 E3.70226
G1 X23.882 Y28.345 E3.73978
G1 X24.035 Y28.189 E3.74704
G1 X24.259 Y27.878 E3.75979
G1 X24.469 Y27.6 E3.77138
G1 X24.699 Y27.309 E3.78372
G1 X24.833 Y27.144 E3.79079
G1 X25.072 Y26.858 E3.80318
G1 X25.249 Y26.654 E3.81217
G1 X25.5 Y26.374 E3.82467
G1 X25.689 Y26.17 E3.83392
G1 X25.947 Y25.902 E3.8463
G0 F6000 X26.235 Y26.18
G1 F1200 X26.42 Y25.994 E3.85502
G1 X26.698 Y25.725 E3.86789
G1 X26.878 Y25.557 E3.87608
G1 X27.152 Y25.309 E3.88837
G1 X27.333 Y25.15 E3.89638
G1 X27.622 Y24.905 E3.90898
G1 X27.838 Y24.729 E3.91825
G1 X28.131 Y24.499 E3.93064
G1 X28.316 Y24.359 E3.93836
G1 X28.626 Y24.131 E3.95115
G1 X28.822 Y23.991 E3.95917
G1 X29.125 Y23.783 E3.97139
G1 X29.358 Y23.63 E3.98066
G1 X29.679 Y23.427 E3.99329
G1 X29.903 Y23.29 E4.00203
G1 X30.225 Y23.102 E4.01443
G1 X30.423 Y22.991 E4.02198
G1 X30.758 Y22.809 E4.03466
G1 X30.974 Y22.696 E4.04277
G1 X31.305 Y22.53 E4.05508
G1 X31.542 Y22.416 E4.06383
G1 X31.885 Y22.259 E4.07638
G1 X32.137 Y22.15 E4.08551
G1 X32.49 Y22.004 E4.09821
G1 X32.692 Y21.924 E4.10544
G1 X33.045 Y21.79 E4.118
G1 X33.295 Y21.7 E4.12683
G1 X33.643 Y21.582 E4.13906
G1 X33.877 Y21.507 E4.14723
G1 X34.244 Y21.396 E4.15998
G1 X34.516 Y21.319 E4.16938
G1 X34.872 Y21.226 E4.18162
G1 X35.112 Y21.168 E4.18983
G1 X35.484 Y21.084 E4.20252
G1 X35.736 Y21.031 E4.21108
G1 X36.1 Y20.962 E4.22341
G1 X36.318 Y20.924 E4.23077
G1 X36.696 Y20.864 E4.2435
G1 X36.953 Y20.828 E4.25213
G1 X37.319 Y20.783 E4.26439
G1 X37.58 Y20.756 E4.27312
G1 X37.959 Y20.723 E4.28577
G1 X38.212 Y20.705 E4.29421
G1 X38.592 Y20.685 E4.30686
G1 X38.843 Y20.676 E4.31522
G1 X39.217 Y20.669 E4.32766
G1 X39.475 Y20.669 E4.33624
G1 X39.846 Y20.675 E4.34858
G1 X40.096 Y20.683 E4.3569
G1 X40.476 Y20.702 E4.36956
G1 X40.725 Y20.719 E4.37786
G1 X41.094 Y20.75 E4.39017
G1 X41.369 Y20.778 E4.39937
G1 X41.747 Y20.824 E4.41203
G1 X41.952 Y20.852 E4.41891
G1 X42.325 Y20.908 E4.43146
G1 X42.615 Y20.958 E4.44125
G1 X42.976 Y21.027 E4.45347
G1 X43.185 Y21.07 E4.46057
G1 X43.506 Y21.141 E4.4715
G1 X44.247 Y21.346 E4.49707
G1 X44.964 Y21.626 E4.52268
G1 X45.647 Y21.98 E4.54826
G1 X46.39 Y22.478 E4.57801
G1 X46.457 Y22.529 E4.58081
G1 X47.044 Y23.026 E4.60639
G1 X47.441 Y23.44 E4.62547
G1 X47.528 Y23.448 E4.62838
G1 X48.282 Y23.6 E4.65396
G1 X49.016 Y23.83 E4.67954
G1 X49.915 Y24.233 E4.71231
G1 X55.832 Y27.376 E4.93515
G1 X55.914 Y27.375 E4.93788
G1 X56.353 Y27.404 E4.95251
G1 X56.661 Y27.433 E4.9628
G1 X57.422 Y27.544 E4.98838
G1 X57.91 Y27.66 E5.00506
G1 X58.226 Y27.746 E5.01596
G1 X58.957 Y27.986 E5.04155
G1 X59.324 Y28.14 E5.05478
G1 X59.608 Y28.268 E5.06515
G1 X60.292 Y28.62 E5.09073
G1 X60.728 Y28.895 E5.10788
G1 X61.028 Y29.099 E5.11994
G1 X61.911 Y29.804 E5.15752
G1 X62.145 Y30.022 E5.16816
G1 X62.68 Y30.574 E5.19373
G1 X62.974 Y30.934 E5.20919
G1 X63.158 Y31.174 E5.21925
G1 X63.593 Y31.808 E5.24482
G1 X63.843 Y32.247 E5.26162
G1 X64.014 Y32.574 E5.2739
G1 X64.455 Y33.6 E5.31104
G1 X64.547 Y33.868 E5.32046
G1 X64.759 Y34.608 E5.34607
G1 X64.844 Y35.033 E5.36048
G1 X64.9 Y35.363 E5.37161
G1 X64.989 Y36.127 E5.3972
G1 X65.004 Y36.555 E5.41144
G1 X65.006 Y36.88 E5.42225
G1 X64.971 Y37.649 E5.44785
G1 X64.902 Y38.164 E5.46514
G1 X64.847 Y38.488 E5.47607
G1 X64.589 Y39.536 E5.51196
G1 X64.487 Y39.85 E5.52294
G1 X64.212 Y40.568 E5.54852
G1 X63.98 Y41.044 E5.56613
G1 X63.85 Y41.288 E5.57532
G1 X63.554 Y41.794 E5.59482
G1 X63.515 Y41.855 E5.59723
G1 X63.141 Y42.386 E5.61883
G1 X62.936 Y42.652 E5.63
G1 X62.436 Y43.236 E5.65557
G1 X62.143 Y43.527 E5.66931
G1 X61.927 Y43.73 E5.67917
G1 X61.34 Y44.227 E5.70475
G1 X60.892 Y44.542 E5.72296
G1 X60.612 Y44.724 E5.73407
G1 X59.973 Y45.096 E5.75866
G1 X59.911 Y45.128 E5.76098
G1 X59.602 Y45.278 E5.77241
G1 X59.384 Y45.378 E5.78039
G1 X58.67 Y45.662 E5.80594
G1 X58.178 Y45.81 E5.82303
G1 X57.877 Y45.889 E5.83338
G1 X57.034 Y46.058 E5.86198
G1 X56.935 Y46.072 E5.8653
G1 X56.622 Y46.11 E5.87579
G1 X56.357 Y46.136 E5.88465
G1 X55.588 Y46.171 E5.91025
G1 X55.108 Y46.152 E5.92623
G1 X54.785 Y46.129 E5.937
G1 X54.022 Y46.035 E5.96257
G1 X53.61 Y45.95 E5.97656
G1 X53.301 Y45.877 E5.98712
G1 X52.223 Y45.533 E6.02475
G1 X51.934 Y45.416 E6.03512
G1 X51.237 Y45.846 E6.06236
G1 X50.941 Y45.998 E6.07343
G1 X50.24 Y46.313 E6.09899
G1 X49.874 Y46.444 E6.11192
G1 X49.564 Y46.546 E6.12278
G1 X48.822 Y46.748 E6.14835
G1 X48.394 Y46.828 E6.16283
G1 X48.055 Y46.881 E6.17425
G1 X47.235 Y46.963 E6.20166
G1 X47.075 Y46.97 E6.20698
G1 X46.752 Y46.977 E6.21773
G1 X43.692 Y46.977 E6.3195
G1 X42.991 Y46.971 E6.34282
G1 X42.154 Y46.949 E6.37067
G1 X41.194 Y46.906 E6.40263
G1 X40.354 Y46.852 E6.43063
G1 X39.533 Y46.784 E6.45803
G1 X38.693 Y46.7 E6.48611
G1 X37.878 Y46.602 E6.51341
G1 X37.044 Y46.489 E6.5414
G1 X36.236 Y46.363 E6.5686
G1 X35.389 Y46.217 E6.59719
G1 X34.589 Y46.062 E6.62429
G1 X33.897 Y45.917 E6.6478
G1 X32.981 Y45.707 E6.67906
G1 X32.3 Y45.541 E6.70237
G1 X31.47 Y45.321 E6.73093
G1 X30.676 Y45.096 E6.75838
G1 X30.545 Y45.058 E6.76292
G1 X29.88 Y44.855 E6.78604
G1 X29.089 Y44.599 E6.8137
G1 X28.291 Y44.324 E6.84177
G1 X27.512 Y44.041 E6.86934
G1 X27.388 Y43.995 E6.87374
G1 X26.737 Y43.744 E6.89694
G1 X26.031 Y43.457 E6.92229
G1 X25.334 Y43.131 E6.94788
G1 X24.676 Y42.733 E6.97346
G1 X24.062 Y42.27 E6.99904
G1 X23.5 Y41.745 E7.02462
G1 X22.995 Y41.165 E7.05019
G1 X22.684 Y40.737 E7.06779
G1 X22.616 Y40.636 E7.07184
G1 X22.22 Y39.976 E7.09744
G1 X21.895 Y39.279 E7.12302
G1 X21.643 Y38.552 E7.14861
G1 X21.469 Y37.803 E7.17419
G1 X21.374 Y37.04 E7.19976
G1 X21.354 Y36.503 E7.21763
G1 X21.354 Y35.567 E7.24876
G1 X21.375 Y35.004 E7.2675
G1 X21.404 Y34.624 E7.28018
G1 X21.563 Y33.565 E7.31579
G1 X21.645 Y33.2 E7.32824
G1 X21.948 Y32.192 E7.36325
G1 X22.075 Y31.858 E7.37513
G1 X22.496 Y30.943 E7.40863
G1 X22.675 Y30.615 E7.42106
G1 X23.246 Y29.727 E7.45617
G1 X23.463 Y29.437 E7.46822
G1 X24.165 Y28.628 E7.50384
G1 X24.359 Y28.423 E7.51323
G1 X24.583 Y28.112 E7.52598
G1 X24.782 Y27.848 E7.53698
G1 X25.012 Y27.557 E7.54931
G1 X25.379 Y27.115 E7.56842
G1 X25.547 Y26.921 E7.57696
G1 X25.798 Y26.641 E7.58946
G1 X25.977 Y26.448 E7.59822
G1 X26.235 Y26.18 E7.61059
G0 F6000 X26.523 Y26.457
G1 F1200 X26.698 Y26.281 E7.61885
G1 X26.976 Y26.012 E7.63171
G1 X27.147 Y25.853 E7.63948
G1 X27.421 Y25.605 E7.65177
G1 X27.591 Y25.456 E7.65929
G1 X27.88 Y25.211 E7.67189
G1 X28.085 Y25.044 E7.68068
G1 X28.378 Y24.814 E7.69307
G1 X28.553 Y24.681 E7.70038
G1 X28.863 Y24.453 E7.71318
G1 X29.048 Y24.321 E7.72074
G1 X29.351 Y24.113 E7.73297
G1 X29.572 Y23.968 E7.74176
G1 X29.893 Y23.765 E7.75439
G1 X30.105 Y23.636 E7.76264
G1 X30.427 Y23.448 E7.77505
G1 X30.614 Y23.342 E7.78219
G1 X30.949 Y23.16 E7.79488
G1 X31.153 Y23.054 E7.80252
G1 X31.484 Y22.888 E7.81484
G1 X31.709 Y22.78 E7.82314
G1 X32.052 Y22.623 E7.83568
G1 X32.29 Y22.519 E7.84432
G1 X32.643 Y22.373 E7.85703
G1 X32.834 Y22.298 E7.86385
G1 X33.187 Y22.164 E7.87641
G1 X33.423 Y22.079 E7.88476
G1 X33.771 Y21.961 E7.89698
G1 X33.992 Y21.89 E7.9047
G1 X34.359 Y21.779 E7.91745
G1 X34.617 Y21.706 E7.92637
G1 X34.973 Y21.613 E7.93861
G1 X35.2 Y21.558 E7.94637
G1 X35.572 Y21.474 E7.95906
G1 X35.81 Y21.424 E7.96715
G1 X36.174 Y21.355 E7.97947
G1 X36.759 Y21.26 E7.99918
G1 X37.002 Y21.225 E8.00735
G1 X37.368 Y21.18 E8.01961
G1 X37.615 Y21.154 E8.02787
G1 X37.994 Y21.121 E8.04053
G1 X38.233 Y21.105 E8.04849
G1 X38.613 Y21.085 E8.06115
G1 X38.85 Y21.076 E8.06904
G1 X39.224 Y21.069 E8.08148
G1 X39.468 Y21.069 E8.08959
G1 X39.839 Y21.075 E8.10194
G1 X40.076 Y21.083 E8.10982
G1 X40.456 Y21.102 E8.12248
G1 X40.692 Y21.118 E8.13035
G1 X41.061 Y21.149 E8.14266
G1 X41.321 Y21.175 E8.15135
G1 X41.699 Y21.221 E8.16402
G1 X42.265 Y21.304 E8.18304
G1 X42.54 Y21.35 E8.19232
G1 X42.901 Y21.419 E8.20454
G1 X43.099 Y21.46 E8.21127
G1 X43.42 Y21.531 E8.2222
G1 X44.14 Y21.732 E8.24706
G1 X44.836 Y22.008 E8.27197
G1 X45.498 Y22.356 E8.29684
G1 X46.148 Y22.796 E8.32295
G1 X46.215 Y22.847 E8.32575
G1 X46.785 Y23.331 E8.35062
G1 X47.254 Y23.825 E8.37328
G1 X47.651 Y23.873 E8.38658
G1 X48.38 Y24.041 E8.41146
G1 X49.087 Y24.287 E8.43636
G1 X49.727 Y24.586 E8.45985
G1 X55.737 Y27.779 E8.6862
G1 X55.921 Y27.776 E8.69233
G1 X56.315 Y27.802 E8.70546
G1 X56.623 Y27.831 E8.71575
G1 X57.363 Y27.941 E8.74063
G1 X57.805 Y28.046 E8.75574
G1 X58.121 Y28.132 E8.76663
G1 X59.159 Y28.504 E8.80331
G1 X59.443 Y28.632 E8.81367
G1 X60.108 Y28.976 E8.83857
G1 X60.503 Y29.226 E8.85412
G1 X60.803 Y29.43 E8.86618
G1 X61.639 Y30.096 E8.90174
G1 X61.873 Y30.314 E8.91237
G1 X62.392 Y30.853 E8.93726
G1 X62.656 Y31.177 E8.95116
G1 X62.84 Y31.417 E8.96122
G1 X63.263 Y32.034 E8.9861
G1 X63.488 Y32.432 E9.00131
G1 X63.659 Y32.759 E9.01358
G1 X64.077 Y33.73 E9.04874
G1 X64.169 Y33.998 E9.05816
G1 X64.373 Y34.718 E9.08305
G1 X64.449 Y35.1 E9.09601
G1 X64.505 Y35.43 E9.10714
G1 X64.591 Y36.173 E9.13202
G1 X64.604 Y36.558 E9.14483
G1 X64.606 Y36.883 E9.15564
G1 X64.57 Y37.63 E9.18052
G1 X64.507 Y38.098 E9.19622
G1 X64.452 Y38.422 E9.20715
G1 X64.209 Y39.413 E9.24109
G1 X64.107 Y39.727 E9.25207
G1 X63.838 Y40.425 E9.27695
G1 X63.627 Y40.855 E9.29288
G1 X63.497 Y41.099 E9.30208
G1 X63.217 Y41.579 E9.32056
G1 X63.178 Y41.64 E9.32297
G1 X62.824 Y42.142 E9.3434
G1 X62.619 Y42.408 E9.35457
G1 X61.869 Y43.236 E9.39172
G1 X61.653 Y43.439 E9.40158
G1 X61.081 Y43.921 E9.42646
G1 X60.674 Y44.207 E9.44301
G1 X60.394 Y44.389 E9.45411
G1 X59.79 Y44.74 E9.47735
G1 X59.436 Y44.915 E9.49048
G1 X59.218 Y45.015 E9.49846
G1 X58.522 Y45.29 E9.52335
G1 X58.076 Y45.423 E9.53883
G1 X57.775 Y45.502 E9.54918
G1 X56.978 Y45.662 E9.57622
G1 X56.879 Y45.676 E9.57954
G1 X56.583 Y45.712 E9.58946
G1 X56.318 Y45.738 E9.59832
