;FLAVOR:Marlin
;TIME:1176
;Filament used: 0.635604m
;Layer height: 0.2
;MINX:14.231
;MINY:9.038
;MINZ:0.2
;MAXX:161.017
;MAXY:58.293
;MAXZ:10.021
;Generated with Cura_SteamEngine 4.10.0
M140 S50
M105
M190 S50
M104 S195
M105
M109 S195
M82 ;absolute extrusion mode
M201 X500.00 Y500.00 Z100.00 E5000.00 ;Setup machine max acceleration
M203 X500.00 Y500.00 Z10.00 E50.00 ;Setup machine max feedrate
M204 P500.00 R1000.00 T500.00 ;Setup Print/Retract/Travel acceleration
M205 X8.00 Y8.00 Z0.40 E5.00 ;Setup Jerk
M220 S100 ;Reset Feedrate
M221 S100 ;Reset Flowrate

G28 ;Home

G92 E0 ;Reset Extruder
G1 Z2.0 F3000 ;Move Z Axis up
G1 X10.1 Y20 Z0.28 F5000.0 ;Move to start position
G1 X10.1 Y200.0 Z0.28 F1500.0 E15 ;Draw the first line
G1 X10.4 Y200.0 Z0.28 F5000.0 ;Move to side a little
G1 X10.4 Y20 Z0.28 F1500.0 E30 ;Draw the second line
G92 E0 ;Reset Extruder
G1 Z2.0 F3000 ;Move Z Axis up

G92 E0
G92 E0
G1 F3000 E-8
;LAYER_COUNT:25
;LAYER:0
M107
G0 F6000 X95.312 Y38.843 Z0.2
;TYPE:SKIRT
G1 F3000 E0
G1 F1200 X95.633 Y38.122 E0.02625
G1 X96.025 Y37.436 E0.05253
G1 X96.485 Y36.794 E0.0788
G1 X97.007 Y36.202 E0.10505
G1 X97.587 Y35.665 E0.13134
G1 X97.979 Y35.358 E0.1479
G1 X98.11 Y35.262 E0.1533
G1 X98.77 Y34.828 E0.17957
G1 X99.47 Y34.463 E0.20583
G1 X100.204 Y34.17 E0.23212
G1 X100.963 Y33.954 E0.25836
G1 X101.741 Y33.815 E0.28465
G1 X102.528 Y33.755 E0.3109
G1 X103.318 Y33.776 E0.33719
G1 X103.861 Y33.837 E0.35536
G1 X106.198 Y34.182 E0.43393
G1 X119.9 Y33.803 E0.88984
G1 X120.591 Y33.814 E0.91282
G1 X121.274 Y33.885 E0.93566
G1 X154.268 Y38.762 E2.04497
G1 X155.042 Y38.917 E2.07122
G1 X155.797 Y39.149 E2.09749
G1 X156.524 Y39.457 E2.12375
G1 X157.217 Y39.836 E2.15003
G1 X157.867 Y40.284 E2.17628
G1 X158.469 Y40.795 E2.20255
G1 X159.016 Y41.364 E2.2288
G1 X159.315 Y41.729 E2.24449
G1 X159.414 Y41.858 E2.2499
G1 X159.862 Y42.508 E2.27616
G1 X160.243 Y43.2 E2.30243
G1 X160.551 Y43.927 E2.32869
G1 X160.785 Y44.682 E2.35498
G1 X160.941 Y45.456 E2.38124
G1 X161.017 Y46.242 E2.4075
G1 X161.014 Y47.031 E2.43375
G1 X160.962 Y47.601 E2.45278
G1 X160.673 Y49.851 E2.52823
G1 X160.533 Y50.628 E2.55449
G1 X160.315 Y51.387 E2.58076
G1 X160.022 Y52.12 E2.60701
G1 X159.655 Y52.82 E2.6333
G1 X159.22 Y53.479 E2.65956
G1 X158.721 Y54.09 E2.6858
G1 X158.162 Y54.648 E2.71207
G1 X157.632 Y55.086 E2.73494
G1 X157.498 Y55.187 E2.74052
G1 X156.844 Y55.63 E2.7668
G1 X156.149 Y56.004 E2.79305
G1 X155.419 Y56.306 E2.81932
G1 X154.663 Y56.533 E2.84557
G1 X153.887 Y56.682 E2.87186
G1 X153.101 Y56.752 E2.8981
G1 X152.311 Y56.742 E2.92438
G1 X151.662 Y56.674 E2.94608
G1 X119.292 Y51.889 E4.03441
G1 X105.593 Y52.268 E4.49022
G1 X104.902 Y52.257 E4.5132
G1 X104.22 Y52.186 E4.53601
G1 X101.181 Y51.737 E4.63819
G1 X100.407 Y51.582 E4.66444
G1 X99.652 Y51.35 E4.69071
G1 X98.924 Y51.043 E4.71699
G1 X98.232 Y50.663 E4.74325
G1 X97.581 Y50.216 E4.76951
G1 X96.979 Y49.705 E4.79577
G1 X96.432 Y49.136 E4.82203
G1 X96.031 Y48.634 E4.8434
G1 X95.932 Y48.499 E4.84896
G1 X95.498 Y47.839 E4.87524
G1 X95.133 Y47.139 E4.90149
G1 X94.84 Y46.405 E4.92778
G1 X94.623 Y45.646 E4.95404
G1 X94.484 Y44.869 E4.98029
G1 X94.424 Y44.081 E5.00657
G1 X94.445 Y43.292 E5.03283
G1 X94.522 Y42.642 E5.0546
G1 X94.69 Y41.599 E5.08973
G1 X94.896 Y40.365 E5.13134
G1 X95.066 Y39.593 E5.15764
G1 X95.312 Y38.843 E5.18389
G0 F6000 X95.7 Y38.95
G1 F1200 X96.017 Y38.249 E5.20948
G1 X96.406 Y37.585 E5.23507
G1 X96.861 Y36.965 E5.26065
G1 X97.378 Y36.396 E5.28622
G1 X98.216 Y35.68 E5.32288
G1 X98.347 Y35.584 E5.32828
G1 X98.99 Y35.162 E5.35386
G1 X99.674 Y34.81 E5.37945
G1 X100.39 Y34.53 E5.40502
G1 X101.132 Y34.326 E5.43061
G1 X101.89 Y34.2 E5.45617
G1 X102.658 Y34.153 E5.48176
G1 X103.802 Y34.232 E5.5199
G1 X106.179 Y34.583 E5.59982
G1 X119.911 Y34.203 E6.05672
G1 X120.568 Y34.214 E6.07858
G1 X121.215 Y34.281 E6.10021
G1 X154.209 Y39.158 E7.20952
G1 X154.963 Y39.309 E7.2351
G1 X155.697 Y39.539 E7.26068
G1 X156.404 Y39.843 E7.28628
G1 X157.075 Y40.219 E7.31186
G1 X157.703 Y40.663 E7.33744
G1 X158.282 Y41.169 E7.36302
G1 X158.997 Y41.973 E7.3988
G1 X159.096 Y42.102 E7.40421
G1 X159.532 Y42.735 E7.42977
G1 X159.9 Y43.411 E7.45537
G1 X160.196 Y44.121 E7.48096
G1 X160.416 Y44.858 E7.50654
G1 X160.559 Y45.614 E7.53213
G1 X160.623 Y46.38 E7.5577
G1 X160.606 Y47.149 E7.58328
G1 X160.566 Y47.55 E7.59668
G1 X160.277 Y49.8 E7.67213
G1 X160.139 Y50.557 E7.69773
G1 X159.924 Y51.295 E7.72329
G1 X159.633 Y52.007 E7.74888
G1 X159.27 Y52.685 E7.77446
G1 X158.838 Y53.322 E7.80005
G1 X158.343 Y53.91 E7.82562
G1 X157.789 Y54.444 E7.85121
G1 X157.391 Y54.766 E7.86824
G1 X157.257 Y54.867 E7.87382
G1 X156.62 Y55.298 E7.8994
G1 X155.941 Y55.66 E7.92499
G1 X155.228 Y55.949 E7.95058
G1 X154.49 Y56.163 E7.97614
G1 X153.733 Y56.299 E8.00172
G1 X152.966 Y56.356 E8.0273
G1 X152.197 Y56.333 E8.05289
G1 X151.721 Y56.278 E8.06883
G1 X119.317 Y51.488 E9.1583
G1 X105.582 Y51.868 E9.6153
G1 X104.925 Y51.857 E9.63716
G1 X104.278 Y51.791 E9.65879
G1 X101.239 Y51.342 E9.76096
G1 X100.485 Y51.19 E9.78655
G1 X99.751 Y50.96 E9.81213
G1 X99.045 Y50.656 E9.83769
G1 X98.374 Y50.28 E9.86328
G1 X97.745 Y49.837 E9.88887
G1 X97.166 Y49.33 E9.91446
G1 X96.643 Y48.767 E9.94002
G1 X96.354 Y48.397 E9.95564
G1 X96.255 Y48.262 E9.9612
G1 X95.833 Y47.619 E9.98679
G1 X95.48 Y46.936 E10.01236
G1 X95.199 Y46.219 E10.03797
G1 X94.995 Y45.478 E10.06353
G1 X94.869 Y44.719 E10.08912
G1 X94.822 Y43.951 E10.11471
G1 X94.855 Y43.183 E10.14028
G1 X94.917 Y42.706 E10.15628
G1 X95.085 Y41.665 E10.19135
G1 X95.291 Y40.431 E10.23296
G1 X95.457 Y39.679 E10.25858
G1 X95.7 Y38.95 E10.28413
G0 F6000 X96.087 Y39.057
G1 F1200 X96.401 Y38.378 E10.30902
G1 X96.785 Y37.737 E10.33387
G1 X97.236 Y37.139 E10.35878
G1 X97.748 Y36.594 E10.38365
G1 X98.452 Y36.003 E10.41422
G1 X98.583 Y35.907 E10.41963
G1 X99.209 Y35.497 E10.44452
G1 X99.876 Y35.157 E10.46942
G1 X100.574 Y34.89 E10.49427
G1 X101.298 Y34.699 E10.51918
G1 X102.037 Y34.586 E10.54404
G1 X102.785 Y34.553 E10.56894
G1 X103.744 Y34.628 E10.60094
G1 X106.154 Y34.984 E10.68196
G1 X119.922 Y34.603 E11.14007
G1 X120.544 Y34.613 E11.16076
G1 X121.157 Y34.676 E11.18125
G1 X154.151 Y39.553 E12.29056
G1 X154.884 Y39.702 E12.31544
G1 X155.597 Y39.928 E12.34032
G1 X156.282 Y40.229 E12.3652
G1 X156.93 Y40.601 E12.39005
G1 X157.536 Y41.041 E12.41496
G1 X158.091 Y41.542 E12.43983
G1 X158.68 Y42.216 E12.4696
G1 X158.779 Y42.345 E12.47501
G1 X159.202 Y42.962 E12.49989
G1 X159.557 Y43.621 E12.52479
G1 X159.84 Y44.313 E12.54965
G1 X160.047 Y45.032 E12.57454
G1 X160.176 Y45.769 E12.59942
G1 X160.225 Y46.516 E12.62432
G1 X160.169 Y47.499 E12.65707
G1 X159.88 Y49.749 E12.73252
G1 X159.745 Y50.485 E12.75741
G1 X159.533 Y51.202 E12.78228
G1 X159.245 Y51.892 E12.80714
G1 X158.885 Y52.548 E12.83203
G1 X158.457 Y53.162 E12.85693
G1 X157.966 Y53.726 E12.8818
G1 X157.15 Y54.447 E12.91801
G1 X157.016 Y54.548 E12.92359
G1 X156.396 Y54.966 E12.94846
G1 X155.734 Y55.315 E12.97336
G1 X155.039 Y55.591 E12.99823
G1 X154.318 Y55.792 E13.02312
G1 X153.58 Y55.915 E13.04801
G1 X152.834 Y55.958 E13.07286
G1 X151.779 Y55.883 E13.10804
G1 X119.335 Y51.087 E14.19886
G1 X105.571 Y51.468 E14.65682
G1 X104.949 Y51.458 E14.67751
G1 X104.337 Y51.395 E14.69798
G1 X101.298 Y50.946 E14.80015
G1 X100.565 Y50.797 E14.82503
G1 X99.852 Y50.571 E14.84991
G1 X99.167 Y50.27 E14.87479
G1 X98.518 Y49.898 E14.89967
G1 X97.913 Y49.458 E14.92456
G1 X97.357 Y48.957 E14.94945
G1 X96.676 Y48.161 E14.98429
G1 X96.577 Y48.026 E14.98986
G1 X96.168 Y47.4 E15.01473
G1 X95.827 Y46.733 E15.03964
G1 X95.56 Y46.035 E15.0645
G1 X95.369 Y45.312 E15.08937
G1 X95.256 Y44.572 E15.11427
G1 X95.222 Y43.825 E15.13914
G1 X95.312 Y42.77 E15.17436
G1 X95.48 Y41.73 E15.2094
G1 X95.686 Y40.496 E15.25101
G1 X95.848 Y39.766 E15.27588
G1 X96.087 Y39.057 E15.30076
G0 F6000 X96.475 Y39.166
G1 F1200 X96.785 Y38.509 E15.32493
G1 X97.165 Y37.891 E15.34906
G1 X97.611 Y37.317 E15.37323
G1 X98.117 Y36.796 E15.39739
G1 X98.689 Y36.325 E15.42203
G1 X98.82 Y36.229 E15.42744
G1 X99.428 Y35.833 E15.45157
G1 X100.077 Y35.506 E15.47574
G1 X100.757 Y35.252 E15.49988
G1 X101.462 Y35.074 E15.52407
G1 X102.181 Y34.975 E15.54821
G1 X102.907 Y34.956 E15.57236
G1 X103.685 Y35.024 E15.59834
G1 X106.129 Y35.385 E15.68051
G1 X119.933 Y35.003 E16.1398
G1 X120.521 Y35.012 E16.15936
G1 X121.098 Y35.072 E16.17866
G1 X154.092 Y39.949 E17.28797
G1 X154.804 Y40.095 E17.31214
G1 X155.495 Y40.317 E17.33628
G1 X156.158 Y40.615 E17.36046
G1 X156.784 Y40.984 E17.38463
G1 X157.365 Y41.419 E17.40877
G1 X157.896 Y41.915 E17.43293
G1 X158.363 Y42.46 E17.45681
G1 X158.462 Y42.589 E17.46221
G1 X158.872 Y43.188 E17.48636
G1 X159.213 Y43.83 E17.51053
G1 X159.482 Y44.504 E17.53467
G1 X159.675 Y45.205 E17.55885
G1 X159.79 Y45.922 E17.58301
G1 X159.826 Y46.647 E17.60715
G1 X159.772 Y47.448 E17.63385
G1 X159.483 Y49.698 E17.7093
G1 X159.351 Y50.412 E17.73345
G1 X159.141 Y51.108 E17.75763
G1 X158.857 Y51.776 E17.78177
G1 X158.5 Y52.408 E17.80592
G1 X158.076 Y52.998 E17.83008
G1 X157.59 Y53.538 E17.85425
G1 X156.91 Y54.128 E17.88419
G1 X156.776 Y54.229 E17.88977
G1 X156.172 Y54.633 E17.91394
G1 X155.528 Y54.969 E17.9381
G1 X154.851 Y55.232 E17.96225
G1 X154.149 Y55.419 E17.98642
G1 X153.431 Y55.528 E18.01057
G1 X152.705 Y55.557 E18.03474
G1 X151.838 Y55.487 E18.06367
G1 X119.361 Y50.686 E19.1556
G1 X105.56 Y51.068 E19.6148
G1 X104.972 Y51.059 E19.63435
G1 X104.395 Y50.999 E19.65365
G1 X101.356 Y50.55 E19.75582
G1 X100.645 Y50.405 E19.77996
G1 X99.953 Y50.182 E19.80414
G1 X99.291 Y49.884 E19.82829
G1 X98.665 Y49.516 E19.85244
G1 X98.083 Y49.081 E19.87661
G1 X97.553 Y48.584 E19.90077
G1 X96.999 Y47.924 E19.92943
G1 X96.9 Y47.789 E19.935
G1 X96.503 Y47.181 E19.95915
G1 X96.176 Y46.532 E19.98332
G1 X95.922 Y45.852 E20.00747
G1 X95.744 Y45.147 E20.03165
G1 X95.644 Y44.428 E20.05579
G1 X95.625 Y43.702 E20.07995
G1 X95.706 Y42.834 E20.10894
G1 X95.874 Y41.796 E20.14392
G1 X96.08 Y40.562 E20.18553
G1 X96.239 Y39.853 E20.2097
G1 X96.475 Y39.166 E20.23386
G0 F6000 X96.862 Y39.277
G1 F1200 X97.168 Y38.643 E20.25727
G1 X97.543 Y38.047 E20.28069
G1 X97.984 Y37.498 E20.30411
G1 X98.484 Y37.003 E20.32751
G1 X98.925 Y36.648 E20.34634
G1 X99.056 Y36.552 E20.35174
G1 X99.647 Y36.169 E20.37517
G1 X100.277 Y35.855 E20.39858
G1 X100.939 Y35.615 E20.422
G1 X101.623 Y35.451 E20.4454
G1 X102.322 Y35.366 E20.46882
G1 X103.026 Y35.361 E20.49223
G1 X103.627 Y35.42 E20.51232
G1 X106.099 Y35.785 E20.59543
G1 X119.944 Y35.402 E21.05609
G1 X120.497 Y35.412 E21.07449
G1 X121.04 Y35.468 E21.09264
G1 X154.034 Y40.345 E22.20195
G1 X154.723 Y40.487 E22.22535
G1 X155.392 Y40.707 E22.24877
G1 X156.032 Y41 E22.27218
G1 X156.634 Y41.365 E22.2956
G1 X157.191 Y41.796 E22.31902
G1 X157.695 Y42.286 E22.3424
G1 X158.046 Y42.703 E22.36053
G1 X158.145 Y42.832 E22.36594
G1 X158.541 Y43.414 E22.38935
G1 X158.868 Y44.037 E22.41276
G1 X159.123 Y44.694 E22.4362
G1 X159.302 Y45.374 E22.45958
G1 X159.403 Y46.071 E22.48301
G1 X159.424 Y46.775 E22.50643
G1 X159.375 Y47.397 E22.52718
G1 X159.086 Y49.647 E22.60263
G1 X158.957 Y50.339 E22.62605
G1 X158.75 Y51.012 E22.64947
G1 X158.469 Y51.657 E22.67287
G1 X158.116 Y52.266 E22.69628
G1 X157.696 Y52.831 E22.71969
G1 X157.215 Y53.345 E22.74311
G1 X156.669 Y53.808 E22.76692
G1 X156.535 Y53.909 E22.7725
G1 X155.949 Y54.3 E22.79593
G1 X155.324 Y54.623 E22.81933
G1 X154.665 Y54.872 E22.84276
G1 X153.983 Y55.045 E22.86616
G1 X153.285 Y55.139 E22.88959
G1 X152.581 Y55.154 E22.91301
G1 X151.896 Y55.091 E22.93589
G1 X119.391 Y50.286 E24.02876
G1 X105.549 Y50.669 E24.48932
G1 X104.996 Y50.659 E24.50771
G1 X104.454 Y50.603 E24.52584
G1 X101.415 Y50.154 E24.62801
G1 X100.725 Y50.012 E24.65144
G1 X100.056 Y49.793 E24.67486
G1 X99.417 Y49.499 E24.69825
G1 X98.815 Y49.134 E24.72167
G1 X98.257 Y48.704 E24.7451
G1 X97.753 Y48.213 E24.7685
G1 X97.321 Y47.687 E24.79114
G1 X97.222 Y47.552 E24.79671
G1 X96.839 Y46.962 E24.8201
G1 X96.525 Y46.332 E24.84351
G1 X96.284 Y45.67 E24.86695
G1 X96.12 Y44.986 E24.89034
G1 X96.035 Y44.287 E24.91376
G1 X96.029 Y43.583 E24.93718
G1 X96.101 Y42.897 E24.96012
G1 X96.269 Y41.862 E24.99499
G1 X96.475 Y40.628 E25.0366
G1 X96.63 Y39.941 E25.06003
G1 X96.862 Y39.277 E25.08342
G0 F6000 X97.249 Y39.389
G1 F1200 X97.55 Y38.778 E25.10608
G1 X97.921 Y38.207 E25.12872
G1 X98.357 Y37.684 E25.15137
G1 X98.851 Y37.215 E25.17403
G1 X99.162 Y36.971 E25.18717
G1 X99.293 Y36.875 E25.19258
G1 X99.865 Y36.505 E25.21523
G1 X100.476 Y36.205 E25.23787
G1 X101.118 Y35.979 E25.26051
G1 X101.782 Y35.829 E25.28315
G1 X102.459 Y35.759 E25.30579
G1 X103.14 Y35.768 E25.32844
G1 X103.568 Y35.815 E25.34276
G1 X106.08 Y36.186 E25.42722
G1 X119.956 Y35.802 E25.88891
G1 X120.474 Y35.811 E25.90614
G1 X120.981 Y35.863 E25.9231
G1 X153.975 Y40.74 E27.0324
G1 X154.642 Y40.879 E27.05507
G1 X155.287 Y41.095 E27.07769
G1 X155.903 Y41.386 E27.10035
G1 X156.481 Y41.746 E27.123
G1 X157.012 Y42.172 E27.14564
G1 X157.49 Y42.657 E27.16829
G1 X157.728 Y42.947 E27.18077
G1 X157.827 Y43.076 E27.18617
G1 X158.209 Y43.639 E27.2088
G1 X158.523 Y44.244 E27.23147
G1 X158.763 Y44.881 E27.25411
G1 X158.927 Y45.542 E27.27677
G1 X159.013 Y46.217 E27.2994
G1 X159.019 Y46.898 E27.32205
G1 X158.979 Y47.346 E27.33701
G1 X158.69 Y49.596 E27.41246
G1 X158.564 Y50.265 E27.4351
G1 X158.36 Y50.915 E27.45776
G1 X158.081 Y51.536 E27.4804
G1 X157.732 Y52.12 E27.50303
G1 X157.316 Y52.66 E27.5257
G1 X156.841 Y53.147 E27.54833
G1 X156.428 Y53.489 E27.56617
G1 X156.294 Y53.59 E27.57175
G1 X155.727 Y53.967 E27.59439
G1 X155.12 Y54.275 E27.61703
G1 X154.481 Y54.51 E27.63968
G1 X153.819 Y54.668 E27.66231
G1 X153.143 Y54.748 E27.68495
G1 X152.462 Y54.748 E27.7076
G1 X151.955 Y54.696 E27.72456
G1 X119.41 Y49.885 E28.81877
G1 X105.537 Y50.269 E29.28036
G1 X105.019 Y50.26 E29.2976
G1 X104.512 Y50.208 E29.31455
G1 X101.473 Y49.759 E29.41672
G1 X100.807 Y49.62 E29.43935
G1 X100.161 Y49.404 E29.46201
G1 X99.545 Y49.114 E29.48465
G1 X98.967 Y48.753 E29.50732
G1 X98.436 Y48.328 E29.52994
G1 X97.958 Y47.843 E29.55259
G1 X97.644 Y47.451 E29.56929
G1 X97.545 Y47.316 E29.57486
G1 X97.175 Y46.744 E29.59752
G1 X96.875 Y46.133 E29.62016
G1 X96.648 Y45.491 E29.64281
G1 X96.499 Y44.827 E29.66544
G1 X96.428 Y44.149 E29.68811
G1 X96.437 Y43.469 E29.71073
G1 X96.496 Y42.961 E29.72774
G1 X96.663 Y41.928 E29.76255
G1 X96.869 Y40.694 E29.80416
G1 X97.021 Y40.03 E29.82681
G1 X97.249 Y39.389 E29.84944
G0 F6000 X97.635 Y39.502
G1 F1200 X97.933 Y38.916 E29.87131
G1 X98.299 Y38.371 E29.89314
G1 X98.729 Y37.874 E29.915
G1 X99.398 Y37.293 E29.94447
G1 X99.529 Y37.197 E29.94987
G1 X100.082 Y36.842 E29.97173
G1 X100.673 Y36.556 E29.99357
G1 X101.295 Y36.345 E30.01541
G1 X101.938 Y36.21 E30.03727
G1 X102.593 Y36.155 E30.05913
G1 X103.51 Y36.211 E30.08968
G1 X106.056 Y36.587 E30.17528
G1 X119.967 Y36.202 E30.63814
G1 X120.45 Y36.21 E30.65421
G1 X120.923 Y36.259 E30.67003
G1 X153.917 Y41.136 E31.77933
G1 X154.559 Y41.271 E31.80115
G1 X155.181 Y41.484 E31.82302
G1 X155.772 Y41.77 E31.84486
G1 X156.324 Y42.126 E31.86671
G1 X156.829 Y42.547 E31.88857
G1 X157.411 Y43.19 E31.91742
G1 X157.51 Y43.319 E31.92283
G1 X157.877 Y43.864 E31.94468
G1 X158.176 Y44.449 E31.96653
G1 X158.401 Y45.066 E31.98838
G1 X158.55 Y45.706 E32.01023
G1 X158.62 Y46.359 E32.03207
G1 X158.582 Y47.295 E32.06323
G1 X158.293 Y49.545 E32.13868
G1 X158.17 Y50.19 E32.16052
G1 X157.969 Y50.816 E32.18239
G1 X157.694 Y51.412 E32.20422
G1 X157.349 Y51.971 E32.22607
G1 X156.938 Y52.484 E32.24793
G1 X156.468 Y52.943 E32.26978
G1 X156.187 Y53.169 E32.28178
G1 X156.053 Y53.27 E32.28736
G1 X155.506 Y53.633 E32.30919
G1 X154.918 Y53.927 E32.33106
G1 X154.299 Y54.147 E32.35291
G1 X153.658 Y54.29 E32.37475
G1 X153.004 Y54.354 E32.39661
G1 X152.347 Y54.339 E32.41846
G1 X152.013 Y54.3 E32.42965
G1 X119.434 Y49.484 E33.52501
G1 X105.526 Y49.869 E33.98776
G1 X105.043 Y49.861 E34.00383
G1 X104.571 Y49.812 E34.01961
G1 X101.532 Y49.363 E34.12179
G1 X100.889 Y49.228 E34.14364
G1 X100.267 Y49.015 E34.16551
G1 X99.676 Y48.729 E34.18735
G1 X99.124 Y48.373 E34.20919
G1 X98.619 Y47.952 E34.23106
G1 X98.169 Y47.474 E34.2529
G1 X97.966 Y47.214 E34.26387
G1 X97.867 Y47.079 E34.26944
G1 X97.512 Y46.527 E34.29126
